;4-top-and-bottom-dual
;Printer name: Anet (Custom) A8
;Print time: 3h:46m:34s
;Extruder 1 material used: 13910mm
;Extruder 1 material name: ABS 1.75mm
;Extruder 1 filament diameter: 1.75mm
;Extruder 1 nozzle diameter: 0.4mm
;Extruder 1 offset x: 0mm
;Extruder 1 offset y: 0mm
;Extruder 1 offset z: 0mm
;Extruder 1 max temp: 250
;Bed temp: 85
;Layer count: 46
;Width: 220mm
;Depth: 220mm
;Height: 240mm
;Center x: 110mm
;Center y: 110mm
;Center z: 0mm
;Count of bodies: 4
;Fusion version: 2.0.12160
G21
;--------------------------------
;Selected Profile: PET-G Custom 1.75mm, 0.4mm Nozzle
;Selected Printer: Anet (Custom), A8
;--------------------------------
T0
M140 S75
M104 S250 T0
M105
M190 S75
M105
M109 S250 T0
G1 F9000
G90
M83
M155 S5
G28 X0 Y0
G28 Z0
M420 S1
M420 Z10
M900 K0
G1 F9000
G92 E0
G0 X0 Y0 Z10
G92 E0
;--------------------------------
;Layer : 1 of 46
M107
;rapid-leaky
G0 X18.574 Y18.899 Z0.3 F9000
G1 F1800 E0.5
;bead-skirt/brim
G1 X21.591 Y17.158 F780 E0.174
G1 X23.448 Y16.836 E0.094
G1 X28.547 Y16.857 E0.254
G1 X28.855 Y18.022 E0.06
G1 X30.21 Y20.369 E0.136
G1 X34.466 Y24.149 E0.284
G1 X33.122 Y24.921 E0.077
G1 X42.767 Y30.49 E0.555
G1 X41.478 Y31.235 E0.075
G1 X68.784 Y46.998 E1.573
G1 Y46.924 E0.004
G1 X124.038 Y78.824 E3.183
G1 X125.274 Y78.049 E0.072
G1 X129.949 Y80.748 E0.27
G1 X129.948 Y79.313 E0.071
G1 X135.342 Y81.097 E0.284
G1 X139.181 Y81.098 E0.191
G1 X139.179 Y82.36 E0.063
G1 X140.13 Y82.683 E0.05
G1 X140.131 Y83.865 E0.059
G1 X140.254 Y84.106 E0.014
G1 X141.103 Y84.974 E0.06
G1 Y85.791 E0.041
G1 X141.587 Y87.138 E0.072
G1 X141.584 Y89.994 E0.142
G1 X141.332 Y90.972 E0.05
G1 X141.103 Y91.564 E0.032
G1 X141.104 Y92.407 E0.042
G1 X140.247 Y93.278 E0.061
G1 X140.132 Y93.502 E0.013
G1 X140.13 Y94.717 E0.06
G1 X139.653 Y94.875 E0.025
G1 Y95.593 E0.036
G1 X139.31 Y95.641 E0.017
G1 Y96.276 E0.032
G1 X135.332 E0.199
G1 X129.945 Y98.058 E0.283
G1 X129.947 Y96.921 E0.056
G1 X129.473 Y96.986 E0.024
G1 Y96.792 E0.01
G1 X120.777 Y101.813 E0.501
G1 Y100.322 E0.074
G1 X68.543 Y130.481 E3.009
G1 X68.544 Y130.452 E0.002
G1 X41.472 Y146.081 E1.559
G1 X42.761 Y146.826 E0.075
G1 X33.093 Y152.408 E0.557
G1 X34.335 Y153.126 E0.071
G1 X30.116 Y156.888 E0.282
G1 X28.622 Y159.475 E0.149
G1 X28.277 Y160.645 E0.061
G1 X23.249 Y160.402 E0.251
G1 X21.583 Y160.148 E0.084
G1 X18.457 Y158.357 E0.18
G1 X17.388 Y157.041 E0.085
G1 X16.914 Y156.32 E0.043
G1 X14.831 Y152.264 E0.227
G1 X15.779 Y151.36 E0.065
G1 X16.964 Y149.307 E0.119
G1 X18.108 Y143.762 E0.282
G1 X19.45 Y144.535 E0.077
G1 X19.451 Y133.371 E0.557
G1 X20.741 Y134.115 E0.075
G1 X20.747 Y43.201 E4.535
G1 X19.457 Y43.945 E0.075
G1 X19.458 Y33.363 E0.528
G1 X19.396 Y33.399 E0.003
G1 X19.206 Y32.936 E0.025
G1 X18.197 Y33.518 E0.058
G1 X17.061 Y27.956 E0.284
G1 X15.557 Y25.351 E0.15
G1 X14.716 Y24.462 E0.061
G1 X17.493 Y20.214 E0.253
G1 X18.574 Y18.899 E0.085
;rapid-leaky
G0 X18.837 Y19.209 F9000
;bead-skirt/brim
G1 X21.73 Y17.54 F780 E0.166
G1 X23.482 Y17.236 E0.089
G1 X28.239 Y17.256 E0.237
G1 X28.482 Y18.176 E0.048
G1 X29.896 Y20.625 E0.141
G1 X33.785 Y24.079 E0.26
G1 X32.485 Y24.825 E0.074
G1 X32.673 Y25.124 E0.018
G1 X41.967 Y30.49 E0.535
G1 X40.678 Y31.235 E0.075
G1 X69.184 Y47.691 E1.642
G1 Y47.617 E0.003
G1 X124.046 Y79.291 E3.161
G1 X125.283 Y78.516 E0.073
G1 X130.089 Y81.291 E0.277
G1 X130.349 Y81.303 E0.013
G1 X130.348 Y79.867 E0.071
G1 X135.278 Y81.497 E0.259
G1 X138.78 Y81.498 E0.175
G1 X138.778 Y82.647 E0.057
G1 X139.731 Y82.97 E0.051
G1 Y83.961 E0.049
G1 X139.926 Y84.342 E0.021
G1 X140.703 Y85.137 E0.056
G1 Y85.862 E0.036
G1 X141.187 Y87.207 E0.071
G1 X141.184 Y89.944 E0.137
G1 X140.951 Y90.849 E0.046
G1 X140.703 Y91.49 E0.035
G1 X140.704 Y92.244 E0.037
G1 X139.919 Y93.041 E0.056
G1 X139.732 Y93.405 E0.021
G1 X139.731 Y94.428 E0.051
G1 X139.253 Y94.586 E0.025
G1 Y95.245 E0.033
G1 X138.91 Y95.293 E0.017
G1 Y95.876 E0.029
G1 X135.268 E0.182
G1 X130.346 Y97.504 E0.258
G1 X130.348 Y96.462 E0.052
G1 X129.873 Y96.527 E0.024
G1 Y96.099 E0.022
G1 X121.177 Y101.12 E0.501
G1 Y99.629 E0.074
G1 X68.968 Y129.773 E3.008
G1 X68.969 Y129.745 E0.001
G1 X40.672 Y146.081 E1.63
G1 X41.961 Y146.826 E0.074
G1 X32.498 Y152.29 E0.546
G1 X32.389 Y152.462 E0.01
G1 X33.656 Y153.195 E0.073
G1 X29.802 Y156.632 E0.257
G1 X28.252 Y159.316 E0.155
G1 X27.982 Y160.231 E0.048
G1 X23.289 Y160.004 E0.234
G1 X21.717 Y159.764 E0.079
G1 X18.721 Y158.047 E0.173
G1 X17.711 Y156.805 E0.08
G1 X17.26 Y156.118 E0.041
G1 X15.324 Y152.347 E0.211
G1 X16.097 Y151.61 E0.053
G1 X17.342 Y149.452 E0.125
G1 X18.388 Y144.385 E0.258
G1 X19.66 Y145.117 E0.073
G1 X19.85 Y144.754 E0.02
G1 X19.851 Y134.063 E0.534
G1 X21.141 Y134.808 E0.074
G1 X21.147 Y42.508 E4.605
G1 X19.857 Y43.252 E0.074
G1 X19.858 Y32.669 E0.528
G1 X19.592 Y32.823 E0.016
G1 X19.402 Y32.361 E0.024
G1 X18.478 Y32.895 E0.054
G1 X17.44 Y27.812 E0.258
G1 X15.879 Y25.11 E0.156
G1 X15.224 Y24.417 E0.048
G1 X17.816 Y20.451 E0.236
G1 X18.837 Y19.209 E0.08
;rapid-leaky
G0 X19.1 Y19.519 F9000
;bead-skirt/brim
G1 X21.868 Y17.922 F780 E0.16
G1 X23.515 Y17.637 E0.083
G1 X27.931 Y17.655 E0.22
G1 X28.109 Y18.33 E0.035
G1 X29.582 Y20.881 E0.147
G1 X33.104 Y24.009 E0.235
G1 X31.925 Y24.686 E0.068
G1 X32.361 Y25.379 E0.041
G1 X32.338 Y25.392 E0.001
G1 X41.167 Y30.49 E0.509
G1 X39.878 Y31.235 E0.074
G1 X69.584 Y48.384 E1.711
G1 Y48.31 E0.004
G1 X124.055 Y79.758 E3.138
G1 X125.291 Y78.982 E0.073
G1 X129.973 Y81.685 E0.27
G1 X130.75 Y81.724 E0.038
G1 X130.749 Y80.421 E0.065
G1 X135.213 Y81.897 E0.235
G1 X138.379 Y81.898 E0.158
G1 X138.378 Y82.933 E0.052
G1 X139.331 Y83.256 E0.05
G1 Y84.058 E0.04
G1 X139.597 Y84.578 E0.029
G1 X140.303 Y85.3 E0.05
G1 Y85.958 E0.033
G1 X140.787 Y87.277 E0.07
G1 X140.784 Y89.893 E0.131
G1 X140.569 Y90.726 E0.043
G1 X140.303 Y91.411 E0.036
G1 Y92.08 E0.034
G1 X139.59 Y92.804 E0.05
G1 X139.333 Y93.308 E0.029
G1 X139.331 Y94.138 E0.041
G1 X138.853 Y94.297 E0.025
G1 Y94.897 E0.03
G1 X138.51 Y94.945 E0.017
G1 Y95.476 E0.027
G1 X135.204 E0.165
G1 X130.747 Y96.95 E0.234
G1 X130.748 Y96.004 E0.047
G1 X130.273 Y96.069 E0.024
G1 Y95.476 E0.03
G1 X130.152 E0.006
G1 X121.577 Y100.427 E0.494
G1 Y98.937 E0.074
G1 X69.393 Y129.066 E3.006
G1 X69.394 Y129.037 E0.002
G1 X39.872 Y146.081 E1.701
G1 X41.161 Y146.826 E0.074
G1 X32.213 Y151.993 E0.515
G1 X31.828 Y152.6 E0.036
G1 X32.977 Y153.265 E0.066
G1 X29.488 Y156.377 E0.234
G1 X27.893 Y159.117 E0.158
G1 X27.687 Y159.816 E0.036
G1 X23.329 Y159.605 E0.218
G1 X21.851 Y159.38 E0.075
G1 X18.984 Y157.737 E0.164
G1 X18.035 Y156.568 E0.076
G1 X17.607 Y155.916 E0.038
G1 X15.816 Y152.43 E0.196
G1 X16.414 Y151.86 E0.041
G1 X17.721 Y149.596 E0.131
G1 X18.668 Y145.008 E0.233
G1 X19.821 Y145.671 E0.067
G1 X20.211 Y144.927 E0.042
G1 X20.25 Y144.95 E0.002
G1 Y134.756 E0.508
G1 X21.541 Y135.5 E0.075
G1 X21.548 Y41.816 E4.674
G1 X20.257 Y42.56 E0.074
G1 X20.258 Y31.975 E0.528
G1 X19.788 Y32.247 E0.027
G1 X19.599 Y31.786 E0.025
G1 X18.759 Y32.271 E0.048
G1 X17.819 Y27.668 E0.235
G1 X16.235 Y24.926 E0.158
G1 X16.249 Y24.918 E0.001
G1 X15.731 Y24.371 E0.037
G1 X18.139 Y20.689 E0.22
G1 X19.1 Y19.519 E0.075
;rapid-leaky
G0 X19.363 Y19.829 F9000
;bead-skirt/brim
G1 X22.006 Y18.304 F780 E0.152
G1 X23.549 Y18.037 E0.079
G1 X27.623 Y18.054 E0.203
G1 X27.801 Y18.73 E0.035
G1 X27.859 Y18.697 E0.003
G1 X29.268 Y21.137 E0.141
G1 X32.422 Y23.939 E0.21
G1 X31.365 Y24.546 E0.061
G1 X31.801 Y25.24 E0.041
G1 X31.678 Y25.31 E0.007
G1 X31.819 Y25.555 E0.014
G1 X40.368 Y30.49 E0.492
G1 X39.078 Y31.235 E0.075
G1 X69.984 Y49.077 E1.78
G1 Y49.003 E0.004
G1 X124.063 Y80.224 E3.115
G1 X125.3 Y79.449 E0.073
G1 X130.231 Y82.296 E0.284
G1 X130.329 E0.005
G1 Y82.103 E0.01
G1 X131.15 Y82.144 E0.041
G1 X131.149 Y80.974 E0.058
G1 X135.149 Y82.297 E0.21
G1 X137.979 Y82.298 E0.141
G1 X137.977 Y83.22 E0.046
G1 X138.931 Y83.543 E0.05
G1 Y84.154 E0.031
G1 X139.269 Y84.814 E0.037
G1 X139.903 Y85.463 E0.045
G1 X139.902 Y86.054 E0.03
G1 X139.968 Y86.183 E0.007
G1 X140.387 Y87.346 E0.062
G1 X140.385 Y89.842 E0.124
G1 X140.188 Y90.604 E0.039
G1 X139.903 Y91.315 E0.039
G1 Y91.916 E0.03
G1 X139.262 Y92.567 E0.045
G1 X138.933 Y93.212 E0.036
G1 X138.932 Y93.849 E0.032
G1 X138.453 Y94.008 E0.025
G1 Y94.549 E0.027
G1 X138.11 Y94.597 E0.018
G1 Y95.076 E0.023
G1 X135.139 E0.149
G1 X131.148 Y96.396 E0.209
G1 X131.149 Y95.545 E0.043
G1 X130.673 Y95.61 E0.024
G1 Y95.076 E0.026
G1 X130.045 E0.032
G1 X121.977 Y99.734 E0.465
G1 Y98.244 E0.074
G1 X69.819 Y128.358 E3.005
G1 X69.82 Y128.33 E0.001
G1 X39.072 Y146.081 E1.771
G1 X40.361 Y146.826 E0.075
G1 X31.63 Y151.867 E0.503
G1 X31.577 Y151.959 E0.005
G1 X31.711 Y152.037 E0.008
G1 X31.268 Y152.738 E0.041
G1 X32.298 Y153.334 E0.06
G1 X29.173 Y156.121 E0.208
G1 X27.756 Y158.575 E0.142
G1 X27.653 Y158.516 E0.006
G1 X27.393 Y159.401 E0.046
G1 X23.369 Y159.207 E0.201
G1 X21.985 Y158.996 E0.07
G1 X19.248 Y157.426 E0.157
G1 X18.358 Y156.332 E0.07
G1 X17.953 Y155.714 E0.037
G1 X16.308 Y152.513 E0.18
G1 X16.732 Y152.11 E0.029
G1 X18.1 Y149.74 E0.136
G1 X18.948 Y145.63 E0.21
G1 X19.983 Y146.226 E0.059
G1 X20.372 Y145.482 E0.042
G1 X20.51 Y145.562 E0.008
G1 X20.65 Y145.321 E0.014
G1 Y135.449 E0.493
G1 X21.94 Y136.193 E0.074
G1 X21.948 Y41.123 E4.743
G1 X20.658 Y41.868 E0.074
G1 Y31.785 E0.503
G1 X20.44 Y31.407 E0.022
G1 X19.984 Y31.671 E0.026
G1 X19.795 Y31.211 E0.025
G1 X19.04 Y31.647 E0.044
G1 X18.198 Y27.525 E0.21
G1 X16.782 Y25.073 E0.141
G1 X16.888 Y25.012 E0.006
G1 X16.239 Y24.326 E0.047
G1 X18.462 Y20.926 E0.203
G1 X19.363 Y19.829 E0.071
;rapid-leaky
G0 X19.626 Y20.139 F9000
;bead-skirt/brim
G1 X22.144 Y18.686 F780 E0.145
G1 X23.583 Y18.437 E0.072
G1 X27.314 Y18.452 E0.187
G1 X27.548 Y19.338 E0.045
G1 X27.713 Y19.243 E0.01
G1 X28.954 Y21.393 E0.124
G1 X31.741 Y23.869 E0.186
G1 X30.805 Y24.406 E0.053
G1 X31.241 Y25.101 E0.041
G1 X31.132 Y25.163 E0.007
G1 X31.526 Y25.847 E0.039
G1 X39.568 Y30.49 E0.463
G1 X38.278 Y31.235 E0.075
G1 X70.384 Y49.77 E1.849
G1 Y49.696 E0.004
G1 X124.072 Y80.691 E3.093
G1 X125.308 Y79.916 E0.072
G1 X130.123 Y82.696 E0.278
G1 X130.729 E0.03
G1 Y82.524 E0.009
G1 X131.55 Y82.564 E0.041
G1 X131.549 Y81.528 E0.051
G1 X135.084 Y82.697 E0.186
G1 X137.578 Y82.698 E0.125
G1 X137.577 Y83.507 E0.04
G1 X138.531 Y83.83 E0.05
G1 X138.532 Y84.266 E0.022
G1 X138.94 Y85.05 E0.044
G1 X139.503 Y85.626 E0.04
G1 X139.502 Y86.15 E0.026
G1 X139.601 Y86.343 E0.011
G1 X139.987 Y87.416 E0.057
G1 X139.985 Y89.791 E0.119
G1 X139.806 Y90.481 E0.035
G1 X139.579 Y91.07 E0.032
G1 X139.503 Y91.218 E0.008
G1 Y91.752 E0.027
G1 X138.934 Y92.331 E0.04
G1 X138.55 Y93.081 E0.042
G1 X138.533 Y93.091 E0.001
G1 X138.532 Y93.56 E0.023
G1 X138.053 Y93.719 E0.026
G1 Y94.201 E0.024
G1 X137.71 Y94.248 E0.017
G1 Y94.676 E0.021
G1 X135.075 E0.132
G1 X131.548 Y95.842 E0.185
G1 X131.55 Y95.087 E0.038
G1 X131.073 Y95.152 E0.024
G1 Y94.676 E0.024
G1 X129.938 E0.056
G1 X122.377 Y99.041 E0.436
G1 Y97.551 E0.074
G1 X70.244 Y127.651 E3.003
G1 X70.245 Y127.623 E0.002
G1 X38.272 Y146.081 E1.842
G1 X39.561 Y146.826 E0.074
G1 X31.337 Y151.575 E0.474
G1 X31.032 Y152.106 E0.03
G1 X31.151 Y152.175 E0.007
G1 X30.707 Y152.876 E0.042
G1 X31.619 Y153.404 E0.052
G1 X28.859 Y155.865 E0.185
G1 X27.609 Y158.029 E0.124
G1 X27.413 Y157.916 E0.012
G1 X27.098 Y158.987 E0.055
G1 X23.409 Y158.808 E0.185
G1 X22.119 Y158.611 E0.065
G1 X19.511 Y157.116 E0.15
G1 X18.681 Y156.095 E0.065
G1 X18.299 Y155.513 E0.035
G1 X16.801 Y152.597 E0.164
G1 X17.339 Y152.083 E0.037
G1 X17.242 Y152.027 E0.005
G1 X18.479 Y149.884 E0.124
G1 X19.228 Y146.253 E0.185
G1 X20.144 Y146.78 E0.053
G1 X20.533 Y146.037 E0.041
G1 X20.656 Y146.109 E0.007
G1 X21.05 Y145.428 E0.04
G1 Y136.141 E0.463
G1 X22.34 Y136.886 E0.074
G1 X22.348 Y40.431 E4.812
G1 X21.058 Y41.175 E0.075
G1 Y31.677 E0.474
G1 X20.586 Y30.86 E0.047
G1 X20.18 Y31.095 E0.023
G1 X19.991 Y30.636 E0.025
G1 X19.321 Y31.023 E0.039
G1 X18.577 Y27.381 E0.185
G1 X17.329 Y25.22 E0.124
G1 X17.527 Y25.106 E0.012
G1 X16.747 Y24.28 E0.057
G1 X18.785 Y21.163 E0.185
G1 X19.626 Y20.139 E0.067
;rapid-leaky
G0 X19.889 Y20.449 F9000
;bead-skirt/brim
G1 X22.283 Y19.068 F780 E0.137
G1 X23.616 Y18.837 E0.068
G1 X27.006 Y18.851 E0.169
G1 X27.295 Y19.945 E0.056
G1 X27.566 Y19.789 E0.016
G1 X28.64 Y21.649 E0.107
G1 X31.06 Y23.799 E0.162
G1 X30.245 Y24.267 E0.047
G1 X30.681 Y24.961 E0.041
G1 X30.586 Y25.017 E0.005
G1 X31.233 Y26.14 E0.065
G1 X38.768 Y30.49 E0.434
G1 X37.478 Y31.235 E0.074
G1 X70.784 Y50.462 E1.919
G1 Y50.388 E0.003
G1 X124.08 Y81.158 E3.071
G1 X125.316 Y80.383 E0.073
G1 X130.016 Y83.096 E0.27
G1 X131.129 E0.056
G1 Y82.944 E0.007
G1 X131.95 Y82.984 E0.041
G1 Y82.082 E0.045
G1 X135.02 Y83.097 E0.162
G1 X137.177 Y83.098 E0.107
G1 X137.176 Y83.793 E0.035
G1 X138.131 Y84.117 E0.05
G1 X138.132 Y84.501 E0.02
G1 X138.242 Y84.562 E0.006
G1 X138.612 Y85.286 E0.04
G1 X139.103 Y85.789 E0.035
G1 X139.102 Y86.246 E0.023
G1 X139.233 Y86.502 E0.015
G1 X139.587 Y87.486 E0.052
G1 X139.585 Y89.74 E0.112
G1 X139.425 Y90.359 E0.032
G1 X139.213 Y90.906 E0.029
G1 X139.103 Y91.122 E0.012
G1 Y91.589 E0.024
G1 X138.606 Y92.094 E0.035
G1 X138.249 Y92.792 E0.039
G1 X138.133 Y92.857 E0.007
G1 Y93.271 E0.021
G1 X137.653 Y93.43 E0.025
G1 Y93.852 E0.021
G1 X137.31 Y93.9 E0.017
G1 Y94.276 E0.019
G1 X135.01 E0.115
G1 X131.949 Y95.288 E0.16
G1 X131.95 Y94.628 E0.033
G1 X131.473 Y94.694 E0.024
G1 Y94.276 E0.021
G1 X129.83 E0.082
G1 X122.777 Y98.349 E0.407
G1 Y96.858 E0.074
G1 X70.669 Y126.943 E3.002
G1 X70.67 Y126.915 E0.001
G1 X37.472 Y146.081 E1.913
G1 X38.761 Y146.826 E0.074
G1 X31.044 Y151.282 E0.445
G1 X30.486 Y152.252 E0.055
G1 X30.59 Y152.313 E0.006
G1 X30.147 Y153.014 E0.042
G1 X30.94 Y153.473 E0.045
G1 X28.545 Y155.609 E0.161
G1 X27.463 Y157.483 E0.108
G1 X27.173 Y157.315 E0.016
G1 X26.803 Y158.572 E0.066
G1 X23.449 Y158.41 E0.167
G1 X22.253 Y158.227 E0.06
G1 X19.775 Y156.806 E0.143
G1 X19.004 Y155.858 E0.061
G1 X18.645 Y155.311 E0.033
G1 X17.293 Y152.68 E0.147
G1 X18 Y152.005 E0.049
G1 X17.787 Y151.881 E0.012
G1 X18.857 Y150.028 E0.107
G1 X19.508 Y146.875 E0.161
G1 X20.305 Y147.334 E0.046
G1 X20.693 Y146.593 E0.041
G1 X20.802 Y146.656 E0.007
G1 X21.45 Y145.535 E0.064
G1 Y136.834 E0.434
G1 X22.74 Y137.579 E0.075
G1 X22.748 Y39.738 E4.881
G1 X21.458 Y40.483 E0.074
G1 Y31.57 E0.445
G1 X20.732 Y30.313 E0.072
G1 X20.376 Y30.519 E0.021
G1 X20.188 Y30.061 E0.024
G1 X19.602 Y30.399 E0.034
G1 X18.956 Y27.237 E0.161
G1 X17.876 Y25.367 E0.108
G1 X18.167 Y25.2 E0.017
G1 X17.254 Y24.235 E0.066
G1 X19.107 Y21.4 E0.169
G1 X19.889 Y20.449 E0.061
;rapid-leaky
G0 X20.152 Y20.759 F9000
;bead-skirt/brim
G1 X22.421 Y19.45 F780 E0.131
G1 X23.65 Y19.237 E0.062
G1 X26.698 Y19.25 E0.152
G1 X27.042 Y20.552 E0.068
G1 X27.419 Y20.335 E0.021
G1 X28.326 Y21.905 E0.091
G1 X30.379 Y23.729 E0.137
G1 X29.685 Y24.127 E0.04
G1 X30.122 Y24.822 E0.041
G1 X30.04 Y24.87 E0.004
G1 X30.94 Y26.433 E0.09
G1 X37.968 Y30.49 E0.405
G1 X36.678 Y31.235 E0.074
G1 X71.184 Y51.155 E1.988
G1 Y51.081 E0.004
G1 X124.089 Y81.625 E3.048
G1 X125.325 Y80.85 E0.072
G1 X129.909 Y83.496 E0.264
G1 X131.529 E0.081
G1 Y83.364 E0.007
G1 X132.351 Y83.404 E0.041
G1 X132.35 Y82.636 E0.038
G1 X134.955 Y83.497 E0.137
G1 X136.777 Y83.498 E0.091
G1 X136.776 Y84.08 E0.029
G1 X137.732 Y84.404 E0.05
G1 Y84.737 E0.017
G1 X137.941 Y84.853 E0.012
G1 X138.283 Y85.522 E0.038
G1 X138.702 Y85.952 E0.029
G1 Y86.343 E0.02
G1 X138.865 Y86.661 E0.018
G1 X139.187 Y87.555 E0.047
G1 X139.185 Y89.689 E0.107
G1 X139.043 Y90.236 E0.028
G1 X138.847 Y90.743 E0.027
G1 X138.703 Y91.026 E0.016
G1 Y91.425 E0.02
G1 X138.278 Y91.857 E0.03
G1 X137.948 Y92.502 E0.036
G1 X137.734 Y92.623 E0.012
G1 X137.733 Y92.982 E0.018
G1 X137.253 Y93.141 E0.026
G1 Y93.504 E0.018
G1 X136.91 Y93.552 E0.017
G1 Y93.876 E0.016
G1 X134.946 E0.098
G1 X132.35 Y94.734 E0.137
G1 X132.351 Y94.17 E0.028
G1 X131.873 Y94.235 E0.024
G1 Y93.876 E0.018
G1 X129.723 E0.107
G1 X123.177 Y97.656 E0.377
G1 Y96.165 E0.074
G1 X71.094 Y126.236 E3.001
G1 X71.096 Y126.208 E0.001
G1 X36.672 Y146.081 E1.983
G1 X37.962 Y146.826 E0.075
G1 X30.75 Y150.989 E0.415
G1 X29.941 Y152.399 E0.081
G1 X30.03 Y152.45 E0.005
G1 X29.586 Y153.152 E0.042
G1 X30.262 Y153.542 E0.039
G1 X28.231 Y155.354 E0.135
G1 X27.317 Y156.936 E0.091
G1 X26.933 Y156.714 E0.023
G1 X26.508 Y158.157 E0.075
G1 X23.489 Y158.011 E0.15
G1 X22.388 Y157.843 E0.056
G1 X20.038 Y156.496 E0.135
G1 X19.328 Y155.622 E0.056
G1 X18.991 Y155.109 E0.031
G1 X17.786 Y152.763 E0.132
G1 X18.662 Y151.927 E0.06
G1 X18.333 Y151.736 E0.019
G1 X19.236 Y150.172 E0.09
G1 X19.788 Y147.498 E0.136
G1 X20.466 Y147.888 E0.039
G1 X20.854 Y147.148 E0.042
G1 X20.949 Y147.202 E0.005
G1 X21.85 Y145.643 E0.09
G1 Y137.527 E0.405
G1 X23.14 Y138.271 E0.075
G1 X23.148 Y39.046 E4.95
G1 X21.858 Y39.79 E0.074
G1 Y31.463 E0.416
G1 X20.878 Y29.766 E0.097
G1 X20.572 Y29.943 E0.018
G1 X20.384 Y29.486 E0.025
G1 X19.882 Y29.775 E0.029
G1 X19.335 Y27.093 E0.136
G1 X18.423 Y25.514 E0.091
G1 X18.68 Y25.366 E0.015
G1 X18.531 Y25.003 E0.02
G1 X17.762 Y24.19 E0.055
G1 X19.43 Y21.637 E0.153
G1 X20.152 Y20.759 E0.056
;rapid-leaky
G0 X20.414 Y21.07 F9000
;bead-skirt/brim
G1 X22.559 Y19.832 F780 E0.124
G1 X23.683 Y19.637 E0.057
G1 X26.389 Y19.648 E0.135
G1 X26.789 Y21.16 E0.078
G1 X27.273 Y20.881 E0.028
G1 X28.012 Y22.161 E0.073
G1 X29.697 Y23.659 E0.113
G1 X29.125 Y23.987 E0.033
G1 X29.562 Y24.683 E0.041
G1 X29.493 Y24.723 E0.004
G1 X30.647 Y26.726 E0.115
G1 X37.168 Y30.49 E0.376
G1 X35.879 Y31.235 E0.074
G1 X71.584 Y51.848 E2.057
G1 Y51.774 E0.004
G1 X124.097 Y82.091 E3.025
G1 X125.333 Y81.316 E0.072
G1 X129.802 Y83.896 E0.258
G1 X131.929 E0.106
G1 Y83.784 E0.006
G1 X132.751 Y83.824 E0.041
G1 Y83.189 E0.031
G1 X134.891 Y83.897 E0.113
G1 X136.376 Y83.898 E0.074
G1 X136.375 Y84.367 E0.023
G1 X137.332 Y84.691 E0.051
G1 Y84.972 E0.014
G1 X137.64 Y85.143 E0.017
G1 X137.955 Y85.758 E0.035
G1 X138.302 Y86.115 E0.025
G1 Y86.439 E0.016
G1 X138.497 Y86.821 E0.021
G1 X138.787 Y87.625 E0.043
G1 X138.785 Y89.638 E0.1
G1 X138.662 Y90.114 E0.025
G1 X138.482 Y90.579 E0.025
G1 X138.302 Y90.93 E0.019
G1 X138.303 Y91.261 E0.017
G1 X137.949 Y91.62 E0.025
G1 X137.646 Y92.213 E0.033
G1 X137.334 Y92.389 E0.018
G1 X137.333 Y92.693 E0.015
G1 X136.853 Y92.851 E0.025
G1 Y93.156 E0.016
G1 X136.51 Y93.204 E0.017
G1 Y93.476 E0.014
G1 X134.881 E0.081
G1 X132.751 Y94.181 E0.112
G1 X132.752 Y93.711 E0.023
G1 X132.273 Y93.777 E0.024
G1 Y93.476 E0.015
G1 X129.616 E0.133
G1 X123.577 Y96.963 E0.348
G1 Y95.472 E0.074
G1 X71.52 Y125.529 E2.999
G1 X71.521 Y125.5 E0.001
G1 X35.872 Y146.081 E2.054
G1 X37.162 Y146.826 E0.074
G1 X30.457 Y150.697 E0.387
G1 X29.396 Y152.546 E0.106
G1 X29.469 Y152.588 E0.004
G1 X29.026 Y153.289 E0.042
G1 X29.583 Y153.612 E0.032
G1 X27.916 Y155.098 E0.111
G1 X27.17 Y156.39 E0.075
G1 X26.693 Y156.114 E0.027
G1 X26.213 Y157.742 E0.085
G1 X23.529 Y157.613 E0.134
G1 X22.522 Y157.459 E0.051
G1 X20.302 Y156.186 E0.127
G1 X19.651 Y155.385 E0.052
G1 X19.337 Y154.907 E0.028
G1 X18.278 Y152.846 E0.116
G1 X19.323 Y151.849 E0.072
G1 X18.879 Y151.591 E0.026
G1 X19.615 Y150.316 E0.073
G1 X20.068 Y148.12 E0.112
G1 X20.627 Y148.443 E0.032
G1 X21.015 Y147.703 E0.042
G1 X21.095 Y147.749 E0.004
G1 X22.25 Y145.75 E0.116
G1 Y138.219 E0.375
G1 X23.54 Y138.964 E0.075
G1 X23.548 Y38.353 E5.019
G1 X22.258 Y39.098 E0.074
G1 Y31.356 E0.387
G1 X21.024 Y29.219 E0.123
G1 X20.768 Y29.367 E0.015
G1 X20.58 Y28.911 E0.024
G1 X20.163 Y29.152 E0.024
G1 X19.713 Y26.95 E0.112
G1 X18.969 Y25.661 E0.074
G1 X19.184 Y25.538 E0.013
G1 X19.002 Y25.097 E0.024
G1 X19.111 Y25.034 E0.006
G1 X18.269 Y24.144 E0.061
G1 X19.753 Y21.874 E0.135
G1 X20.414 Y21.07 E0.052
;rapid-leaky
G0 X20.677 Y21.38 F9000
;bead-skirt/brim
G1 X22.698 Y20.214 F780 E0.117
G1 X23.717 Y20.037 E0.051
G1 X26.081 Y20.047 E0.118
G1 X26.536 Y21.767 E0.089
G1 X27.126 Y21.427 E0.034
G1 X27.698 Y22.417 E0.057
G1 X29.016 Y23.588 E0.088
G1 X28.565 Y23.847 E0.026
G1 X29.002 Y24.544 E0.041
G1 X28.947 Y24.576 E0.003
G1 X30.354 Y27.018 E0.141
G1 X36.368 Y30.491 E0.346
G1 X35.079 Y31.236 E0.074
G1 X71.984 Y52.541 E2.126
G1 Y52.467 E0.004
G1 X124.105 Y82.558 E3.003
G1 X125.342 Y81.783 E0.073
G1 X129.695 Y84.296 E0.25
G1 X132.329 E0.132
G1 Y84.204 E0.004
G1 X133.151 Y84.244 E0.041
G1 Y83.743 E0.025
G1 X134.826 Y84.297 E0.088
G1 X135.975 E0.058
G1 Y84.653 E0.018
G1 X136.932 Y84.978 E0.05
G1 Y85.208 E0.011
G1 X137.339 Y85.434 E0.024
G1 X137.626 Y85.995 E0.031
G1 X137.902 Y86.277 E0.02
G1 Y86.535 E0.013
G1 X138.13 Y86.98 E0.025
G1 X138.387 Y87.694 E0.037
G1 X138.385 Y89.587 E0.095
G1 X138.28 Y89.991 E0.021
G1 X138.116 Y90.415 E0.022
G1 X137.902 Y90.834 E0.024
G1 X137.903 Y91.098 E0.013
G1 X137.621 Y91.383 E0.02
G1 X137.345 Y91.924 E0.03
G1 X136.934 Y92.156 E0.024
G1 Y92.403 E0.012
G1 X136.453 Y92.562 E0.025
G1 Y92.808 E0.013
G1 X136.11 Y92.856 E0.017
G1 Y93.076 E0.011
G1 X134.817 E0.065
G1 X133.152 Y93.627 E0.087
G1 X133.153 Y93.253 E0.019
G1 X132.673 Y93.318 E0.024
G1 Y93.076 E0.012
G1 X129.509 E0.158
G1 X123.977 Y96.27 E0.318
G1 Y94.78 E0.075
G1 X71.945 Y124.821 E2.997
G1 X71.946 Y124.793 E0.002
G1 X35.072 Y146.081 E2.124
G1 X36.362 Y146.826 E0.074
G1 X30.164 Y150.404 E0.357
G1 X28.85 Y152.692 E0.132
G1 X28.909 Y152.726 E0.003
G1 X28.465 Y153.427 E0.042
G1 X28.904 Y153.681 E0.025
G1 X27.602 Y154.842 E0.087
G1 X27.024 Y155.843 E0.058
G1 X26.453 Y155.513 E0.033
G1 X25.918 Y157.328 E0.094
G1 X23.569 Y157.214 E0.117
G1 X22.656 Y157.075 E0.046
G1 X20.565 Y155.876 E0.121
G1 X19.974 Y155.149 E0.046
G1 X19.683 Y154.706 E0.027
G1 X18.77 Y152.929 E0.099
G1 X19.985 Y151.771 E0.084
G1 X19.424 Y151.445 E0.032
G1 X19.993 Y150.46 E0.057
G1 X20.348 Y148.743 E0.088
G1 X20.789 Y148.997 E0.025
G1 X21.176 Y148.258 E0.042
G1 X21.241 Y148.296 E0.003
G1 X22.65 Y145.857 E0.141
G1 Y138.912 E0.346
G1 X23.94 Y139.657 E0.075
G1 X23.948 Y37.661 E5.088
G1 X22.658 Y38.405 E0.075
G1 Y31.249 E0.357
G1 X21.169 Y28.672 E0.148
G1 X20.964 Y28.791 E0.012
G1 X20.777 Y28.336 E0.025
G1 X20.444 Y28.528 E0.019
G1 X20.092 Y26.806 E0.087
G1 X19.516 Y25.808 E0.058
G1 X19.687 Y25.71 E0.01
G1 X19.505 Y25.268 E0.024
G1 X19.749 Y25.126 E0.014
G1 X18.777 Y24.099 E0.07
G1 X20.076 Y22.111 E0.119
G1 X20.677 Y21.38 E0.047
;rapid-leaky
G0 X20.94 Y21.69 F9000
;bead-skirt/brim
G1 X22.836 Y20.596 F780 E0.109
G1 X23.75 Y20.438 E0.046
G1 X25.773 Y20.446 E0.101
G1 X26.283 Y22.374 E0.1
G1 X26.979 Y21.973 E0.04
G1 X27.384 Y22.673 E0.04
G1 X28.335 Y23.518 E0.064
G1 X28.005 Y23.708 E0.019
G1 X28.443 Y24.405 E0.041
G1 X28.401 Y24.429 E0.002
G1 X30.061 Y27.311 E0.166
G1 X35.569 Y30.491 E0.317
G1 X34.524 Y31.094 E0.061
G1 X32.589 Y29.977 E0.111
G1 X29.769 Y31.606 E0.163
G1 X28.017 Y30.596 E0.1
G1 X27.772 Y30.737 E0.015
G1 X29.769 Y31.889 E0.115
G1 X32.589 Y30.26 E0.162
G1 X72.384 Y53.234 E2.293
G1 Y53.16 E0.003
G1 X125.582 Y83.873 E3.065
G1 X125.583 Y87.167 E0.164
G1 X127.762 Y88.424 E0.126
G1 Y88.142 E0.014
G1 X125.828 Y87.025 E0.111
G1 X125.827 Y83.731 E0.165
G1 X124.349 Y82.878 E0.085
G1 X125.35 Y82.25 E0.059
G1 X129.588 Y84.696 E0.244
G1 X132.729 E0.157
G1 Y84.624 E0.003
G1 X133.552 Y84.665 E0.041
G1 X133.551 Y84.297 E0.019
G1 X134.762 Y84.697 E0.063
G1 X135.575 E0.041
G1 X135.574 Y84.94 E0.012
G1 X136.532 Y85.264 E0.05
G1 Y85.443 E0.009
G1 X137.039 Y85.724 E0.029
G1 X137.297 Y86.231 E0.028
G1 X137.502 Y86.44 E0.015
G1 Y86.631 E0.01
G1 X137.762 Y87.139 E0.028
G1 X137.987 Y87.764 E0.033
G1 X137.985 Y89.536 E0.089
G1 X137.899 Y89.869 E0.017
G1 X137.751 Y90.252 E0.02
G1 X137.502 Y90.738 E0.027
G1 Y90.934 E0.01
G1 X137.293 Y91.147 E0.015
G1 X137.044 Y91.635 E0.027
G1 X136.535 Y91.922 E0.03
G1 X136.534 Y92.114 E0.009
G1 X136.053 Y92.273 E0.025
G1 Y92.46 E0.01
G1 X135.71 Y92.508 E0.017
G1 Y92.676 E0.008
G1 X134.752 E0.048
G1 X133.553 Y93.073 E0.063
G1 Y92.794 E0.014
G1 X133.073 Y92.86 E0.024
G1 Y92.676 E0.01
G1 X129.402 E0.183
G1 X124.377 Y95.577 E0.289
G1 Y94.37 E0.06
G1 X125.828 Y93.532 E0.084
G1 Y90.001 E0.176
G1 X127.762 Y88.887 E0.112
G1 Y88.604 E0.014
G1 X125.583 Y89.86 E0.125
G1 Y93.39 E0.176
G1 X72.37 Y124.114 E3.066
G1 X72.371 Y124.086 E0.001
G1 X32.582 Y147.057 E2.292
G1 X29.513 Y145.285 E0.177
G1 X27.618 Y146.378 E0.109
G1 Y144.192 E0.109
G1 X24.34 Y142.3 E0.189
G1 X24.348 Y35.017 E5.353
G1 X27.618 Y33.132 E0.188
G1 X27.617 Y30.827 E0.115
G1 X27.372 Y30.968 E0.014
G1 X27.373 Y32.99 E0.101
G1 X24.103 Y34.876 E0.188
G1 Y37.11 E0.112
G1 X23.058 Y37.713 E0.06
G1 Y31.141 E0.328
G1 X21.315 Y28.125 E0.173
G1 X21.159 Y28.215 E0.009
G1 X20.973 Y27.761 E0.025
G1 X20.725 Y27.904 E0.014
G1 X20.471 Y26.662 E0.063
G1 X20.063 Y25.955 E0.041
G1 X20.19 Y25.882 E0.007
G1 X20.008 Y25.439 E0.024
G1 X20.387 Y25.219 E0.022
G1 X19.285 Y24.053 E0.08
G1 X20.399 Y22.348 E0.102
G1 X20.94 Y21.69 E0.042
;rapid-leaky
G0 X62.425 Y23.59 F9000
;bead-skirt/brim
G1 Y11.972 F780 E0.58
G1 X77.605 E0.757
G1 Y22.838 E0.543
G1 X113.32 Y43.458 E2.057
G1 X155.606 Y19.044 E2.436
G1 X161.906 Y29.956 E0.629
G1 X125.92 Y50.733 E2.073
G1 X161.906 Y71.509 E2.073
G1 X155.606 Y82.421 E0.628
G1 X66.715 Y31.1 E5.121
G1 X63.715 E0.15
G1 Y23.59 E0.375
G1 X62.425 E0.064
;rapid-leaky
G0 X62.825 Y23.19 F9000
;bead-skirt/brim
G1 Y12.372 F780 E0.54
G1 X77.205 E0.717
G1 Y23.069 E0.534
G1 X113.32 Y43.92 E2.08
G1 X155.459 Y19.591 E2.428
G1 X161.359 Y29.809 E0.589
G1 X125.12 Y50.733 E2.087
G1 X161.359 Y71.656 E2.088
G1 X155.46 Y81.874 E0.589
G1 X66.822 Y30.7 E5.106
G1 X64.115 E0.135
G1 Y23.19 E0.375
G1 X62.825 E0.064
;rapid-leaky
G0 X63.225 Y22.79 F9000
;bead-skirt/brim
G1 Y12.772 F780 E0.5
G1 X69.87 E0.331
G1 Y13.522 E0.038
G1 X70.16 E0.014
G1 Y12.772 E0.038
G1 X76.805 E0.331
G1 Y22.79 E0.5
G1 X75.922 E0.044
G1 X113.32 Y44.382 E2.154
G1 X155.313 Y20.137 E2.42
G1 X160.813 Y29.663 E0.548
G1 X124.32 Y50.733 E2.103
G1 X160.813 Y71.802 E2.102
G1 X155.313 Y81.328 E0.549
G1 X66.929 Y30.3 E5.091
G1 X64.515 E0.121
G1 Y22.79 E0.375
G1 X63.225 E0.064
;rapid-leaky
G0 X63.625 Y22.39 F9000
;bead-skirt/brim
G1 Y13.172 F780 E0.46
G1 X69.47 E0.291
G1 Y13.922 E0.038
G1 X70.56 E0.054
G1 Y13.172 E0.038
G1 X76.405 E0.291
G1 Y22.39 E0.46
G1 X75.115 E0.064
G1 Y22.786 E0.02
G1 X113.32 Y44.844 E2.201
G1 X155.167 Y20.683 E2.411
G1 X160.267 Y29.517 E0.509
G1 X123.52 Y50.733 E2.117
G1 X160.267 Y71.948 E2.117
G1 X155.167 Y80.782 E0.508
G1 X67.036 Y29.9 E5.077
G1 X64.915 E0.106
G1 Y22.39 E0.375
G1 X63.625 E0.064
;rapid-leaky
G0 X64.025 Y21.99 F9000
;bead-skirt/brim
G1 Y13.572 F780 E0.42
G1 X69.07 E0.252
G1 Y14.322 E0.037
G1 X70.96 E0.095
G1 Y13.572 E0.037
G1 X76.005 E0.252
G1 Y21.99 E0.42
G1 X74.715 E0.064
G1 Y23.017 E0.051
G1 X113.32 Y45.306 E2.224
G1 X155.02 Y21.23 E2.403
G1 X159.72 Y29.37 E0.469
G1 X122.72 Y50.733 E2.131
G1 X159.72 Y72.095 E2.132
G1 X155.02 Y80.235 E0.469
G1 X67.144 Y29.5 E5.062
G1 X65.315 E0.091
G1 Y21.99 E0.375
G1 X64.025 E0.064
;rapid-leaky
G0 X64.425 Y21.59 F9000
;bead-skirt/brim
G1 Y13.972 F780 E0.38
G1 X68.67 E0.212
G1 Y14.722 E0.038
G1 X71.36 E0.134
G1 Y13.972 E0.037
G1 X75.605 E0.212
G1 Y21.59 E0.38
G1 X74.315 E0.064
G1 Y23.248 E0.083
G1 X113.32 Y45.768 E2.247
G1 X154.874 Y21.776 E2.394
G1 X159.174 Y29.224 E0.429
G1 X121.92 Y50.733 E2.146
G1 X159.174 Y72.241 E2.146
G1 X154.874 Y79.689 E0.429
G1 X67.251 Y29.1 E5.048
G1 X65.715 E0.077
G1 Y21.59 E0.374
G1 X64.425 E0.065
;rapid-leaky
G0 X64.825 Y21.19 F9000
;bead-skirt/brim
G1 Y14.372 F780 E0.34
G1 X68.27 E0.172
G1 Y15.122 E0.037
G1 X71.76 E0.174
G1 Y14.372 E0.038
G1 X75.205 E0.172
G1 Y21.19 E0.34
G1 X73.915 E0.064
G1 Y23.479 E0.114
G1 X113.32 Y46.229 E2.27
G1 X154.727 Y22.323 E2.386
G1 X158.627 Y29.077 E0.389
G1 X121.12 Y50.733 E2.161
G1 X158.627 Y72.388 E2.16
G1 X154.727 Y79.142 E0.39
G1 X67.358 Y28.7 E5.033
G1 X66.115 E0.062
G1 Y21.19 E0.374
G1 X64.825 E0.065
;rapid-leaky
G0 X65.225 Y20.79 F9000
;bead-skirt/brim
G1 Y14.772 F780 E0.3
G1 X67.87 E0.132
G1 Y15.522 E0.037
G1 X72.16 E0.214
G1 Y14.772 E0.038
G1 X74.805 E0.132
G1 Y20.79 E0.3
G1 X73.515 E0.064
G1 Y23.71 E0.146
G1 X113.32 Y46.691 E2.293
G1 X154.581 Y22.869 E2.377
G1 X158.081 Y28.931 E0.349
G1 X120.32 Y50.733 E2.176
G1 X158.081 Y72.534 E2.175
G1 X154.581 Y78.596 E0.349
G1 X67.465 Y28.3 E5.019
G1 X66.515 E0.047
G1 Y20.79 E0.375
G1 X65.225 E0.064
;rapid-leaky
G0 X65.625 Y20.39 F9000
;bead-skirt/brim
G1 Y15.172 F780 E0.261
G1 X67.47 E0.092
G1 Y15.922 E0.037
G1 X72.56 E0.254
G1 Y15.172 E0.037
G1 X74.405 E0.093
G1 Y20.39 E0.26
G1 X73.115 E0.064
G1 Y23.941 E0.177
G1 X113.32 Y47.153 E2.316
G1 X154.435 Y23.415 E2.369
G1 X157.535 Y28.785 E0.309
G1 X119.52 Y50.733 E2.19
G1 X157.535 Y72.68 E2.19
G1 X154.435 Y78.05 E0.31
G1 X67.572 Y27.9 E5.004
G1 X66.915 E0.032
G1 Y20.39 E0.375
G1 X65.625 E0.064
;rapid-leaky
G0 X66.025 Y19.99 F9000
;bead-skirt/brim
G1 Y15.572 F780 E0.221
G1 X67.07 E0.052
G1 Y19.99 E0.22
G1 X66.025 E0.052
;rapid-leaky
G0 X67.315 Y16.322 F9000
;bead-skirt/brim
G1 X72.715 F780 E0.27
G1 Y24.172 E0.391
G1 X113.32 Y47.615 E2.34
G1 X154.288 Y23.962 E2.36
G1 X156.988 Y28.638 E0.269
G1 X118.72 Y50.733 E2.205
G1 X156.988 Y72.827 E2.204
G1 X154.288 Y77.503 E0.27
G1 X67.679 Y27.5 E4.989
G1 X67.315 E0.018
G1 Y16.322 E0.558
;rapid-leaky
G0 X72.96 Y15.572 F9000
;bead-skirt/brim
G1 X74.005 F780 E0.052
G1 Y19.99 E0.22
G1 X72.96 E0.053
G1 Y15.572 E0.22
;rapid-leaky
G0 X147.601 Y98.126 F9000
;bead-skirt/brim
G1 X147.602 Y98.154 F780 E0.001
G1 X187.416 Y75.169 E2.294
G1 X190.485 Y76.941 E0.177
G1 X192.38 Y75.848 E0.109
G1 Y78.034 E0.109
G1 X195.658 Y79.926 E0.189
G1 X195.65 Y187.209 E5.352
G1 X192.38 Y189.095 E0.189
G1 X192.379 Y191.578 E0.123
G1 X190.229 Y190.337 E0.124
G1 X187.409 Y191.966 E0.163
G1 X147.614 Y168.99 E2.292
G1 Y169.066 E0.004
G1 X94.416 Y138.352 E3.065
G1 X94.415 Y135.06 E0.164
G1 X92.235 Y133.802 E0.126
G1 X92.234 Y134.085 E0.014
G1 X94.17 Y135.201 E0.111
G1 X94.171 Y138.493 E0.164
G1 X95.661 Y139.353 E0.086
G1 X94.616 Y139.957 E0.06
G1 X90.412 Y137.53 E0.243
G1 X87.264 E0.157
G1 X87.263 Y137.595 E0.003
G1 X86.446 Y137.558 E0.041
G1 Y137.929 E0.018
G1 X85.239 Y137.53 E0.064
G1 X84.414 E0.041
G1 X84.418 Y136.774 E0.038
G1 X82.394 Y137.261 E0.104
G1 X81.465 Y135.435 E0.102
G1 X81.165 Y134.64 E0.042
G1 X81.169 Y132.437 E0.11
G1 X81.466 Y131.646 E0.042
G1 X82.384 Y129.825 E0.102
G1 X84.427 Y130.311 E0.105
G1 Y129.55 E0.038
G1 X85.246 E0.04
G1 X86.445 Y129.153 E0.063
G1 Y129.522 E0.019
G1 X87.272 Y129.484 E0.041
G1 Y129.55 E0.003
G1 X90.596 E0.166
G1 X94.615 Y127.23 E0.232
G1 X95.66 Y127.834 E0.06
G1 X94.17 Y128.694 E0.086
G1 Y132.225 E0.176
G1 X92.235 Y133.339 E0.111
G1 Y133.622 E0.015
G1 X94.415 Y132.366 E0.125
G1 Y128.836 E0.176
G1 X147.601 Y98.126 E3.064
;rapid-leaky
G0 X147.978 Y97.447 F9000
;bead-skirt/brim
G1 X147.979 Y97.475 F780 E0.002
G1 X185.526 Y75.798 E2.163
G1 Y74.309 E0.074
G1 X189.834 Y71.822 E0.248
G1 X191.147 Y69.534 E0.132
G1 X191.089 Y69.501 E0.003
G1 X191.533 Y68.799 E0.041
G1 X191.089 Y68.542 E0.026
G1 X192.4 Y67.378 E0.088
G1 X192.975 Y66.383 E0.057
G1 X193.546 Y66.713 E0.033
G1 X194.08 Y64.898 E0.094
G1 X196.429 Y65.012 E0.117
G1 X197.342 Y65.151 E0.047
G1 X199.41 Y66.336 E0.118
G1 X200.016 Y67.065 E0.048
G1 X200.316 Y67.522 E0.027
G1 X201.226 Y69.301 E0.1
G1 X200.014 Y70.455 E0.083
G1 X200.574 Y70.781 E0.033
G1 X200.005 Y71.766 E0.056
G1 X199.651 Y73.483 E0.088
G1 X199.209 Y73.229 E0.025
G1 X198.822 Y73.968 E0.042
G1 X198.757 Y73.931 E0.004
G1 X197.348 Y76.369 E0.14
G1 Y83.314 E0.346
G1 X196.058 Y82.569 E0.075
G1 X196.05 Y184.565 E5.088
G1 X197.34 Y183.821 E0.075
G1 Y190.977 E0.357
G1 X198.83 Y193.557 E0.148
G1 X199.035 Y193.438 E0.012
G1 X199.221 Y193.89 E0.025
G1 X199.554 Y193.699 E0.019
G1 X199.906 Y195.42 E0.087
G1 X200.482 Y196.418 E0.058
G1 X200.311 Y196.516 E0.01
G1 X200.494 Y196.96 E0.024
G1 X200.249 Y197.101 E0.014
G1 X201.215 Y198.119 E0.07
G1 X199.923 Y200.115 E0.118
G1 X199.316 Y200.847 E0.048
G1 X197.293 Y202.017 E0.116
G1 X196.348 Y202.173 E0.048
G1 X193.983 Y202.287 E0.118
G1 X193.449 Y200.466 E0.095
G1 X192.873 Y200.798 E0.033
G1 X192.292 Y199.796 E0.058
G1 X190.996 Y198.633 E0.087
G1 X191.43 Y198.383 E0.025
G1 X190.99 Y197.686 E0.041
G1 X191.051 Y197.65 E0.004
G1 X189.644 Y195.208 E0.14
G1 X183.63 Y191.735 E0.347
G1 X184.919 Y190.99 E0.074
G1 X148.014 Y169.683 E2.126
G1 Y169.759 E0.004
G1 X95.906 Y139.674 E3.002
G1 X94.616 Y140.419 E0.074
G1 X90.305 Y137.93 E0.248
G1 X87.662 E0.132
G1 Y138.014 E0.004
G1 X86.846 Y137.977 E0.041
G1 X86.847 Y138.483 E0.025
G1 X85.175 Y137.93 E0.088
G1 X84.012 E0.058
G1 X84.015 Y137.283 E0.033
G1 X82.18 Y137.723 E0.094
G1 X81.098 Y135.597 E0.119
G1 X80.765 Y134.713 E0.047
G1 X80.769 Y132.364 E0.117
G1 X81.099 Y131.485 E0.047
G1 X82.17 Y129.363 E0.118
G1 X84.027 Y129.805 E0.096
G1 Y129.15 E0.032
G1 X85.181 E0.058
G1 X86.846 Y128.6 E0.087
G1 X86.845 Y129.103 E0.026
G1 X87.673 Y129.066 E0.041
G1 Y129.15 E0.004
G1 X90.489 E0.141
G1 X94.615 Y126.768 E0.237
G1 X95.905 Y127.513 E0.075
G1 X147.978 Y97.447 E2.999
;rapid-leaky
G0 X148.354 Y96.768 F9000
;bead-skirt/brim
G1 X148.355 Y96.796 F780 E0.002
G1 X185.126 Y75.567 E2.118
G1 Y74.078 E0.074
G1 X189.541 Y71.529 E0.255
G1 X190.601 Y69.682 E0.106
G1 X190.529 Y69.64 E0.004
G1 X190.973 Y68.937 E0.042
G1 X190.409 Y68.611 E0.032
G1 X192.086 Y67.122 E0.112
G1 X192.828 Y65.837 E0.074
G1 X193.305 Y66.112 E0.028
G1 X193.785 Y64.484 E0.084
G1 X196.469 Y64.614 E0.134
G1 X197.476 Y64.767 E0.051
G1 X199.671 Y66.025 E0.126
G1 X200.338 Y66.826 E0.052
G1 X200.663 Y67.321 E0.03
G1 X201.718 Y69.385 E0.116
G1 X200.675 Y70.377 E0.071
G1 X201.119 Y70.635 E0.026
G1 X200.383 Y71.91 E0.073
G1 X199.931 Y74.106 E0.112
G1 X199.371 Y73.783 E0.033
G1 X198.983 Y74.523 E0.041
G1 X198.903 Y74.477 E0.005
G1 X197.748 Y76.476 E0.115
G1 Y84.007 E0.376
G1 X196.458 Y83.262 E0.074
G1 X196.45 Y183.873 E5.019
G1 X197.74 Y183.128 E0.075
G1 Y190.87 E0.386
G1 X198.976 Y193.01 E0.123
G1 X199.232 Y192.862 E0.015
G1 X199.418 Y193.315 E0.024
G1 X199.835 Y193.075 E0.024
G1 X200.285 Y195.276 E0.113
G1 X201.028 Y196.564 E0.074
G1 X200.814 Y196.688 E0.012
G1 X200.997 Y197.132 E0.024
G1 X200.889 Y197.194 E0.006
G1 X201.722 Y198.072 E0.061
G1 X200.246 Y200.352 E0.135
G1 X199.579 Y201.157 E0.052
G1 X197.43 Y202.4 E0.124
G1 X196.39 Y202.572 E0.053
G1 X193.688 Y202.702 E0.135
G1 X193.208 Y201.067 E0.085
G1 X192.726 Y201.344 E0.028
G1 X191.978 Y200.051 E0.074
G1 X190.317 Y198.561 E0.111
G1 X190.869 Y198.244 E0.032
G1 X190.429 Y197.547 E0.041
G1 X190.505 Y197.503 E0.005
G1 X189.351 Y195.5 E0.115
G1 X182.83 Y191.735 E0.376
G1 X184.12 Y190.991 E0.074
G1 X148.414 Y170.376 E2.057
G1 Y170.452 E0.004
G1 X95.906 Y140.136 E3.025
G1 X94.616 Y140.881 E0.074
G1 X90.198 Y138.33 E0.254
G1 X88.061 E0.107
G1 Y138.432 E0.005
G1 X87.247 Y138.395 E0.041
G1 Y139.037 E0.032
G1 X85.11 Y138.33 E0.112
G1 X83.61 E0.075
G1 X83.612 Y137.791 E0.027
G1 X81.967 Y138.186 E0.084
G1 X80.732 Y135.759 E0.136
G1 X80.365 Y134.785 E0.052
G1 X80.369 Y132.291 E0.124
G1 X80.732 Y131.324 E0.052
G1 X81.955 Y128.901 E0.135
G1 X83.627 Y129.298 E0.086
G1 Y128.75 E0.028
G1 X85.117 E0.074
G1 X87.247 Y128.046 E0.112
G1 X87.246 Y128.685 E0.032
G1 X88.073 Y128.647 E0.041
G1 Y128.75 E0.005
G1 X90.382 E0.115
G1 X94.615 Y126.306 E0.244
G1 X95.905 Y127.051 E0.074
G1 X148.354 Y96.768 E3.022
;rapid-leaky
G0 X148.731 Y96.089 F9000
;bead-skirt/brim
G1 X148.732 Y96.117 F780 E0.001
G1 X184.726 Y75.336 E2.074
G1 Y73.847 E0.074
G1 X189.248 Y71.237 E0.261
G1 X190.055 Y69.829 E0.081
G1 X189.968 Y69.778 E0.005
G1 X190.412 Y69.075 E0.041
G1 X189.73 Y68.68 E0.04
G1 X191.772 Y66.866 E0.136
G1 X192.682 Y65.29 E0.091
G1 X193.065 Y65.512 E0.022
G1 X193.49 Y64.069 E0.075
G1 X196.509 Y64.215 E0.151
G1 X197.61 Y64.383 E0.055
G1 X199.933 Y65.714 E0.134
G1 X200.66 Y66.588 E0.056
G1 X201.009 Y67.119 E0.032
G1 X202.21 Y69.468 E0.132
G1 X201.337 Y70.299 E0.06
G1 X201.665 Y70.49 E0.019
G1 X200.762 Y72.054 E0.09
G1 X200.211 Y74.728 E0.136
G1 X199.532 Y74.338 E0.039
G1 X199.144 Y75.079 E0.042
G1 X199.049 Y75.024 E0.005
G1 X198.148 Y76.583 E0.09
G1 Y84.699 E0.405
G1 X196.858 Y83.955 E0.075
G1 X196.85 Y183.18 E4.95
G1 X198.14 Y182.436 E0.074
G1 Y190.763 E0.416
G1 X199.122 Y192.463 E0.098
G1 X199.428 Y192.287 E0.017
G1 X199.614 Y192.74 E0.025
G1 X200.115 Y192.451 E0.029
G1 X200.663 Y195.133 E0.136
G1 X201.575 Y196.711 E0.091
G1 X201.317 Y196.86 E0.015
G1 X201.465 Y197.22 E0.019
G1 X202.229 Y198.025 E0.056
G1 X200.569 Y200.589 E0.152
G1 X199.841 Y201.467 E0.057
G1 X197.568 Y202.782 E0.131
G1 X196.433 Y202.97 E0.057
G1 X193.393 Y203.117 E0.152
G1 X192.968 Y201.667 E0.076
G1 X192.58 Y201.89 E0.022
G1 X191.664 Y200.307 E0.091
G1 X189.639 Y198.49 E0.136
G1 X190.308 Y198.105 E0.038
G1 X189.868 Y197.409 E0.042
G1 X189.959 Y197.357 E0.005
G1 X189.058 Y195.793 E0.09
G1 X182.031 Y191.735 E0.405
G1 X183.32 Y190.991 E0.074
G1 X148.814 Y171.069 E1.988
G1 Y171.145 E0.004
G1 X95.906 Y140.598 E3.047
G1 X94.616 Y141.343 E0.075
G1 X90.09 Y138.73 E0.261
G1 X88.46 E0.081
G1 X88.459 Y138.85 E0.006
G1 X87.647 Y138.814 E0.04
G1 X87.648 Y139.591 E0.039
G1 X85.046 Y138.73 E0.137
G1 X83.207 E0.092
G1 X83.21 Y138.299 E0.021
G1 X81.753 Y138.648 E0.075
G1 X80.365 Y135.921 E0.153
G1 X79.965 Y134.858 E0.056
G1 X79.969 Y132.218 E0.132
G1 X80.365 Y131.163 E0.056
G1 X81.74 Y128.439 E0.152
G1 X83.227 Y128.792 E0.077
G1 Y128.35 E0.022
G1 X85.052 E0.091
G1 X87.648 Y127.492 E0.136
G1 X87.646 Y128.266 E0.039
G1 X88.473 Y128.228 E0.041
G1 Y128.35 E0.006
G1 X90.275 E0.09
G1 X94.615 Y125.844 E0.25
G1 X95.905 Y126.589 E0.074
G1 X148.731 Y96.089 E3.044
;rapid-leaky
G0 X149.107 Y95.409 F9000
;bead-skirt/brim
G1 X149.108 Y95.438 F780 E0.001
G1 X184.326 Y75.105 E2.029
G1 Y73.616 E0.074
G1 X188.954 Y70.944 E0.267
G1 X189.51 Y69.976 E0.055
G1 X189.407 Y69.917 E0.006
G1 X189.852 Y69.213 E0.042
G1 X189.05 Y68.749 E0.046
G1 X191.458 Y66.61 E0.161
G1 X192.536 Y64.744 E0.107
G1 X192.825 Y64.911 E0.017
G1 X193.195 Y63.654 E0.065
G1 X196.549 Y63.816 E0.168
G1 X197.744 Y63.999 E0.06
G1 X200.194 Y65.402 E0.141
G1 X200.982 Y66.35 E0.062
G1 X201.355 Y66.918 E0.034
G1 X202.702 Y69.552 E0.147
G1 X201.999 Y70.222 E0.049
G1 X202.211 Y70.345 E0.012
G1 X201.141 Y72.198 E0.107
G1 X200.491 Y75.351 E0.16
G1 X199.693 Y74.892 E0.046
G1 X199.305 Y75.634 E0.042
G1 X199.195 Y75.571 E0.006
G1 X198.548 Y76.691 E0.065
G1 Y85.392 E0.434
G1 X197.258 Y84.647 E0.074
G1 X197.25 Y182.488 E4.881
G1 X198.54 Y181.743 E0.075
G1 Y190.656 E0.444
G1 X199.268 Y191.917 E0.073
G1 X199.624 Y191.711 E0.02
G1 X199.81 Y192.165 E0.025
G1 X200.396 Y191.827 E0.034
G1 X201.042 Y194.989 E0.161
G1 X202.122 Y196.858 E0.107
G1 X201.832 Y197.025 E0.017
G1 X202.736 Y197.978 E0.066
G1 X200.891 Y200.826 E0.169
G1 X200.103 Y201.778 E0.062
G1 X197.705 Y203.165 E0.138
G1 X196.475 Y203.368 E0.062
G1 X193.097 Y203.532 E0.169
G1 X192.727 Y202.267 E0.065
G1 X192.434 Y202.436 E0.017
G1 X191.349 Y200.562 E0.108
G1 X188.96 Y198.419 E0.16
G1 X189.747 Y197.966 E0.046
G1 X189.307 Y197.271 E0.041
G1 X189.412 Y197.21 E0.006
G1 X188.765 Y196.086 E0.065
G1 X181.231 Y191.735 E0.434
G1 X182.52 Y190.991 E0.074
G1 X149.214 Y171.762 E1.919
G1 Y171.838 E0.003
G1 X95.906 Y141.06 E3.071
G1 X94.616 Y141.805 E0.075
G1 X89.983 Y139.13 E0.267
G1 X88.858 E0.056
G1 Y139.269 E0.007
G1 X88.047 Y139.232 E0.04
G1 X88.048 Y140.145 E0.046
G1 X84.981 Y139.13 E0.161
G1 X82.805 E0.108
G1 X82.807 Y138.807 E0.016
G1 X81.54 Y139.111 E0.065
G1 X79.999 Y136.082 E0.17
G1 X79.565 Y134.931 E0.061
G1 X79.569 Y132.145 E0.139
G1 X79.999 Y131.002 E0.061
G1 X81.525 Y127.977 E0.169
G1 X82.827 Y128.286 E0.067
G1 Y127.95 E0.017
G1 X84.988 E0.108
G1 X88.048 Y126.938 E0.16
G1 X88.047 Y127.847 E0.046
G1 X88.874 Y127.81 E0.041
G1 Y127.95 E0.007
G1 X90.168 E0.065
G1 X94.615 Y125.383 E0.256
G1 X95.905 Y126.127 E0.074
G1 X149.107 Y95.409 E3.065
;rapid-leaky
G0 X149.484 Y94.73 F9000
;bead-skirt/brim
G1 X149.485 Y94.758 F780 E0.002
G1 X183.926 Y74.874 E1.984
G1 Y73.385 E0.074
G1 X188.661 Y70.652 E0.273
G1 X188.964 Y70.123 E0.03
G1 X188.846 Y70.055 E0.007
G1 X189.292 Y69.351 E0.041
G1 X188.37 Y68.818 E0.054
G1 X191.144 Y66.353 E0.185
G1 X192.389 Y64.197 E0.124
G1 X192.585 Y64.31 E0.011
G1 X192.9 Y63.239 E0.056
G1 X196.589 Y63.418 E0.184
G1 X197.878 Y63.615 E0.065
G1 X200.455 Y65.091 E0.148
G1 X201.304 Y66.111 E0.067
G1 X201.701 Y66.716 E0.036
G1 X203.194 Y69.636 E0.163
G1 X202.661 Y70.144 E0.037
G1 X202.756 Y70.2 E0.006
G1 X201.52 Y72.342 E0.123
G1 X200.771 Y75.973 E0.185
G1 X199.855 Y75.446 E0.053
G1 X199.465 Y76.189 E0.042
G1 X199.341 Y76.117 E0.007
G1 X198.948 Y76.798 E0.039
G1 Y86.085 E0.463
G1 X197.658 Y85.34 E0.075
G1 X197.65 Y181.795 E4.812
G1 X198.94 Y181.051 E0.074
G1 Y190.548 E0.474
G1 X199.415 Y191.37 E0.047
G1 X199.82 Y191.136 E0.024
G1 X200.007 Y191.59 E0.024
G1 X200.677 Y191.203 E0.039
G1 X201.421 Y194.845 E0.185
G1 X202.669 Y197.005 E0.125
G1 X202.472 Y197.118 E0.011
G1 X203.243 Y197.931 E0.056
G1 X201.214 Y201.064 E0.186
G1 X200.366 Y202.088 E0.066
G1 X197.842 Y203.548 E0.146
G1 X196.517 Y203.767 E0.067
G1 X192.802 Y203.947 E0.185
G1 X192.486 Y202.867 E0.056
G1 X192.288 Y202.982 E0.012
G1 X191.035 Y200.817 E0.125
G1 X188.282 Y198.348 E0.184
G1 X189.186 Y197.828 E0.052
G1 X188.747 Y197.132 E0.041
G1 X188.866 Y197.063 E0.007
G1 X188.472 Y196.378 E0.04
G1 X180.431 Y191.735 E0.463
G1 X181.72 Y190.991 E0.074
G1 X149.614 Y172.455 E1.85
G1 Y172.531 E0.003
G1 X95.906 Y141.521 E3.094
G1 X94.616 Y142.266 E0.075
G1 X89.876 Y139.53 E0.273
G1 X89.257 E0.031
G1 Y139.687 E0.008
G1 X88.448 Y139.651 E0.04
G1 Y140.698 E0.052
G1 X84.917 Y139.53 E0.186
G1 X82.403 E0.125
G1 X82.404 Y139.315 E0.011
G1 X81.327 Y139.574 E0.055
G1 X79.632 Y136.244 E0.187
G1 X79.165 Y135.003 E0.066
G1 X79.169 Y132.072 E0.146
G1 X79.632 Y130.841 E0.066
G1 X81.31 Y127.514 E0.186
G1 X82.427 Y127.78 E0.057
G1 Y127.55 E0.011
G1 X84.924 E0.125
G1 X88.449 Y126.384 E0.185
G1 X88.448 Y127.429 E0.052
G1 X89.274 Y127.391 E0.041
G1 Y127.55 E0.008
G1 X90.061 E0.04
G1 X94.615 Y124.921 E0.262
G1 X95.905 Y125.666 E0.074
G1 X149.484 Y94.73 E3.087
;rapid-leaky
G0 X149.86 Y94.051 F9000
;bead-skirt/brim
G1 X149.861 Y94.079 F780 E0.001
G1 X183.526 Y74.643 E1.94
G1 Y73.154 E0.074
G1 X188.368 Y70.359 E0.279
G1 X188.418 Y70.271 E0.005
G1 X188.285 Y70.194 E0.008
G1 X188.731 Y69.489 E0.041
G1 X187.69 Y68.886 E0.06
G1 X190.83 Y66.097 E0.21
G1 X192.243 Y63.651 E0.141
G1 X192.345 Y63.71 E0.006
G1 X192.606 Y62.825 E0.046
G1 X196.629 Y63.019 E0.201
G1 X198.013 Y63.23 E0.07
G1 X200.717 Y64.78 E0.155
G1 X201.626 Y65.873 E0.071
G1 X202.048 Y66.515 E0.038
G1 X203.686 Y69.72 E0.18
G1 X203.262 Y70.124 E0.029
G1 X201.898 Y72.486 E0.136
G1 X201.051 Y76.596 E0.209
G1 X200.016 Y76 E0.06
G1 X199.626 Y76.744 E0.042
G1 X199.488 Y76.664 E0.008
G1 X199.348 Y76.905 E0.014
G1 Y86.777 E0.492
G1 X198.058 Y86.033 E0.075
G1 X198.05 Y181.102 E4.743
G1 X199.34 Y180.358 E0.074
G1 Y190.441 E0.503
G1 X199.561 Y190.823 E0.022
G1 X200.016 Y190.56 E0.026
G1 X200.203 Y191.015 E0.025
G1 X200.958 Y190.58 E0.043
G1 X201.8 Y194.701 E0.21
G1 X203.215 Y197.152 E0.141
G1 X203.112 Y197.212 E0.006
G1 X203.75 Y197.884 E0.047
G1 X201.537 Y201.301 E0.203
G1 X200.628 Y202.398 E0.071
G1 X197.979 Y203.931 E0.153
G1 X196.56 Y204.165 E0.071
G1 X192.507 Y204.361 E0.203
G1 X192.245 Y203.468 E0.046
G1 X192.141 Y203.527 E0.006
G1 X190.72 Y201.073 E0.142
G1 X187.603 Y198.276 E0.209
G1 X188.625 Y197.689 E0.058
G1 X188.186 Y196.994 E0.041
G1 X188.32 Y196.916 E0.008
G1 X188.179 Y196.671 E0.014
G1 X179.631 Y191.736 E0.493
G1 X180.92 Y190.991 E0.074
G1 X150.014 Y173.147 E1.78
G1 Y173.223 E0.004
G1 X95.906 Y141.983 E3.117
G1 X94.616 Y142.728 E0.075
G1 X89.769 Y139.93 E0.279
G1 X89.656 E0.005
G1 X89.655 Y140.106 E0.009
G1 X88.848 Y140.069 E0.04
G1 X88.849 Y141.252 E0.06
G1 X84.852 Y139.93 E0.21
G1 X82.001 E0.142
G1 Y139.823 E0.005
G1 X81.113 Y140.036 E0.046
G1 X79.266 Y136.406 E0.203
G1 X78.765 Y135.076 E0.071
G1 X78.769 Y131.999 E0.153
G1 X79.265 Y130.68 E0.071
G1 X81.095 Y127.052 E0.202
G1 X82.027 Y127.274 E0.048
G1 Y127.15 E0.006
G1 X84.859 E0.142
G1 X88.85 Y125.83 E0.209
G1 X88.848 Y127.01 E0.059
G1 X89.674 Y126.973 E0.041
G1 Y127.15 E0.009
G1 X89.953 E0.014
G1 X94.615 Y124.459 E0.269
G1 X95.905 Y125.204 E0.074
G1 X149.86 Y94.051 E3.108
;rapid-leaky
G0 X150.236 Y93.372 F9000
;bead-skirt/brim
G1 X150.237 Y93.4 F780 E0.002
G1 X183.126 Y74.412 E1.894
G1 Y72.923 E0.075
G1 X187.788 Y70.232 E0.268
G1 X188.171 Y69.626 E0.036
G1 X187.01 Y68.955 E0.067
G1 X190.516 Y65.841 E0.234
G1 X192.105 Y63.109 E0.157
G1 X192.311 Y62.41 E0.037
G1 X196.669 Y62.621 E0.218
G1 X198.147 Y62.846 E0.074
G1 X200.978 Y64.469 E0.163
G1 X201.948 Y65.634 E0.076
G1 X202.394 Y66.313 E0.04
G1 X204.178 Y69.804 E0.196
G1 X203.579 Y70.374 E0.041
G1 X202.277 Y72.63 E0.13
G1 X201.331 Y77.218 E0.234
G1 X200.177 Y76.555 E0.066
G1 X199.787 Y77.299 E0.042
G1 X199.748 Y77.277 E0.002
G1 Y87.47 E0.509
G1 X198.458 Y86.725 E0.074
G1 X198.451 Y180.41 E4.674
G1 X199.741 Y179.666 E0.074
G1 X199.74 Y190.258 E0.529
G1 X200.212 Y189.985 E0.027
G1 X200.399 Y190.44 E0.025
G1 X201.239 Y189.956 E0.048
G1 X202.179 Y194.558 E0.234
G1 X203.762 Y197.299 E0.158
G1 X203.752 Y197.305 E0.001
G1 X204.257 Y197.837 E0.036
G1 X201.86 Y201.538 E0.22
G1 X200.89 Y202.709 E0.076
G1 X198.116 Y204.313 E0.16
G1 X196.602 Y204.564 E0.077
G1 X192.211 Y204.776 E0.219
G1 X192.004 Y204.068 E0.037
G1 X191.995 Y204.073
G1 X190.406 Y201.328 E0.158
G1 X186.925 Y198.205 E0.234
G1 X188.064 Y197.55 E0.065
G1 X187.625 Y196.856 E0.041
G1 X187.662 Y196.834 E0.002
G1 X178.831 Y191.736 E0.509
G1 X180.12 Y190.991 E0.074
G1 X150.414 Y173.84 E1.712
G1 Y173.916 E0.004
G1 X95.906 Y142.445 E3.14
G1 X94.616 Y143.19 E0.074
G1 X89.994 Y140.522 E0.266
G1 X89.248 Y140.488 E0.038
G1 X89.249 Y141.806 E0.065
G1 X84.788 Y140.33 E0.235
G1 X81.603 E0.159
G1 X80.9 Y140.499 E0.036
G1 X78.899 Y136.567 E0.22
G1 X78.365 Y135.148 E0.075
G1 X78.369 Y131.926 E0.161
G1 X78.898 Y130.519 E0.075
G1 X80.88 Y126.59 E0.22
G1 X81.627 Y126.767 E0.038
G1 Y126.75 E0.001
G1 X84.795 E0.158
G1 X89.251 Y125.276 E0.234
G1 X89.249 Y126.592 E0.066
G1 X90.075 Y126.554 E0.041
G1 Y126.618 E0.003
G1 X94.615 Y123.997 E0.262
G1 X95.905 Y124.742 E0.074
G1 X150.236 Y93.372 E3.13
;rapid-leaky
G0 X150.613 Y92.692 F9000
;bead-skirt/brim
G1 X150.614 Y92.721 F780 E0.001
G1 X182.726 Y74.181 E1.85
G1 Y72.692 E0.075
G1 X187.502 Y69.935 E0.275
G1 X187.61 Y69.764 E0.01
G1 X186.33 Y69.024 E0.074
G1 X190.202 Y65.585 E0.258
G1 X191.746 Y62.912 E0.154
G1 X192.016 Y61.995 E0.048
G1 X196.709 Y62.222 E0.234
G1 X198.281 Y62.462 E0.079
G1 X201.24 Y64.158 E0.171
G1 X202.27 Y65.396 E0.08
G1 X202.74 Y66.112 E0.043
G1 X204.671 Y69.888 E0.211
G1 X203.897 Y70.624 E0.053
G1 X202.656 Y72.774 E0.124
G1 X201.611 Y77.841 E0.258
G1 X200.338 Y77.109 E0.074
G1 X200.148 Y77.472 E0.02
G1 X200.147 Y88.163 E0.533
G1 X198.857 Y87.418 E0.075
G1 X198.851 Y179.717 E4.605
G1 X200.141 Y178.973 E0.074
G1 X200.14 Y189.564 E0.528
G1 X200.408 Y189.409 E0.016
G1 X200.596 Y189.865 E0.024
G1 X201.52 Y189.332 E0.054
G1 X202.558 Y194.414 E0.258
G1 X204.109 Y197.099 E0.155
G1 X204.764 Y197.79 E0.048
G1 X202.183 Y201.775 E0.236
G1 X201.153 Y203.019 E0.081
G1 X198.253 Y204.696 E0.167
G1 X196.645 Y204.962 E0.081
G1 X191.916 Y205.191 E0.237
G1 X191.646 Y204.267 E0.048
G1 X190.092 Y201.584 E0.154
G1 X186.247 Y198.134 E0.258
G1 X187.503 Y197.411 E0.072
G1 X187.298 Y197.086 E0.02
G1 X178.032 Y191.736 E0.533
G1 X179.32 Y190.991 E0.075
G1 X150.814 Y174.533 E1.642
G1 Y174.609 E0.004
G1 X95.907 Y142.907 E3.163
G1 X94.616 Y143.652 E0.074
G1 X89.878 Y140.917 E0.273
G1 X89.648 Y140.906 E0.012
G1 X89.649 Y142.36 E0.072
G1 X84.724 Y140.73 E0.259
G1 X81.651 E0.153
G1 X80.686 Y140.962 E0.05
G1 X78.533 Y136.729 E0.237
G1 X77.965 Y135.221 E0.08
G1 X77.97 Y131.854 E0.168
G1 X78.531 Y130.358 E0.08
G1 X80.666 Y126.128 E0.236
G1 X81.6 Y126.35 E0.048
G1 X84.73 E0.156
G1 X89.652 Y124.723 E0.259
G1 X89.65 Y126.173 E0.072
G1 X90.08 Y126.153 E0.022
G1 X94.615 Y123.535 E0.261
G1 X95.905 Y124.28 E0.074
G1 X150.613 Y92.692 E3.152
;rapid-leaky
G0 X150.989 Y92.013 F9000
;bead-skirt/brim
G1 X150.99 Y92.041 F780 E0.001
G1 X182.326 Y73.951 E1.806
G1 Y72.461 E0.074
G1 X186.904 Y69.818 E0.264
G1 X185.651 Y69.093 E0.072
G1 X189.888 Y65.329 E0.283
G1 X191.376 Y62.753 E0.148
G1 X191.721 Y61.58 E0.061
G1 X196.749 Y61.824 E0.251
G1 X198.415 Y62.078 E0.084
G1 X201.501 Y63.846 E0.178
G1 X202.592 Y65.157 E0.085
G1 X203.086 Y65.911 E0.045
G1 X205.163 Y69.971 E0.227
G1 X204.214 Y70.874 E0.066
G1 X203.034 Y72.918 E0.117
G1 X201.891 Y78.463 E0.283
G1 X200.548 Y77.691 E0.077
G1 X200.547 Y88.855 E0.557
G1 X199.257 Y88.111 E0.074
G1 X199.251 Y179.025 E4.536
G1 X200.541 Y178.281 E0.074
G1 X200.54 Y188.871 E0.529
G1 X200.605 Y188.834 E0.003
G1 X200.792 Y189.29 E0.025
G1 X201.8 Y188.708 E0.058
G1 X202.937 Y194.27 E0.283
G1 X204.431 Y196.858 E0.149
G1 X205.272 Y197.743 E0.061
G1 X202.506 Y202.012 E0.254
G1 X201.415 Y203.33 E0.085
G1 X198.391 Y205.079 E0.175
G1 X196.687 Y205.36 E0.086
G1 X191.621 Y205.606 E0.253
G1 X191.275 Y204.426 E0.061
G1 X189.777 Y201.839 E0.149
G1 X185.568 Y198.063 E0.283
G1 X186.881 Y197.307 E0.075
G1 X177.232 Y191.736 E0.556
G1 X178.521 Y190.991 E0.074
G1 X151.214 Y175.226 E1.573
G1 Y175.302 E0.004
G1 X95.907 Y143.369 E3.186
G1 X94.617 Y144.114 E0.075
G1 X90.049 Y141.477 E0.263
G1 X90.05 Y142.914 E0.071
G1 X84.659 Y141.13 E0.284
G1 X81.698 E0.148
G1 X80.473 Y141.424 E0.062
G1 X78.166 Y136.891 E0.254
G1 X77.564 Y135.294 E0.085
G1 X77.57 Y131.781 E0.176
G1 X78.164 Y130.197 E0.084
G1 X80.451 Y125.666 E0.253
G1 X81.647 Y125.95 E0.061
G1 X84.666 E0.151
G1 X90.053 Y124.169 E0.283
G1 X90.05 Y125.708 E0.077
G1 X94.615 Y123.073 E0.263
G1 X95.905 Y123.818 E0.074
G1 X150.989 Y92.013 E3.174
;rapid-leaky
G0 X185.926 Y75.746 F9000
;bead-skirt/brim
G1 Y74.54 F780 E0.06
G1 X190.127 Y72.114 E0.242
G1 X191.693 Y69.387 E0.157
G1 X191.65 Y69.363 E0.002
G1 X192.094 Y68.661 E0.042
G1 X191.769 Y68.473 E0.018
G1 X192.714 Y67.634 E0.063
G1 X193.121 Y66.929 E0.041
G1 X193.786 Y67.313 E0.038
G1 X194.375 Y65.313 E0.104
G1 X196.389 Y65.411 E0.101
G1 X197.208 Y65.535 E0.041
G1 X199.148 Y66.647 E0.112
G1 X199.694 Y67.303 E0.042
G1 X199.97 Y67.724 E0.025
G1 X200.734 Y69.217 E0.084
G1 X199.352 Y70.532 E0.095
G1 X200.028 Y70.926 E0.039
G1 X199.626 Y71.622 E0.04
G1 X199.371 Y72.86 E0.063
G1 X199.048 Y72.675 E0.019
G1 X198.662 Y73.413 E0.042
G1 X198.611 Y73.384 E0.003
G1 X196.948 Y76.261 E0.165
G1 Y82.621 E0.318
G1 X195.903 Y82.018 E0.06
G1 Y79.784 E0.111
G1 X192.625 Y77.892 E0.189
G1 Y75.423 E0.123
G1 X190.485 Y76.658 E0.124
G1 X187.416 Y74.886 E0.176
G1 X185.926 Y75.746 E0.086
;rapid-leaky
G0 X196.94 Y184.513 F9000
;bead-skirt/brim
G1 Y191.085 F780 E0.328
G1 X198.684 Y194.103 E0.174
G1 X198.839 Y194.013 E0.009
G1 X199.025 Y194.465 E0.024
G1 X199.273 Y194.322 E0.015
G1 X199.527 Y195.564 E0.063
G1 X199.935 Y196.271 E0.04
G1 X199.808 Y196.344 E0.008
G1 X199.991 Y196.789 E0.024
G1 X199.609 Y197.009 E0.022
G1 X200.708 Y198.166 E0.079
G1 X199.6 Y199.878 E0.102
G1 X199.054 Y200.536 E0.043
G1 X197.156 Y201.634 E0.109
G1 X196.305 Y201.775 E0.043
G1 X194.278 Y201.873 E0.101
G1 X193.69 Y199.866 E0.105
G1 X193.019 Y200.253 E0.038
G1 X192.607 Y199.541 E0.041
G1 X191.674 Y198.704 E0.063
G1 X191.991 Y198.521 E0.018
G1 X191.55 Y197.824 E0.041
G1 X191.597 Y197.797 E0.003
G1 X189.937 Y194.915 E0.166
G1 X184.43 Y191.735 E0.317
G1 X185.474 Y191.132 E0.06
G1 X187.409 Y192.249 E0.112
G1 X190.229 Y190.62 E0.162
G1 X192.624 Y192.003 E0.138
G1 X192.625 Y189.236 E0.138
G1 X195.895 Y187.35 E0.189
G1 Y185.116 E0.111
G1 X196.94 Y184.513 E0.06
;rapid-leaky
G0 X151.315 Y188.9 F9000
;bead-skirt/brim
G1 Y196.41 F780 E0.375
G1 X152.605 E0.064
G1 Y208.028 E0.58
G1 X137.425 E0.757
G1 Y197.162 E0.542
G1 X101.71 Y176.542 E2.058
G1 X59.424 Y200.956 E2.436
G1 X53.124 Y190.044 E0.629
G1 X89.11 Y169.267 E2.073
G1 X53.124 Y148.491 E2.073
G1 X59.424 Y137.579 E0.628
G1 X148.315 Y188.9 E5.121
G1 X151.315 E0.15
;rapid-leaky
G0 X150.915 Y189.3 F9000
;bead-skirt/brim
G1 Y196.81 F780 E0.375
G1 X152.205 E0.064
G1 Y207.628 E0.54
G1 X137.825 E0.717
G1 Y196.931 E0.534
G1 X101.71 Y176.08 E2.08
G1 X59.571 Y200.41 E2.428
G1 X53.671 Y190.191 E0.589
G1 X89.91 Y169.267 E2.087
G1 X53.671 Y148.344 E2.088
G1 X59.571 Y138.126 E0.589
G1 X148.208 Y189.3 E5.106
G1 X150.915 E0.135
;rapid-leaky
G0 X150.515 Y189.7 F9000
;bead-skirt/brim
G1 Y197.21 F780 E0.375
G1 X151.805 E0.064
G1 Y207.228 E0.5
G1 X145.16 E0.331
G1 Y206.478 E0.038
G1 X144.87 E0.014
G1 Y207.228 E0.038
G1 X138.225 E0.331
G1 Y197.21 E0.5
G1 X139.108 E0.044
G1 X101.71 Y175.618 E2.154
G1 X59.717 Y199.863 E2.419
G1 X54.217 Y190.337 E0.549
G1 X90.71 Y169.267 E2.103
G1 X54.217 Y148.198 E2.102
G1 X59.717 Y138.672 E0.549
G1 X148.101 Y189.7 E5.091
G1 X150.515 E0.121
;rapid-leaky
G0 X150.115 Y190.1 F9000
;bead-skirt/brim
G1 Y197.61 F780 E0.374
G1 X151.405 E0.065
G1 Y206.828 E0.46
G1 X145.56 E0.291
G1 Y206.078 E0.038
G1 X144.47 E0.054
G1 Y206.828 E0.038
G1 X138.625 E0.291
G1 Y197.61 E0.46
G1 X139.915 E0.064
G1 Y197.214 E0.02
G1 X101.71 Y175.156 E2.201
G1 X59.863 Y199.317 E2.411
G1 X54.763 Y190.483 E0.509
G1 X91.51 Y169.267 E2.117
G1 X54.763 Y148.052 E2.116
G1 X59.863 Y139.218 E0.509
G1 X147.994 Y190.1 E5.077
G1 X150.115 E0.106
;rapid-leaky
G0 X149.715 Y190.5 F9000
;bead-skirt/brim
G1 Y198.01 F780 E0.375
G1 X151.005 E0.064
G1 Y206.428 E0.42
G1 X145.96 E0.252
G1 Y205.678 E0.037
G1 X144.07 E0.095
G1 Y206.428 E0.037
G1 X139.025 E0.252
G1 Y198.01 E0.42
G1 X140.315 E0.064
G1 Y196.983 E0.051
G1 X101.71 Y174.694 E2.224
G1 X60.01 Y198.77 E2.403
G1 X55.31 Y190.63 E0.469
G1 X92.31 Y169.267 E2.131
G1 X55.31 Y147.905 E2.132
G1 X60.01 Y139.765 E0.469
G1 X147.886 Y190.5 E5.062
G1 X149.715 E0.091
;rapid-leaky
G0 X149.315 Y190.9 F9000
;bead-skirt/brim
G1 Y198.41 F780 E0.375
G1 X150.605 E0.064
G1 Y206.028 E0.38
G1 X146.36 E0.212
G1 Y205.278 E0.037
G1 X143.67 E0.135
G1 Y206.028 E0.037
G1 X139.425 E0.212
G1 Y198.41 E0.38
G1 X140.715 E0.064
G1 Y196.752 E0.083
G1 X101.71 Y174.232 E2.247
G1 X60.156 Y198.224 E2.394
G1 X55.856 Y190.776 E0.429
G1 X93.11 Y169.267 E2.146
G1 X55.856 Y147.759 E2.146
G1 X60.156 Y140.311 E0.429
G1 X147.779 Y190.9 E5.048
G1 X149.315 E0.077
;rapid-leaky
G0 X148.915 Y191.3 F9000
;bead-skirt/brim
G1 Y198.81 F780 E0.374
G1 X150.205 E0.065
G1 Y205.628 E0.34
G1 X146.76 E0.172
G1 Y204.878 E0.037
G1 X143.27 E0.174
G1 Y205.628 E0.038
G1 X139.825 E0.172
G1 Y198.81 E0.34
G1 X141.115 E0.064
G1 Y196.521 E0.114
G1 X101.71 Y173.771 E2.27
G1 X60.303 Y197.677 E2.386
G1 X56.403 Y190.923 E0.389
G1 X93.91 Y169.267 E2.161
G1 X56.403 Y147.612 E2.16
G1 X60.303 Y140.858 E0.389
G1 X147.672 Y191.3 E5.034
G1 X148.915 E0.062
;rapid-leaky
G0 X148.515 Y191.7 F9000
;bead-skirt/brim
G1 Y199.21 F780 E0.374
G1 X149.805 E0.065
G1 Y205.228 E0.3
G1 X147.16 E0.132
G1 Y204.478 E0.037
G1 X142.87 E0.214
G1 Y205.228 E0.038
G1 X140.225 E0.132
G1 Y199.21 E0.3
G1 X141.515 E0.064
G1 Y196.29 E0.146
G1 X101.71 Y173.309 E2.293
G1 X60.449 Y197.131 E2.377
G1 X56.949 Y191.069 E0.349
G1 X94.71 Y169.267 E2.176
G1 X56.949 Y147.466 E2.175
G1 X60.449 Y141.404 E0.349
G1 X147.565 Y191.7 E5.019
G1 X148.515 E0.047
;rapid-leaky
G0 X148.115 Y192.1 F9000
;bead-skirt/brim
G1 Y199.61 F780 E0.375
G1 X149.405 E0.064
G1 Y204.828 E0.261
G1 X147.56 E0.092
G1 Y204.078 E0.037
G1 X142.47 E0.254
G1 Y204.828 E0.037
G1 X140.625 E0.092
G1 Y199.61 E0.261
G1 X141.915 E0.064
G1 Y196.059 E0.177
G1 X101.71 Y172.847 E2.316
G1 X60.595 Y196.585 E2.369
G1 X57.495 Y191.215 E0.309
G1 X95.51 Y169.267 E2.19
G1 X57.495 Y147.32 E2.19
G1 X60.595 Y141.95 E0.31
G1 X147.458 Y192.1 E5.003
G1 X148.115 E0.033
;rapid-leaky
G0 X147.715 Y192.5 F9000
;bead-skirt/brim
G1 Y203.678 F780 E0.558
G1 X142.315 E0.269
G1 Y195.828 E0.392
G1 X101.71 Y172.385 E2.339
G1 X60.742 Y196.038 E2.36
G1 X58.042 Y191.362 E0.27
G1 X96.31 Y169.267 E2.204
G1 X58.042 Y147.173 E2.205
G1 X60.742 Y142.497 E0.269
G1 X147.351 Y192.5 E4.99
G1 X147.715 E0.018
;rapid-leaky
G0 X147.96 Y200.01 F9000
;bead-skirt/brim
G1 X149.005 F780 E0.052
G1 Y204.428 E0.22
G1 X147.96 E0.052
G1 Y200.01 E0.221
;rapid-leaky
G0 X142.07 F9000
;bead-skirt/brim
G1 Y204.428 F780 E0.22
G1 X141.025 E0.052
G1 Y200.01 E0.221
G1 X142.07 E0.052
;rapid-leaky
G0 X35.562 Y146.826 F9000
;bead-skirt/brim
G1 X29.87 Y150.112 F780 E0.328
G1 X28.305 Y152.839 E0.157
G1 X28.348 Y152.864 E0.002
G1 X27.904 Y153.565 E0.042
G1 X28.225 Y153.751 E0.018
G1 X27.288 Y154.586 E0.063
G1 X26.878 Y155.297 E0.041
G1 X26.212 Y154.913 E0.038
G1 X25.623 Y156.913 E0.104
G1 X23.609 Y156.815 E0.101
G1 X22.79 Y156.691 E0.041
G1 X20.829 Y155.566 E0.113
G1 X20.297 Y154.912 E0.042
G1 X20.029 Y154.504 E0.024
G1 X19.263 Y153.012 E0.084
G1 X20.646 Y151.693 E0.095
G1 X19.97 Y151.3 E0.039
G1 X20.372 Y150.604 E0.04
G1 X20.628 Y149.366 E0.063
G1 X20.95 Y149.551 E0.019
G1 X21.336 Y148.813 E0.041
G1 X21.387 Y148.842 E0.003
G1 X23.05 Y145.965 E0.166
G1 Y139.605 E0.318
G1 X24.095 Y140.208 E0.06
G1 Y142.442 E0.111
G1 X27.373 Y144.334 E0.189
G1 Y146.803 E0.123
G1 X29.513 Y145.568 E0.123
G1 X32.582 Y147.34 E0.177
G1 X34.517 Y146.223 E0.112
G1 X35.562 Y146.826 E0.06
G1 F1800 E-0.5
;rapid-dry
G0 X32.582 Y146.174 F9000
G1 F1800 E0.5
;bead-perimeter_inner
G1 X29.513 Y144.402 F780 E0.177
G1 X28.383 Y145.054 E0.065
G1 Y143.751 E0.065
G1 X25.105 Y141.859 E0.189
G1 X25.113 Y35.459 E5.308
G1 X28.383 Y33.573 E0.188
G1 X28.382 Y31.972 E0.08
G1 X29.769 Y32.772 E0.08
G1 X32.589 Y31.143 E0.162
G1 X73.149 Y54.559 E2.337
G1 Y54.485 E0.004
G1 X124.817 Y84.314 E2.976
G1 X124.818 Y87.608 E0.164
G1 X126.386 Y88.514 E0.091
G1 X124.818 Y89.418 E0.09
G1 Y92.949 E0.176
G1 X73.184 Y122.761 E2.975
G1 X73.185 Y122.733 E0.001
G1 X32.582 Y146.174 E2.339
;rapid-leaky
G0 Y146.595 F9000
;bead-perimeter_outer
G1 X29.513 Y144.823 F540 E0.177
G1 X28.018 Y145.686 E0.086
G1 Y143.962 E0.086
G1 X24.74 Y142.07 E0.189
G1 X24.748 Y35.249 E5.329
G1 X28.018 Y33.362 E0.189
G1 X28.017 Y31.34 E0.101
G1 X29.769 Y32.351 E0.1
G1 X32.589 Y30.722 E0.163
G1 X72.784 Y53.926 E2.315
G1 Y53.852 E0.004
G1 X125.182 Y84.104 E3.019
G1 X125.183 Y87.398 E0.164
G1 X127.117 Y88.514 E0.111
G1 X125.183 Y89.628 E0.112
G1 Y93.16 E0.176
G1 X72.796 Y123.406 E3.018
G1 X72.797 Y123.378 E0.001
G1 X32.582 Y146.595 E2.317
G1 F1800 E-0.5
;rapid-dry
G0 X27.172 Y145.239 F9000
G1 F1800 E0.5
;bead-support-structure
G1 X23.495 Y143.116 F2100 E0.212
G1 Y143.674 E0.028
G1 X27.172 Y145.797 E0.211
G1 Y146.404 E0.031
G1 X26.973 Y146.289 E0.011
G1 Y146.241 E0.003
G1 X23.495 Y144.234 E0.2
G1 Y144.793 E0.028
G1 X27.172 Y146.913 E0.212
G1 F1800 E-0.5
G0 X26.479 Y146.513 F2400
G0 X27.172 Y146.913 F2400
;rapid-dry
G0 X24.42 Y151.445 F9000
G1 F1800 E0.5
;bead-support-structure
G1 X24.389 Y151.419 F2100 E0.002
G1 X24.271 Y151.376 E0.006
G1 X21.4 Y149.714 E0.165
G1 X21.16 Y150.13 E0.024
G1 X23.464 Y151.469 E0.133
G1 X24.061 Y151.281 E0.031
G1 X24.261 Y151.286 E0.01
G1 X24.433 Y151.349 E0.01
G1 X24.575 Y151.467 E0.009
G1 X24.677 Y151.635 E0.01
G1 X24.812 Y152.242 E0.031
G1 X27.298 Y153.679 E0.143
G1 X27.057 Y154.096 E0.024
G1 X24.685 Y152.729 E0.136
G1 X24.767 Y151.779 E0.048
G1 X24.719 Y151.565 E0.011
G1 X24.601 Y151.372 E0.011
G1 X24.605 Y151.335 E0.002
G1 X24.344 Y151.188 E0.015
G1 X24.331 Y151.214 E0.001
G1 X24.103 Y151.21 E0.012
G1 X23.891 Y151.276 E0.011
G1 X23.11 Y151.818 E0.047
G1 X20.918 Y150.55 E0.127
G1 X21.366 Y150.023 E0.034
G1 X21.135 Y150.574 E0.03
G1 X20.821 Y151.118 E0.031
G1 X20.905 Y151.166 E0.005
G1 X20.787 Y151.543 E0.02
G1 F1800 E-0.5
G0 X20.905 Y151.166 F2400
G0 X20.821 Y151.118 F2400
G0 X20.976 Y150.85 F2400
G0 X20.821 Y151.118 F2400
G0 X20.905 Y151.166 F2400
G0 X20.787 Y151.543 F2400
;rapid-dry
G0 X20.655 Y151.963 F9000
G1 F1800 E0.5
;bead-support-structure
G1 X20.625 Y152.058 F2100 E0.005
G1 X21.162 Y152.367 E0.031
G1 X22.23 Y153.442 E0.075
G1 X21.807 Y153.198 E0.025
G1 X21.589 Y153.405 E0.015
G1 X21.664 Y153.551 E0.008
G1 X21.824 Y153.795 E0.014
G1 X22.078 Y154.107 E0.02
G1 X23.419 Y154.875 E0.078
G1 X23.797 Y154.932 E0.019
G1 X24.23 Y154.953 E0.021
G1 X24.319 Y154.65 E0.016
G1 X23.096 Y153.942 E0.071
G1 F1800 E-0.5
G0 X23.788 Y154.343 F2400
G0 X23.096 Y153.942 F2400
;rapid-dry
G0 X25.227 Y155.272 F9000
G1 F1800 E0.5
;bead-support-structure
G1 X25.306 Y155.317 F2100 E0.004
G1 X26.032 Y154.812 E0.044
G1 X25.977 Y155.002 E0.01
G1 X25.888 Y155.096 E0.007
G1 X25.367 Y154.795 E0.03
G1 X25.258 Y155.165 E0.019
G1 X26.065 Y154.703 E0.046
G1 F1800 E-0.5
G0 X25.37 Y155.1 F2400
G0 X26.065 Y154.703 F2400
;rapid-dry
G0 X26.158 Y154.649 F9000
G1 F1800 E0.5
;bead-support-structure
G1 X26.411 Y154.505 F2100 E0.015
G1 X26.213 Y154.681 E0.013
G1 X26.255 Y154.705 E0.002
G1 X26.528 Y154.414 E0.02
G1 X26.615 Y154.464 E0.005
G1 X26.945 Y153.891 E0.033
G1 X27.285 Y153.439 E0.028
G1 X26.815 Y154.516 E0.059
G1 X24.339 Y153.085 E0.143
G1 X24.787 Y151.953 E0.061
G1 X24.808 Y151.707 E0.012
G1 X24.758 Y151.483 E0.011
G1 X23.767 Y151.26 E0.051
G1 X23.654 Y151.403 E0.009
G1 X23.568 Y151.62 E0.012
G1 X23.434 Y152.929 E0.065
G1 X23.561 Y153.003 E0.008
G1 X24.63 Y152.234 E0.065
G1 X24.774 Y152.051 E0.012
G1 X24.841 Y151.884 E0.009
G1 X23.781 Y152.377 E0.058
G1 X24.244 Y152.386 E0.023
G1 X24.721 Y152.238 E0.025
G1 F1800 E-0.5
G0 X24.244 Y152.386 F2400
G0 X23.943 Y152.38 F2400
G0 X24.244 Y152.386 F2400
G0 X24.721 Y152.238 F2400
;rapid-dry
G0 X27.781 Y152.841 F9000
G1 F1800 E0.5
;bead-support-structure
G1 X21.641 Y149.298 F2100 E0.354
G1 X21.881 Y148.879 E0.024
G1 X28.022 Y152.423 E0.354
G1 X28.264 Y152.004 E0.024
G1 X22.122 Y148.462 E0.354
G1 F1800 E-0.5
G0 X22.815 Y148.861 F2400
G0 X22.122 Y148.462 F2400
;rapid-dry
G0 X23.495 Y146.469 F9000
G1 F1800 E0.5
;bead-support-structure
G1 X29.399 Y149.87 F2100 E0.34
G1 X29.063 Y150.233 E0.024
G1 X23.261 Y146.891 E0.334
G1 X23.894 Y145.793 E0.064
G1 X23.018 Y147.309 E0.087
G1 X28.815 Y150.649 E0.334
G1 X29.596 Y149.296 E0.078
G1 X29.883 Y149.591 E0.02
G1 X23.495 Y145.91 E0.368
G1 X23.604 Y146.296 E0.02
G1 X22.536 Y148.144 E0.106
G1 X28.332 Y151.486 E0.334
G1 X29.398 Y149.638 E0.107
G1 F1800 E-0.5
G0 X28.998 Y150.331 F2400
G0 X29.398 Y149.638 F2400
;rapid-dry
G0 X29.595 Y149.296 F9000
G1 F1800 E0.5
;bead-support-structure
G1 X28.574 Y151.067 F2100 E0.102
G1 X22.777 Y147.727 E0.333
G1 X23.844 Y145.879 E0.107
G1 X23.495 Y145.351 E0.031
G1 X30.365 Y149.312 E0.396
G1 X30.848 Y149.033 E0.028
G1 X27.378 Y147.032 E0.2
G1 F1800 E-0.5
G0 X28.071 Y147.431 F2400
G0 X27.378 Y147.032 F2400
;rapid-dry
G0 X28.345 Y146.474 F9000
G1 F1800 E0.5
;bead-support-structure
G1 X31.815 Y148.475 F2100 E0.2
G1 X31.332 Y148.754 E0.027
G1 X28.061 Y146.868 E0.189
G1 X28.019 Y146.892 E0.002
G1 X27.819 Y146.777 E0.012
G1 X28.829 Y146.195 E0.058
G1 X32.298 Y148.196 E0.2
G1 F1800 E-0.5
G0 X31.605 Y147.796 F2400
G0 X32.298 Y148.196 F2400
;rapid-dry
G0 X59.087 Y146.893 F9000
G1 F1800 E0.5
;bead-perimeter_inner
G1 X61.022 Y143.542 F780 E0.193
G1 X146.95 Y193.152 E4.95
G1 Y202.913 E0.487
G1 X143.08 E0.193
G1 Y195.387 E0.376
G1 X101.71 Y171.502 E2.383
G1 X61.022 Y194.993 E2.344
G1 X59.087 Y191.642 E0.193
G1 X97.84 Y169.267 E2.232
G1 X59.087 Y146.893 E2.233
;rapid-leaky
G0 X58.588 Y147.027 F9000
;bead-perimeter_outer
G1 X60.888 Y143.043 F540 E0.229
G1 X147.243 Y192.9 E4.975
G1 X147.315 E0.004
G1 Y203.278 E0.517
G1 X142.715 E0.23
G1 Y195.598 E0.383
G1 X101.71 Y171.923 E2.362
G1 X60.888 Y195.492 E2.352
G1 X58.588 Y191.508 E0.23
G1 X97.11 Y169.267 E2.219
G1 X58.588 Y147.027 E2.219
;rapid-leaky
G0 X60.565 Y144.974 F9000
;bead-solid_infill
G1 X61.405 Y144.133 F1200 E0.059
G1 X61.764 Y144.34 E0.021
G1 X59.792 Y146.312 E0.139
G1 X59.524 Y146.776 E0.027
G1 X59.758 Y146.911 E0.013
G1 X62.123 Y144.547 E0.167
G1 X62.481 Y144.754 E0.021
G1 X60.117 Y147.118 E0.167
G1 X60.476 Y147.325 E0.02
G1 X62.84 Y144.961 E0.167
G1 X63.199 Y145.168 E0.021
G1 X60.834 Y147.533 E0.167
G1 X61.193 Y147.74 E0.02
G1 X63.557 Y145.375 E0.167
G1 X63.916 Y145.582 E0.021
G1 X61.551 Y147.947 E0.166
G1 X61.91 Y148.154 E0.021
G1 X64.274 Y145.789 E0.167
G1 X64.633 Y145.996 E0.021
G1 X62.269 Y148.361 E0.166
G1 X62.627 Y148.568 E0.021
G1 X64.992 Y146.203 E0.167
G1 X65.35 Y146.41 E0.021
G1 X62.986 Y148.775 E0.166
G1 X63.345 Y148.982 E0.021
G1 X65.709 Y146.617 E0.167
G1 X66.068 Y146.824 E0.021
G1 X63.703 Y149.189 E0.166
G1 X64.062 Y149.396 E0.021
G1 X66.426 Y147.032 E0.167
G1 X66.785 Y147.239 E0.021
G1 X64.42 Y149.603 E0.166
G1 X64.779 Y149.81 E0.021
G1 X67.144 Y147.446 E0.167
G1 X67.502 Y147.653 E0.02
G1 X65.138 Y150.017 E0.167
G1 X65.496 Y150.224 E0.021
G1 X67.861 Y147.86 E0.167
G1 X68.219 Y148.067 E0.02
G1 X65.855 Y150.431 E0.167
G1 X66.214 Y150.638 E0.021
G1 X68.578 Y148.274 E0.167
G1 X68.937 Y148.481 E0.02
G1 X66.572 Y150.845 E0.167
G1 X66.931 Y151.052 E0.021
G1 X69.295 Y148.688 E0.167
G1 X69.654 Y148.895 E0.02
G1 X67.29 Y151.259 E0.167
G1 X67.648 Y151.467 E0.021
G1 X70.013 Y149.102 E0.167
G1 X70.371 Y149.309 E0.02
G1 X68.007 Y151.674 E0.167
G1 X68.365 Y151.881 E0.021
G1 X70.73 Y149.516 E0.167
G1 X71.088 Y149.723 E0.02
G1 X68.724 Y152.088 E0.167
G1 X69.083 Y152.295 E0.021
G1 X71.447 Y149.93 E0.167
G1 X71.806 Y150.137 E0.02
G1 X69.441 Y152.502 E0.167
G1 X69.8 Y152.709 E0.021
G1 X72.164 Y150.344 E0.167
G1 X72.523 Y150.551 E0.02
G1 X70.159 Y152.916 E0.167
G1 X70.517 Y153.123 E0.021
G1 X72.882 Y150.759 E0.167
G1 X73.24 Y150.966 E0.02
G1 X70.876 Y153.33 E0.167
G1 X71.234 Y153.537 E0.021
G1 X73.599 Y151.173 E0.167
G1 X73.958 Y151.38 E0.02
G1 X71.593 Y153.744 E0.167
G1 X71.952 Y153.951 E0.021
G1 X74.316 Y151.587 E0.166
G1 X74.675 Y151.794 E0.021
G1 X72.31 Y154.158 E0.167
G1 X72.669 Y154.365 E0.021
G1 X75.033 Y152.001 E0.166
G1 X75.392 Y152.208 E0.021
G1 X73.028 Y154.572 E0.167
G1 X73.386 Y154.779 E0.021
G1 X75.751 Y152.415 E0.166
G1 X76.109 Y152.622 E0.021
G1 X73.745 Y154.986 E0.167
G1 X74.104 Y155.193 E0.021
G1 X76.468 Y152.829 E0.166
G1 X76.827 Y153.036 E0.021
G1 X74.462 Y155.401 E0.167
G1 X74.821 Y155.608 E0.021
G1 X77.185 Y153.243 E0.166
G1 X77.544 Y153.45 E0.021
G1 X75.179 Y155.815 E0.167
G1 X75.538 Y156.022 E0.02
G1 X77.902 Y153.657 E0.167
G1 X78.261 Y153.864 E0.021
G1 X75.897 Y156.229 E0.167
G1 X76.255 Y156.436 E0.02
G1 X78.62 Y154.071 E0.167
G1 X78.978 Y154.278 E0.021
G1 X76.614 Y156.643 E0.167
G1 X76.973 Y156.85 E0.02
G1 X79.337 Y154.486 E0.167
G1 X79.696 Y154.693 E0.021
G1 X77.331 Y157.057 E0.167
G1 X77.69 Y157.264 E0.02
G1 X80.054 Y154.9 E0.167
G1 X80.413 Y155.107 E0.021
G1 X78.049 Y157.471 E0.167
G1 X78.407 Y157.678 E0.02
G1 X80.772 Y155.314 E0.167
G1 X81.13 Y155.521 E0.021
G1 X78.766 Y157.885 E0.167
G1 X79.124 Y158.092 E0.02
G1 X81.489 Y155.728 E0.167
G1 X81.847 Y155.935 E0.021
G1 X79.483 Y158.299 E0.167
G1 X79.842 Y158.506 E0.02
G1 X82.206 Y156.142 E0.167
G1 X82.565 Y156.349 E0.021
G1 X80.2 Y158.713 E0.167
G1 X80.559 Y158.92 E0.02
G1 X82.923 Y156.556 E0.167
G1 X83.282 Y156.763 E0.021
G1 X80.918 Y159.127 E0.166
G1 X81.276 Y159.335 E0.021
G1 X83.641 Y156.97 E0.167
G1 X83.999 Y157.177 E0.021
G1 X81.635 Y159.542 E0.166
G1 X81.993 Y159.749 E0.021
G1 X84.358 Y157.384 E0.167
G1 X84.716 Y157.591 E0.021
G1 X82.352 Y159.956 E0.166
G1 X82.711 Y160.163 E0.021
G1 X85.075 Y157.798 E0.167
G1 X85.434 Y158.005 E0.021
G1 X83.069 Y160.37 E0.166
G1 X83.114 Y160.396 E0.003
G1 X83.428 Y160.577 E0.018
G1 X85.792 Y158.212 E0.167
G1 X86.151 Y158.42 E0.02
G1 X83.787 Y160.784 E0.167
G1 X84.145 Y160.991 E0.021
G1 X86.51 Y158.627 E0.167
G1 X86.868 Y158.834 E0.02
G1 X84.504 Y161.198 E0.167
G1 X84.863 Y161.405 E0.021
G1 X87.227 Y159.041 E0.167
G1 X87.586 Y159.248 E0.02
G1 X85.221 Y161.612 E0.167
G1 X85.58 Y161.819 E0.021
G1 X87.944 Y159.455 E0.167
G1 X88.303 Y159.662 E0.02
G1 X85.938 Y162.026 E0.167
G1 X86.297 Y162.233 E0.021
G1 X88.661 Y159.869 E0.167
G1 X89.02 Y160.076 E0.02
G1 X86.656 Y162.44 E0.167
G1 X87.014 Y162.647 E0.021
G1 X89.379 Y160.283 E0.167
G1 X89.737 Y160.49 E0.02
G1 X87.373 Y162.854 E0.167
G1 X87.732 Y163.061 E0.021
G1 X90.096 Y160.697 E0.167
G1 X90.455 Y160.904 E0.02
G1 X88.09 Y163.269 E0.167
G1 X88.449 Y163.476 E0.021
G1 X90.813 Y161.111 E0.167
G1 X91.172 Y161.318 E0.02
G1 X88.807 Y163.683 E0.167
G1 X89.166 Y163.89 E0.021
G1 X91.53 Y161.525 E0.166
G1 X91.889 Y161.732 E0.021
G1 X89.525 Y164.097 E0.167
G1 X89.883 Y164.304 E0.021
G1 X92.248 Y161.939 E0.166
G1 X92.606 Y162.146 E0.021
G1 X90.242 Y164.511 E0.167
G1 X90.601 Y164.718 E0.021
G1 X92.965 Y162.354 E0.166
G1 X93.324 Y162.561 E0.021
G1 X90.959 Y164.925 E0.167
G1 X91.318 Y165.132 E0.021
G1 X93.682 Y162.768 E0.166
G1 X94.041 Y162.975 E0.021
G1 X91.677 Y165.339 E0.167
G1 X92.035 Y165.546 E0.02
G1 X94.4 Y163.182 E0.167
G1 X94.758 Y163.389 E0.021
G1 X92.394 Y165.753 E0.167
G1 X92.752 Y165.96 E0.02
G1 X95.117 Y163.596 E0.167
G1 X95.475 Y163.803 E0.021
G1 X93.111 Y166.167 E0.167
G1 X93.47 Y166.374 E0.02
G1 X95.834 Y164.01 E0.167
G1 X96.193 Y164.217 E0.021
G1 X93.828 Y166.581 E0.167
G1 X94.187 Y166.788 E0.02
G1 X96.551 Y164.424 E0.167
G1 X96.91 Y164.631 E0.021
G1 X94.546 Y166.995 E0.167
G1 X94.904 Y167.203 E0.02
G1 X97.269 Y164.838 E0.167
G1 X97.627 Y165.045 E0.021
G1 X95.263 Y167.41 E0.167
G1 X95.621 Y167.617 E0.02
G1 X97.986 Y165.252 E0.167
G1 X98.344 Y165.459 E0.021
G1 X95.98 Y167.824 E0.167
G1 X96.339 Y168.031 E0.02
G1 X98.703 Y165.666 E0.167
G1 X99.062 Y165.873 E0.021
G1 X96.697 Y168.238 E0.167
G1 X97.056 Y168.445 E0.02
G1 X99.42 Y166.081 E0.167
G1 X99.779 Y166.288 E0.021
G1 X97.415 Y168.652 E0.167
G1 X97.773 Y168.859 E0.02
G1 X100.138 Y166.495 E0.167
G1 X100.496 Y166.702 E0.021
G1 X98.132 Y169.066 E0.166
G1 X98.48 Y169.267 E0.02
G1 X97.181 Y170.017 E0.075
G1 X88.356 Y178.842 E0.623
G1 X89.694 Y178.07 E0.077
G1 X100.855 Y166.909 E0.788
G1 X101.214 Y167.116 E0.02
G1 X91.032 Y177.297 E0.719
G1 X92.371 Y176.524 E0.077
G1 X101.572 Y167.323 E0.649
G1 X101.931 Y167.53 E0.02
G1 X93.709 Y175.751 E0.581
G1 X95.048 Y174.979 E0.077
G1 X102.289 Y167.737 E0.511
G1 X102.648 Y167.944 E0.02
G1 X96.386 Y174.206 E0.442
G1 X97.725 Y173.433 E0.077
G1 X103.007 Y168.151 E0.373
G1 X103.365 Y168.358 E0.021
G1 X99.063 Y172.66 E0.303
G1 X100.402 Y171.888 E0.077
G1 X103.724 Y168.565 E0.235
G1 X104.083 Y168.772 E0.02
G1 X101.718 Y171.137 E0.167
G1 X102.077 Y171.344 E0.021
G1 X104.441 Y168.979 E0.167
G1 X104.8 Y169.186 E0.02
G1 X102.435 Y171.551 E0.167
G1 X102.794 Y171.758 E0.021
G1 X105.158 Y169.393 E0.167
G1 X105.517 Y169.6 E0.02
G1 X103.153 Y171.965 E0.167
G1 X103.511 Y172.172 E0.021
G1 X105.876 Y169.808 E0.166
G1 X106.234 Y170.015 E0.021
G1 X103.87 Y172.379 E0.167
G1 X104.228 Y172.586 E0.021
G1 X106.593 Y170.222 E0.166
G1 X106.952 Y170.429 E0.021
G1 X104.587 Y172.793 E0.167
G1 X104.946 Y173 E0.021
G1 X107.31 Y170.636 E0.166
G1 X107.669 Y170.843 E0.021
G1 X105.304 Y173.207 E0.167
G1 X105.663 Y173.414 E0.021
G1 X108.027 Y171.05 E0.166
G1 X108.386 Y171.257 E0.021
G1 X106.022 Y173.621 E0.167
G1 X106.38 Y173.828 E0.021
G1 X108.745 Y171.464 E0.166
G1 X109.103 Y171.671 E0.021
G1 X106.739 Y174.036 E0.167
G1 X107.097 Y174.243 E0.021
G1 X109.462 Y171.878 E0.166
G1 X109.821 Y172.085 E0.021
G1 X107.456 Y174.45 E0.167
G1 X107.815 Y174.657 E0.021
G1 X110.179 Y172.292 E0.166
G1 X110.538 Y172.499 E0.021
G1 X108.173 Y174.864 E0.167
G1 X108.532 Y175.071 E0.021
G1 X110.897 Y172.706 E0.166
G1 X111.255 Y172.913 E0.021
G1 X108.891 Y175.278 E0.167
G1 X109.249 Y175.485 E0.021
G1 X111.614 Y173.12 E0.166
G1 X111.972 Y173.327 E0.021
G1 X109.608 Y175.692 E0.167
G1 X109.967 Y175.899 E0.021
G1 X112.331 Y173.534 E0.166
G1 X112.69 Y173.742 E0.021
G1 X110.325 Y176.106 E0.167
G1 X110.684 Y176.313 E0.021
G1 X113.048 Y173.949 E0.166
G1 X113.407 Y174.156 E0.021
G1 X111.042 Y176.52 E0.167
G1 X111.401 Y176.727 E0.021
G1 X113.766 Y174.363 E0.166
G1 X114.124 Y174.57 E0.021
G1 X111.76 Y176.934 E0.167
G1 X112.118 Y177.141 E0.021
G1 X114.483 Y174.777 E0.166
G1 X114.841 Y174.984 E0.021
G1 X112.477 Y177.348 E0.167
G1 X112.836 Y177.555 E0.021
G1 X115.2 Y175.191 E0.166
G1 X115.559 Y175.398 E0.021
G1 X113.194 Y177.763 E0.167
G1 X113.553 Y177.97 E0.02
G1 X115.917 Y175.605 E0.167
G1 X116.276 Y175.812 E0.021
G1 X113.911 Y178.177 E0.167
G1 X114.27 Y178.384 E0.02
G1 X116.635 Y176.019 E0.167
G1 X116.993 Y176.226 E0.021
G1 X114.629 Y178.591 E0.167
G1 X114.987 Y178.798 E0.02
G1 X117.352 Y176.433 E0.167
G1 X117.711 Y176.64 E0.021
G1 X115.346 Y179.005 E0.167
G1 X115.705 Y179.212 E0.02
G1 X118.069 Y176.847 E0.167
G1 X118.428 Y177.054 E0.021
G1 X116.063 Y179.419 E0.167
G1 X116.422 Y179.626 E0.02
G1 X118.786 Y177.261 E0.167
G1 X119.145 Y177.469 E0.021
G1 X116.78 Y179.833 E0.167
G1 X117.139 Y180.04 E0.02
G1 X119.504 Y177.676 E0.167
G1 X119.862 Y177.883 E0.021
G1 X117.498 Y180.247 E0.167
G1 X117.856 Y180.454 E0.02
G1 X120.221 Y178.09 E0.167
G1 X120.58 Y178.297 E0.021
G1 X118.215 Y180.661 E0.167
G1 X118.574 Y180.868 E0.02
G1 X120.938 Y178.504 E0.167
G1 X121.297 Y178.711 E0.021
G1 X118.932 Y181.075 E0.167
G1 X119.291 Y181.283 E0.02
G1 X121.655 Y178.918 E0.167
G1 X122.014 Y179.125 E0.021
G1 X119.649 Y181.49 E0.167
G1 X120.008 Y181.697 E0.02
G1 X122.373 Y179.332 E0.167
G1 X122.731 Y179.539 E0.021
G1 X120.367 Y181.904 E0.167
G1 X120.725 Y182.111 E0.02
G1 X123.09 Y179.746 E0.167
G1 X123.449 Y179.953 E0.021
G1 X121.084 Y182.318 E0.167
G1 X121.443 Y182.525 E0.02
G1 X123.807 Y180.16 E0.167
G1 X124.166 Y180.367 E0.021
G1 X121.801 Y182.732 E0.167
G1 X122.16 Y182.939 E0.02
G1 X124.525 Y180.574 E0.167
G1 X124.883 Y180.781 E0.021
G1 X122.519 Y183.146 E0.167
G1 X122.877 Y183.353 E0.02
G1 X125.242 Y180.988 E0.167
G1 X125.6 Y181.195 E0.021
G1 X123.236 Y183.56 E0.167
G1 X123.594 Y183.767 E0.02
G1 X125.959 Y181.403 E0.167
G1 X126.318 Y181.61 E0.021
G1 X123.953 Y183.974 E0.167
G1 X124.312 Y184.181 E0.02
G1 X126.676 Y181.817 E0.167
G1 X127.035 Y182.024 E0.021
G1 X124.67 Y184.388 E0.167
G1 X125.029 Y184.595 E0.02
G1 X127.394 Y182.231 E0.167
G1 X127.752 Y182.438 E0.021
G1 X125.388 Y184.802 E0.167
G1 X125.746 Y185.01 E0.02
G1 X128.111 Y182.645 E0.167
G1 X128.469 Y182.852 E0.021
G1 X126.105 Y185.217 E0.167
G1 X126.463 Y185.424 E0.02
G1 X128.828 Y183.059 E0.167
G1 X129.187 Y183.266 E0.021
G1 X126.822 Y185.631 E0.167
G1 X127.181 Y185.838 E0.02
G1 X129.545 Y183.473 E0.167
G1 X129.904 Y183.68 E0.021
G1 X127.539 Y186.045 E0.167
G1 X127.898 Y186.252 E0.02
G1 X130.263 Y183.887 E0.167
G1 X130.621 Y184.094 E0.021
G1 X128.257 Y186.459 E0.167
G1 X128.615 Y186.666 E0.02
G1 X130.98 Y184.301 E0.167
G1 X131.339 Y184.508 E0.021
G1 X128.974 Y186.873 E0.167
G1 X129.332 Y187.08 E0.02
G1 X131.697 Y184.715 E0.167
G1 X132.056 Y184.922 E0.021
G1 X129.691 Y187.287 E0.167
G1 X130.05 Y187.494 E0.02
G1 X132.414 Y185.13 E0.167
G1 X132.773 Y185.337 E0.021
G1 X130.408 Y187.701 E0.167
G1 X130.767 Y187.908 E0.02
G1 X133.132 Y185.544 E0.167
G1 X133.49 Y185.751 E0.021
G1 X131.126 Y188.115 E0.167
G1 X131.484 Y188.322 E0.02
G1 X133.849 Y185.958 E0.167
G1 X134.208 Y186.165 E0.021
G1 X131.843 Y188.529 E0.167
G1 X132.202 Y188.737 E0.02
G1 X134.566 Y186.372 E0.167
G1 X134.925 Y186.579 E0.021
G1 X132.56 Y188.944 E0.167
G1 X132.919 Y189.151 E0.02
G1 X135.283 Y186.786 E0.167
G1 X135.642 Y186.993 E0.021
G1 X133.277 Y189.358 E0.167
G1 X133.636 Y189.565 E0.02
G1 X136.001 Y187.2 E0.167
G1 X136.359 Y187.407 E0.021
G1 X133.995 Y189.772 E0.167
G1 X134.353 Y189.979 E0.02
G1 X136.718 Y187.614 E0.167
G1 X137.077 Y187.821 E0.021
G1 X134.712 Y190.186 E0.167
G1 X135.071 Y190.393 E0.02
G1 X137.435 Y188.028 E0.167
G1 X137.794 Y188.235 E0.021
G1 X135.429 Y190.6 E0.167
G1 X135.788 Y190.807 E0.02
G1 X138.153 Y188.442 E0.167
G1 X138.511 Y188.649 E0.021
G1 X136.146 Y191.014 E0.167
G1 X136.505 Y191.221 E0.02
G1 X138.87 Y188.856 E0.167
G1 X139.228 Y189.064 E0.021
G1 X136.864 Y191.428 E0.167
G1 X137.222 Y191.635 E0.02
G1 X139.587 Y189.271 E0.167
G1 X139.946 Y189.478 E0.021
G1 X137.581 Y191.842 E0.167
G1 X137.94 Y192.049 E0.02
G1 X140.304 Y189.685 E0.167
G1 X140.663 Y189.892 E0.021
G1 X138.298 Y192.257 E0.167
G1 X138.657 Y192.464 E0.02
G1 X141.022 Y190.099 E0.167
G1 X141.38 Y190.306 E0.021
G1 X139.015 Y192.671 E0.167
G1 X139.374 Y192.878 E0.02
G1 X141.739 Y190.513 E0.167
G1 X142.097 Y190.72 E0.021
G1 X139.733 Y193.085 E0.167
G1 X140.091 Y193.292 E0.02
G1 X142.456 Y190.927 E0.167
G1 X142.815 Y191.134 E0.021
G1 X140.45 Y193.499 E0.167
G1 X140.809 Y193.706 E0.021
G1 X143.173 Y191.341 E0.166
G1 X143.532 Y191.548 E0.021
G1 X141.167 Y193.913 E0.167
G1 X141.526 Y194.12 E0.021
G1 X143.891 Y191.755 E0.166
G1 X144.249 Y191.962 E0.021
G1 X141.884 Y194.327 E0.167
G1 X142.243 Y194.534 E0.021
G1 X144.608 Y192.169 E0.166
G1 X144.967 Y192.376 E0.021
G1 X142.602 Y194.741 E0.167
G1 X142.96 Y194.948 E0.021
G1 X145.325 Y192.583 E0.166
G1 X145.684 Y192.791 E0.021
G1 X143.319 Y195.155 E0.167
G1 X143.4 Y195.202 E0.005
G1 Y195.64 E0.021
G1 X146.042 Y192.998 E0.187
G1 X146.401 Y193.205 E0.021
G1 X143.4 Y196.206 E0.211
G1 Y196.771 E0.028
G1 X146.63 Y193.541 E0.228
G1 Y194.107 E0.029
G1 X143.4 Y197.337 E0.227
G1 Y197.903 E0.029
G1 X146.63 Y194.673 E0.228
G1 Y195.238 E0.028
G1 X143.4 Y198.468 E0.228
G1 Y199.034 E0.028
G1 X146.63 Y195.804 E0.228
G1 Y196.37 E0.028
G1 X143.4 Y199.6 E0.228
G1 Y200.165 E0.028
G1 X146.63 Y196.935 E0.228
G1 Y197.501 E0.028
G1 X143.4 Y200.731 E0.228
G1 Y201.297 E0.028
G1 X146.63 Y198.067 E0.228
G1 Y198.633 E0.029
G1 X143.4 Y201.863 E0.227
G1 Y202.428 E0.029
G1 X146.63 Y199.198 E0.228
G1 Y199.764 E0.028
G1 X143.801 Y202.593 E0.199
G1 X144.367 E0.029
G1 X146.63 Y200.33 E0.159
G1 Y200.895 E0.028
G1 X144.932 Y202.593 E0.12
G1 X145.498 E0.028
G1 X146.63 Y201.461 E0.08
G1 Y202.027 E0.029
G1 X146.064 Y202.593 E0.04
G1 X146.629 E0.028
G1 X146.63 Y202.592
G1 F1800 E-0.5
;rapid-dry
G0 X146.849 Y167.741 F9000
G1 F1800 E0.5
;bead-perimeter_inner
G1 X95.181 Y137.91 F780 E2.976
G1 X95.18 Y134.618 E0.165
G1 X93.611 Y133.712 E0.09
G1 X95.18 Y132.809 E0.09
G1 Y129.277 E0.177
G1 X146.882 Y99.425 E2.978
G1 X146.883 Y99.453 E0.001
G1 X187.416 Y76.052 E2.335
G1 X190.485 Y77.824 E0.177
G1 X191.615 Y77.172 E0.065
G1 Y78.475 E0.065
G1 X194.893 Y80.367 E0.189
G1 X194.885 Y186.767 E5.308
G1 X191.615 Y188.653 E0.189
G1 X191.614 Y190.254 E0.08
G1 X190.229 Y189.454 E0.079
G1 X187.409 Y191.083 E0.163
G1 X146.849 Y167.665 E2.337
G1 Y167.741 E0.003
;rapid-leaky
G0 X147.214 Y168.298 F9000
;bead-perimeter_outer
G1 Y168.374 F540 E0.004
G1 X94.816 Y138.121 E3.019
G1 X94.815 Y134.828 E0.164
G1 X92.88 Y133.712 E0.111
G1 X94.815 Y132.598 E0.112
G1 Y129.066 E0.176
G1 X147.225 Y98.806 E3.019
G1 X147.226 Y98.834 E0.002
G1 X187.416 Y75.631 E2.315
G1 X190.485 Y77.403 E0.177
G1 X191.98 Y76.54 E0.086
G1 Y78.264 E0.086
G1 X195.258 Y80.156 E0.189
G1 X195.25 Y186.977 E5.329
G1 X191.98 Y188.863 E0.188
G1 X191.979 Y190.886 E0.101
G1 X190.229 Y189.875 E0.101
G1 X187.409 Y191.504 E0.163
G1 X147.214 Y168.298 E2.315
G1 F1800 E-0.5
;rapid-dry
G0 X147.76 Y136.761 F9000
G1 F1800 E0.5
;bead-perimeter_inner
G1 X147.761 Y130.427 F780 E0.316
G1 X146.391 E0.068
G1 X146.39 Y136.761 E0.316
G1 X147.76 E0.069
;rapid-leaky
G0 X147.395 Y136.396 F9000
;bead-perimeter_outer
G1 X147.396 Y130.792 F540 E0.279
G1 X146.756 E0.032
G1 X146.755 Y136.396 E0.28
G1 X147.395 E0.032
G1 F1800 E-0.5
;rapid-dry
G0 X103.303 Y136.761 F9000
G1 F1800 E0.5
;bead-perimeter_inner
G1 Y130.425 F780 E0.316
G1 X101.933 E0.068
G1 Y136.761 E0.316
G1 X103.303 E0.069
;rapid-leaky
G0 X102.938 Y136.396 F9000
;bead-perimeter_outer
G1 Y130.79 F540 E0.279
G1 X102.298 E0.032
G1 Y136.396 E0.28
G1 X102.938 E0.032
G1 F1800 E-0.5
;rapid-dry
G0 X100.9 Y140.842 F9000
G1 F1800 E0.5
;bead-solid_infill
G1 X135.206 Y106.536 F1200 E2.42
G1 X136.545 Y105.763 E0.078
G1 X101.259 Y141.049 E2.489
G1 X101.617 Y141.256 E0.021
G1 X137.883 Y104.99 E2.559
G1 X139.222 Y104.217 E0.077
G1 X101.976 Y141.463 E2.628
G1 X102.334 Y141.67 E0.02
G1 X140.56 Y103.445 E2.697
G1 X141.899 Y102.672 E0.077
G1 X102.693 Y141.878 E2.767
G1 X103.052 Y142.085 E0.02
G1 X143.237 Y101.899 E2.836
G1 X144.576 Y101.126 E0.077
G1 X103.41 Y142.292 E2.904
G1 X103.769 Y142.499 E0.021
G1 X145.915 Y100.353 E2.973
G1 X146.58 Y99.969 E0.039
G1 X146.581 Y99.997 E0.001
G1 X147.186 Y99.648 E0.035
G1 X104.128 Y142.706 E3.038
G1 X104.486 Y142.913 E0.021
G1 X148.524 Y98.875 E3.107
G1 X149.862 Y98.103 E0.077
G1 X104.845 Y143.12 E3.176
G1 X105.203 Y143.327 E0.021
G1 X151.201 Y97.33 E3.245
G1 X152.539 Y96.557 E0.077
G1 X105.562 Y143.534 E3.315
G1 X105.921 Y143.741 E0.02
G1 X153.877 Y95.785 E3.384
G1 X155.216 Y95.012 E0.077
G1 X106.279 Y143.948 E3.453
G1 X106.638 Y144.155 E0.02
G1 X156.554 Y94.239 E3.522
G1 X157.892 Y93.467 E0.077
G1 X106.997 Y144.362 E3.591
G1 X107.355 Y144.569 E0.021
G1 X159.231 Y92.694 E3.66
G1 X160.569 Y91.921 E0.077
G1 X107.714 Y144.776 E3.729
G1 X108.072 Y144.983 E0.021
G1 X161.907 Y91.149 E3.798
G1 X163.246 Y90.376 E0.077
G1 X108.431 Y145.19 E3.868
G1 X108.79 Y145.398 E0.021
G1 X164.584 Y89.603 E3.936
G1 X165.922 Y88.831 E0.077
G1 X109.148 Y145.605 E4.006
G1 X109.507 Y145.812 E0.021
G1 X167.261 Y88.058 E4.074
G1 X168.267 Y87.477 E0.058
G1 X168.599 Y87.285 E0.019
G1 X109.866 Y146.019 E4.144
G1 X110.224 Y146.226 E0.021
G1 X169.937 Y86.513 E4.213
G1 X171.276 Y85.74 E0.077
G1 X110.583 Y146.433 E4.282
G1 X110.941 Y146.64 E0.021
G1 X172.614 Y84.967 E4.351
G1 X173.952 Y84.195 E0.078
G1 X111.3 Y146.847 E4.42
G1 X111.659 Y147.054 E0.021
G1 X175.291 Y83.422 E4.489
G1 X176.629 Y82.649 E0.077
G1 X112.017 Y147.261 E4.559
G1 X112.376 Y147.468 E0.021
G1 X177.967 Y81.877 E4.628
G1 X179.306 Y81.104 E0.077
G1 X112.735 Y147.675 E4.697
G1 X113.093 Y147.882 E0.02
G1 X180.644 Y80.332 E4.766
G1 X181.982 Y79.559 E0.077
G1 X113.452 Y148.089 E4.836
G1 X113.81 Y148.296 E0.02
G1 X183.321 Y78.786 E4.905
G1 X184.659 Y78.014 E0.077
G1 X114.169 Y148.503 E4.973
G1 X114.528 Y148.71 E0.021
G1 X185.997 Y77.241 E5.042
G1 X187.336 Y76.468 E0.077
G1 X114.886 Y148.918 E5.112
G1 X115.245 Y149.125 E0.021
G1 X187.753 Y76.617 E5.116
G1 X188.112 Y76.824 E0.02
G1 X115.604 Y149.332 E5.116
G1 X115.962 Y149.539 E0.021
G1 X188.47 Y77.031 E5.116
G1 X188.829 Y77.238 E0.02
G1 X116.321 Y149.746 E5.116
G1 X116.679 Y149.953 E0.021
G1 X189.188 Y77.445 E5.116
G1 X189.546 Y77.652 E0.02
G1 X117.038 Y150.16 E5.116
G1 X117.397 Y150.367 E0.021
G1 X189.905 Y77.859 E5.116
G1 X190.263 Y78.066 E0.02
G1 X117.755 Y150.574 E5.116
G1 X118.114 Y150.781 E0.021
G1 X190.996 Y77.899 E5.142
G1 X191.295 Y77.726 E0.017
G1 Y78.166 E0.022
G1 X118.473 Y150.988 E5.138
G1 X118.831 Y151.195 E0.021
G1 X191.34 Y78.686 E5.116
G1 X191.699 Y78.893 E0.02
G1 X119.19 Y151.402 E5.116
G1 X119.548 Y151.609 E0.021
G1 X192.058 Y79.1 E5.116
G1 X192.416 Y79.307 E0.021
G1 X119.907 Y151.816 E5.115
G1 X120.266 Y152.023 E0.021
G1 X192.775 Y79.514 E5.116
G1 X193.134 Y79.721 E0.021
G1 X120.624 Y152.23 E5.116
G1 X120.983 Y152.438 E0.02
G1 X193.492 Y79.928 E5.116
G1 X193.851 Y80.135 E0.021
G1 X121.342 Y152.645 E5.116
G1 X121.7 Y152.852 E0.02
G1 X194.21 Y80.342 E5.116
G1 X194.568 Y80.549 E0.021
G1 X122.059 Y153.059 E5.116
G1 X122.417 Y153.266 E0.021
G1 X194.573 Y81.11 E5.091
G1 Y81.676 E0.028
G1 X146.142 Y130.107 E3.417
G1 X146.071 E0.003
G1 Y130.178 E0.004
G1 X122.776 Y153.473 E1.643
G1 X123.135 Y153.68 E0.021
G1 X146.071 Y130.744 E1.618
G1 Y131.309 E0.029
G1 X123.493 Y153.887 E1.593
G1 X123.852 Y154.094 E0.02
G1 X146.071 Y131.875 E1.568
G1 Y132.441 E0.028
G1 X124.211 Y154.301 E1.543
G1 X124.569 Y154.508 E0.02
G1 X146.071 Y133.007 E1.517
G1 Y133.573 E0.028
G1 X124.928 Y154.715 E1.492
G1 X125.286 Y154.922 E0.021
G1 X146.07 Y134.138 E1.466
G1 Y134.704 E0.029
G1 X125.645 Y155.129 E1.441
G1 X126.004 Y155.336 E0.02
G1 X146.07 Y135.27 E1.416
G1 Y135.836 E0.028
G1 X126.362 Y155.543 E1.391
G1 X126.721 Y155.751 E0.02
G1 X146.07 Y136.402 E1.366
G1 Y136.967 E0.028
G1 X127.08 Y155.958 E1.34
G1 X127.438 Y156.165 E0.02
G1 X146.522 Y137.081 E1.347
G1 X147.088 E0.028
G1 X127.797 Y156.372 E1.361
G1 X128.155 Y156.579 E0.021
G1 X147.653 Y137.081 E1.375
G1 X148.08 E0.022
G1 Y136.654 E0.021
G1 X194.572 Y90.162 E3.28
G1 Y90.728 E0.029
G1 X128.514 Y156.786 E4.66
G1 X128.873 Y156.993 E0.021
G1 X194.572 Y91.294 E4.635
G1 Y91.859 E0.029
G1 X129.231 Y157.2 E4.61
G1 X129.59 Y157.407 E0.02
G1 X194.572 Y92.425 E4.585
G1 Y92.991 E0.028
G1 X129.949 Y157.614 E4.56
G1 X130.307 Y157.821 E0.021
G1 X194.572 Y93.556 E4.534
G1 Y94.122 E0.028
G1 X130.666 Y158.028 E4.509
G1 X131.024 Y158.235 E0.021
G1 X194.572 Y94.688 E4.483
G1 Y95.254 E0.029
G1 X131.383 Y158.442 E4.458
G1 X131.742 Y158.649 E0.02
G1 X194.572 Y95.819 E4.434
G1 Y96.385 E0.028
G1 X132.1 Y158.856 E4.407
G1 X132.459 Y159.063 E0.021
G1 X194.572 Y96.951 E4.382
G1 Y97.517 E0.029
G1 X132.818 Y159.271 E4.357
G1 X133.176 Y159.478 E0.02
G1 X194.572 Y98.082 E4.332
G1 Y98.648 E0.028
G1 X133.535 Y159.685 E4.307
G1 X133.893 Y159.892 E0.021
G1 X194.572 Y99.214 E4.281
G1 Y99.779 E0.028
G1 X134.252 Y160.099 E4.256
G1 X134.611 Y160.306 E0.021
G1 X194.571 Y100.345 E4.23
G1 Y100.911 E0.028
G1 X134.969 Y160.513 E4.205
G1 X135.328 Y160.72 E0.021
G1 X194.571 Y101.477 E4.18
G1 Y102.042 E0.028
G1 X135.687 Y160.927 E4.155
G1 X136.045 Y161.134 E0.021
G1 X194.571 Y102.608 E4.129
G1 Y103.174 E0.028
G1 X136.404 Y161.341 E4.104
G1 X136.762 Y161.548 E0.021
G1 X194.571 Y103.74 E4.079
G1 Y104.305 E0.028
G1 X137.121 Y161.755 E4.053
G1 X137.48 Y161.962 E0.021
G1 X194.571 Y104.871 E4.028
G1 Y105.437 E0.028
G1 X137.838 Y162.169 E4.003
G1 X138.197 Y162.376 E0.021
G1 X194.571 Y106.002 E3.977
G1 Y106.568 E0.028
G1 X138.556 Y162.583 E3.953
G1 X138.914 Y162.791 E0.02
G1 X194.571 Y107.134 E3.927
G1 Y107.7 E0.028
G1 X139.273 Y162.998 E3.902
G1 X139.631 Y163.205 E0.021
G1 X194.571 Y108.265 E3.876
G1 Y108.831 E0.028
G1 X139.99 Y163.412 E3.851
G1 X140.349 Y163.619 E0.021
G1 X194.571 Y109.397 E3.825
G1 Y109.963 E0.029
G1 X140.707 Y163.826 E3.8
G1 X141.066 Y164.033 E0.021
G1 X194.571 Y110.528 E3.775
G1 Y111.094 E0.028
G1 X141.425 Y164.24 E3.75
G1 X141.783 Y164.447 E0.02
G1 X194.571 Y111.66 E3.725
G1 Y112.225 E0.028
G1 X142.142 Y164.654 E3.699
G1 X142.5 Y164.861 E0.021
G1 X194.571 Y112.791 E3.673
G1 Y113.357 E0.029
G1 X142.859 Y165.068 E3.648
G1 X143.218 Y165.275 E0.021
G1 X194.57 Y113.923 E3.623
G1 Y114.488 E0.028
G1 X143.576 Y165.482 E3.598
G1 X143.935 Y165.689 E0.021
G1 X194.57 Y115.054 E3.573
G1 Y115.62 E0.028
G1 X144.294 Y165.896 E3.547
G1 X144.652 Y166.104 E0.021
G1 X194.57 Y116.186 E3.522
G1 Y116.751 E0.028
G1 X145.011 Y166.311 E3.497
G1 X145.369 Y166.518 E0.02
G1 X194.57 Y117.317 E3.472
G1 Y117.883 E0.028
G1 X145.728 Y166.725 E3.446
G1 X146.087 Y166.932 E0.021
G1 X194.57 Y118.448 E3.42
G1 Y119.014 E0.029
G1 X146.445 Y167.139 E3.395
G1 X146.529 Y167.187 E0.005
G1 Y167.111 E0.004
G1 X146.852 Y167.298 E0.018
G1 X194.57 Y119.58 E3.367
G1 Y120.146 E0.028
G1 X147.211 Y167.505 E3.342
G1 X147.569 Y167.712 E0.02
G1 X194.57 Y120.711 E3.316
G1 Y121.277 E0.029
G1 X147.928 Y167.919 E3.291
G1 X148.287 Y168.126 E0.02
G1 X194.57 Y121.843 E3.266
G1 Y122.409 E0.028
G1 X148.645 Y168.333 E3.24
G1 X149.004 Y168.54 E0.021
G1 X194.57 Y122.974 E3.215
G1 Y123.54 E0.028
G1 X149.363 Y168.747 E3.19
G1 X149.721 Y168.954 E0.02
G1 X194.57 Y124.106 E3.165
G1 Y124.671 E0.028
G1 X150.08 Y169.161 E3.139
G1 X150.438 Y169.368 E0.02
G1 X194.57 Y125.237 E3.114
G1 Y125.803 E0.028
G1 X150.797 Y169.575 E3.089
G1 X151.156 Y169.782 E0.02
G1 X194.57 Y126.369 E3.063
G1 Y126.934 E0.029
G1 X151.514 Y169.989 E3.037
G1 X151.873 Y170.196 E0.021
G1 X194.569 Y127.5 E3.013
G1 Y128.066 E0.028
G1 X152.232 Y170.404 E2.987
G1 X152.59 Y170.611 E0.021
G1 X194.569 Y128.632 E2.961
G1 Y129.197 E0.029
G1 X152.949 Y170.818 E2.936
G1 X153.308 Y171.025 E0.021
G1 X194.569 Y129.763 E2.911
G1 Y130.329 E0.028
G1 X153.666 Y171.232 E2.886
G1 X154.025 Y171.439 E0.021
G1 X194.569 Y130.894 E2.861
G1 Y131.46 E0.028
G1 X154.383 Y171.646 E2.835
G1 X154.742 Y171.853 E0.021
G1 X194.569 Y132.026 E2.81
G1 Y132.592 E0.028
G1 X155.101 Y172.06 E2.785
G1 X155.459 Y172.267 E0.02
G1 X194.569 Y133.157 E2.76
G1 Y133.723 E0.028
G1 X155.818 Y172.474 E2.734
G1 X156.177 Y172.681 E0.021
G1 X194.569 Y134.289 E2.709
G1 Y134.855 E0.028
G1 X156.535 Y172.888 E2.683
G1 X156.894 Y173.095 E0.021
G1 X194.569 Y135.42 E2.658
G1 Y135.986 E0.028
G1 X157.252 Y173.302 E2.633
G1 X157.611 Y173.509 E0.021
G1 X194.569 Y136.552 E2.607
G1 Y137.117 E0.029
G1 X157.97 Y173.716 E2.582
G1 X158.328 Y173.923 E0.021
G1 X194.569 Y137.683 E2.557
G1 Y138.249 E0.028
G1 X158.687 Y174.131 E2.531
G1 X159.046 Y174.338 E0.021
G1 X194.569 Y138.815 E2.506
G1 Y139.38 E0.029
G1 X159.404 Y174.545 E2.481
G1 X159.763 Y174.752 E0.02
G1 X194.569 Y139.946 E2.456
G1 X194.568 Y140.512 E0.028
G1 X160.121 Y174.959 E2.431
G1 X160.48 Y175.166 E0.02
G1 X194.568 Y141.078 E2.405
G1 Y141.643 E0.029
G1 X160.839 Y175.373 E2.379
G1 X161.197 Y175.58 E0.021
G1 X194.568 Y142.209 E2.355
G1 Y142.775 E0.028
G1 X161.556 Y175.787 E2.329
G1 X161.915 Y175.994 E0.021
G1 X194.568 Y143.34 E2.304
G1 Y143.906 E0.028
G1 X162.273 Y176.201 E2.278
G1 X162.632 Y176.408 E0.021
G1 X194.568 Y144.472 E2.253
G1 Y145.038 E0.029
G1 X162.991 Y176.615 E2.228
G1 X163.349 Y176.822 E0.02
G1 X194.568 Y145.603 E2.203
G1 Y146.169 E0.028
G1 X163.708 Y177.029 E2.177
G1 X164.066 Y177.236 E0.021
G1 X194.568 Y146.735 E2.152
G1 Y147.301 E0.028
G1 X164.425 Y177.443 E2.127
G1 X164.784 Y177.65 E0.021
G1 X194.568 Y147.866 E2.101
G1 Y148.432 E0.028
G1 X165.142 Y177.857 E2.077
G1 X165.501 Y178.065 E0.02
G1 X194.568 Y148.998 E2.051
G1 Y149.563 E0.028
G1 X165.86 Y178.272 E2.026
G1 X166.218 Y178.479 E0.02
G1 X194.568 Y150.129 E2.001
G1 Y150.695 E0.028
G1 X166.577 Y178.686 E1.975
G1 X166.935 Y178.893 E0.02
G1 X194.568 Y151.261 E1.95
G1 Y151.826 E0.028
G1 X167.294 Y179.1 E1.925
G1 X167.653 Y179.307 E0.02
G1 X194.568 Y152.392 E1.899
G1 Y152.958 E0.028
G1 X168.011 Y179.514 E1.874
G1 X168.37 Y179.721 E0.021
G1 X194.568 Y153.524 E1.848
G1 X194.567 Y154.089 E0.028
G1 X168.729 Y179.928 E1.824
G1 X169.087 Y180.135 E0.02
G1 X194.567 Y154.655 E1.798
G1 Y155.221 E0.028
G1 X169.446 Y180.342 E1.773
G1 X169.805 Y180.549 E0.02
G1 X194.567 Y155.786 E1.747
G1 Y156.352 E0.029
G1 X170.163 Y180.756 E1.721
G1 X170.522 Y180.963 E0.021
G1 X194.567 Y156.918 E1.697
G1 Y157.484 E0.028
G1 X170.88 Y181.17 E1.671
G1 X171.239 Y181.377 E0.021
G1 X194.567 Y158.049 E1.646
G1 Y158.615 E0.028
G1 X171.598 Y181.584 E1.621
G1 X171.956 Y181.792 E0.02
G1 X194.567 Y159.181 E1.596
G1 Y159.747 E0.028
G1 X172.315 Y181.999 E1.57
G1 X172.674 Y182.206 E0.02
G1 X194.567 Y160.312 E1.545
G1 Y160.878 E0.028
G1 X173.032 Y182.413 E1.52
G1 X173.391 Y182.62 E0.02
G1 X194.567 Y161.444 E1.494
G1 Y162.009 E0.029
G1 X173.749 Y182.827 E1.468
G1 X174.108 Y183.034 E0.021
G1 X194.567 Y162.575 E1.444
G1 Y163.141 E0.028
G1 X174.467 Y183.241 E1.418
G1 X174.825 Y183.448 E0.021
G1 X194.567 Y163.707 E1.392
G1 Y164.272 E0.029
G1 X175.184 Y183.655 E1.367
G1 X175.543 Y183.862 E0.021
G1 X194.567 Y164.838 E1.342
G1 Y165.404 E0.028
G1 X175.901 Y184.069 E1.317
G1 X176.26 Y184.276 E0.021
G1 X194.567 Y165.97 E1.292
G1 Y166.535 E0.028
G1 X176.619 Y184.483 E1.266
G1 X176.977 Y184.69 E0.021
G1 X194.566 Y167.101 E1.241
G1 Y167.667 E0.028
G1 X177.336 Y184.897 E1.216
G1 X177.694 Y185.104 E0.02
G1 X194.566 Y168.232 E1.191
G1 Y168.798 E0.028
G1 X178.053 Y185.311 E1.165
G1 X178.412 Y185.519 E0.021
G1 X194.566 Y169.364 E1.14
G1 Y169.93 E0.028
G1 X178.77 Y185.726 E1.114
G1 X179.129 Y185.933 E0.021
G1 X194.566 Y170.495 E1.089
G1 Y171.061 E0.028
G1 X179.488 Y186.14 E1.064
G1 X179.846 Y186.347 E0.021
G1 X194.566 Y171.627 E1.039
G1 Y172.193 E0.028
G1 X180.205 Y186.554 E1.013
G1 X180.563 Y186.761 E0.021
G1 X194.566 Y172.758 E0.988
G1 Y173.324 E0.028
G1 X180.922 Y186.968 E0.963
G1 X181.281 Y187.175 E0.02
G1 X194.566 Y173.89 E0.938
G1 Y174.455 E0.028
G1 X181.639 Y187.382 E0.912
G1 X181.998 Y187.589 E0.021
G1 X194.566 Y175.021 E0.886
G1 Y175.587 E0.028
G1 X182.357 Y187.796 E0.862
G1 X182.715 Y188.003 E0.021
G1 X194.566 Y176.153 E0.836
G1 Y176.718 E0.028
G1 X183.074 Y188.21 E0.811
G1 X183.433 Y188.417 E0.02
G1 X194.566 Y177.284 E0.786
G1 Y177.85 E0.028
G1 X183.791 Y188.624 E0.76
G1 X184.15 Y188.831 E0.021
G1 X194.566 Y178.416 E0.735
G1 Y178.981 E0.028
G1 X184.508 Y189.038 E0.71
G1 X184.867 Y189.245 E0.02
G1 X194.566 Y179.547 E0.685
G1 Y180.113 E0.028
G1 X185.226 Y189.453 E0.659
G1 X185.584 Y189.66 E0.02
G1 X194.565 Y180.678 E0.634
G1 Y181.244 E0.028
G1 X185.943 Y189.867 E0.609
G1 X186.302 Y190.074 E0.02
G1 X194.565 Y181.81 E0.583
G1 Y182.376 E0.029
G1 X186.66 Y190.281 E0.557
G1 X187.019 Y190.488 E0.021
G1 X194.565 Y182.941 E0.532
G1 Y183.507 E0.029
G1 X187.377 Y190.695 E0.507
G1 X187.409 Y190.713 E0.002
G1 X188.631 Y190.007 E0.07
G1 X194.565 Y184.073 E0.419
G1 Y184.639 E0.028
G1 X189.97 Y189.233 E0.324
G1 X190.229 Y189.084 E0.015
G1 X190.518 Y189.251 E0.017
G1 X191.295 Y188.474 E0.055
G1 Y188.468
G1 X191.311 Y188.459 E0.001
G1 X194.565 Y185.204 E0.229
G1 Y185.77 E0.029
G1 X192.647 Y187.688 E0.135
G1 X193.984 Y186.917 E0.077
G1 X194.565 Y186.336 E0.041
G1 F1800 E-0.5
;rapid-dry
G0 X196.495 Y188.025 F9000
G1 F1800 E0.5
;bead-support-structure
G1 X192.826 Y190.141 F2100 E0.211
G1 Y190.7 E0.028
G1 X196.495 Y188.583 E0.211
G1 Y189.142 E0.028
G1 X192.826 Y191.259 E0.212
G1 F1800 E-0.5
G0 X193.519 Y190.859 F2400
G0 X192.826 Y191.259 F2400
;rapid-dry
G0 Y191.818 F9000
G1 F1800 E0.5
;bead-support-structure
G1 X196.495 Y189.701 F2100 E0.211
G1 Y190.259 E0.028
G1 X189.628 Y194.222 E0.395
G1 F1800 E-0.5
G0 X190.321 Y193.822 F2400
G0 X189.628 Y194.222 F2400
;rapid-dry
G0 X190.259 Y194.183 F9000
G1 F1800 E0.5
;bead-support-structure
G1 X191.327 Y196.031 F2100 E0.107
G1 X197.122 Y192.689 E0.334
G1 X196.096 Y190.913 E0.102
G1 X196.879 Y192.271 E0.078
G1 X191.086 Y195.613 E0.334
G1 X190.211 Y194.098 E0.087
G1 X190.843 Y195.195 E0.063
G1 X196.641 Y191.851 E0.334
G1 X196.495 Y191.377 E0.025
G1 X190.596 Y194.781 E0.34
G1 X190.112 Y194.502 E0.028
G1 X196.495 Y190.817 E0.367
G1 F1800 E-0.5
G0 X195.802 Y191.217 F2400
G0 X196.495 Y190.817 F2400
;rapid-dry
G0 X196.296 Y191.259 F9000
G1 F1800 E0.5
;bead-support-structure
G1 X197.363 Y193.107 F2100 E0.107
G1 X191.568 Y196.448 E0.334
G1 X190.5 Y194.6 E0.106
G1 F1800 E-0.5
G0 X190.9 Y195.293 F2400
G0 X190.5 Y194.6 F2400
;rapid-dry
G0 X191.635 Y196.966 F9000
G1 F1800 E0.5
;bead-support-structure
G1 X197.777 Y193.425 F2100 E0.354
G1 X198.019 Y193.843 E0.024
G1 X191.876 Y197.384 E0.354
G1 X192.117 Y197.802 E0.024
G1 X198.26 Y194.261 E0.353
G1 X198.502 Y194.679 E0.025
G1 X195.428 Y196.449 E0.177
G1 X195.333 Y196.484 E0.005
G1 X195.239 Y196.562 E0.006
G1 X192.357 Y198.219 E0.166
G1 F1800 E-0.5
G0 X193.051 Y197.82 F2400
G0 X192.357 Y198.219 F2400
;rapid-dry
G0 X193.841 Y199.666 F9000
G1 F1800 E0.5
;bead-support-structure
G1 X194.646 Y200.127 F2100 E0.046
G1 X194.536 Y199.752 E0.019
G1 X194.011 Y200.054 E0.03
G1 X193.929 Y199.967 E0.006
G1 F1800 E-0.5
G0 X194.011 Y200.054 F2400
G0 X194.536 Y199.752 F2400
G0 X194.557 Y199.824 F2400
G0 X194.536 Y199.752 F2400
G0 X194.011 Y200.054 F2400
G0 X193.929 Y199.967 F2400
;rapid-dry
G0 X194.676 Y200.229 F9000
G1 F1800 E0.5
;bead-support-structure
G1 X194.592 Y200.278 F2100 E0.005
G1 X193.874 Y199.778 E0.044
G1 F1800 E-0.5
G0 X194.531 Y200.235 F2400
G0 X193.874 Y199.778 F2400
;rapid-dry
G0 X193.737 Y199.607 F9000
G1 F1800 E0.5
;bead-support-structure
G1 X193.486 Y199.463 F2100 E0.014
G1 X193.682 Y199.639 E0.013
G1 X193.642 Y199.662 E0.003
G1 X193.371 Y199.375 E0.019
G1 X193.284 Y199.426 E0.006
G1 X192.949 Y198.845 E0.033
G1 X192.611 Y198.397 E0.028
G1 X193.082 Y199.472 E0.059
G1 X195.386 Y198.146 E0.132
G1 X194.938 Y197.014 E0.061
G1 X194.918 Y196.771 E0.012
G1 X194.968 Y196.547 E0.012
G1 X195.11 Y196.407 E0.01
G1 X195.125 Y196.429 E0.001
G1 X195.008 Y196.625 E0.011
G1 X194.959 Y196.843 E0.011
G1 X195.037 Y197.789 E0.048
G1 X192.84 Y199.054 E0.126
G1 X192.598 Y198.634 E0.024
G1 X194.906 Y197.312 E0.133
G1 X195.048 Y196.699 E0.032
G1 X195.151 Y196.527 E0.01
G1 X195.292 Y196.411 E0.009
G1 X195.465 Y196.347 E0.009
G1 X195.662 Y196.343 E0.01
G1 X196.255 Y196.529 E0.031
G1 X198.743 Y195.098 E0.143
G1 X198.984 Y195.515 E0.024
G1 X196.615 Y196.88 E0.136
G1 X195.833 Y196.338 E0.048
G1 X195.62 Y196.271 E0.011
G1 X195.392 Y196.276 E0.011
G1 X195.574 Y196.198 E0.01
G1 X195.792 Y196.266 E0.012
G1 X195.993 Y196.406 E0.012
G1 X196.748 Y197.359 E0.06
G1 X199.227 Y195.934 E0.143
G1 X198.566 Y195.201 E0.049
G1 X199.226 Y196.347 E0.066
G1 X199.085 Y196.428 E0.008
G1 X199.267 Y197.022 E0.031
G1 X198.744 Y197.323 E0.031
G1 X198.402 Y196.963 E0.024
G1 X199.355 Y196.412 E0.055
G1 F1800 E-0.5
G0 X198.662 Y196.812 F2400
G0 X199.355 Y196.412 F2400
;rapid-dry
G0 X199.014 Y196.275 F9000
G1 F1800 E0.5
;bead-support-structure
G1 X199.074 Y196.571 F2100 E0.015
G1 X199.166 Y197.637 E0.054
G1 X199.086 Y197.683 E0.004
G1 X198.313 Y198.388 E0.052
G1 X198.095 Y198.158 E0.016
G1 X195.585 Y199.609 E0.145
G1 X195.674 Y199.913 E0.016
G1 X196.105 Y199.892 E0.021
G1 X196.508 Y199.826 E0.021
G1 X197.681 Y199.147 E0.067
G1 F1800 E-0.5
G0 X196.989 Y199.547 F2400
G0 X197.681 Y199.147 F2400
;rapid-dry
G0 X196.179 Y198.056 F9000
G1 F1800 E0.5
;bead-support-structure
G1 X195.115 Y197.319 F2100 E0.065
G1 X194.949 Y197.11 E0.013
G1 X194.883 Y196.942 E0.009
G1 X195.631 Y196.144 E0.055
G1 X195.837 Y196.189 E0.01
G1 X196.112 Y196.537 E0.022
G1 X196.618 Y197.802 E0.068
G1 X196.29 Y197.992 E0.019
G1 X196.157 Y196.683 E0.066
G1 X195.992 Y196.267 E0.022
G1 X196.206 Y196.605 E0.02
G1 X196.096 Y197.093 E0.025
G1 X195.887 Y197.44 E0.02
G1 X195.482 Y197.447 E0.021
G1 X195.008 Y197.3 E0.024
G1 F1800 E-0.5
G0 X195.482 Y197.447 F2400
G0 X195.786 Y197.442 F2400
G0 X195.482 Y197.447 F2400
G0 X195.008 Y197.3 F2400
;rapid-dry
G0 X192.364 Y192.085 F9000
G1 F1800 E0.5
;bead-support-structure
G1 X189.144 Y193.943 F2100 E0.186
G1 X188.66 Y193.664 E0.028
G1 X191.88 Y191.805 E0.185
G1 X191.396 Y191.526 E0.028
G1 X188.177 Y193.384 E0.185
G1 X187.693 Y193.105 E0.028
G1 X190.912 Y191.247 E0.186
G1 F1800 E-0.5
G0 X190.219 Y191.647 F2400
G0 X190.912 Y191.247 F2400
;rapid-dry
G0 X191.295 Y189.606 F9000
G1 F1800 E0.5
;bead-solid_infill
G1 X191.236 Y189.665 F1200 E0.004
G1 X190.877 Y189.458 E0.021
G1 X191.295 Y189.04 E0.029
G1 F1800 E-0.5
;rapid-dry
G0 X148.08 Y136.088 F9000
G1 F1800 E0.5
;bead-solid_infill
G1 X194.572 Y89.596 F1200 E3.28
G1 Y89.031 E0.029
G1 X148.08 Y135.523 E3.28
G1 Y134.957 E0.028
G1 X194.572 Y88.465 E3.28
G1 Y87.899 E0.029
G1 X148.08 Y134.391 E3.28
G1 X148.081 Y133.825 E0.028
G1 X194.572 Y87.333 E3.28
G1 X194.573 Y86.768 E0.029
G1 X148.081 Y133.26 E3.28
G1 Y132.694 E0.028
G1 X194.573 Y86.202 E3.28
G1 Y85.636 E0.029
G1 X148.081 Y132.128 E3.28
G1 Y131.562 E0.028
G1 X194.573 Y85.071 E3.28
G1 Y84.505 E0.028
G1 X148.081 Y130.996 E3.281
G1 Y130.431 E0.028
G1 X194.573 Y83.939 E3.28
G1 Y83.373 E0.028
G1 X147.839 Y130.107 E3.298
G1 X147.273 E0.028
G1 X194.573 Y82.808 E3.337
G1 Y82.242 E0.028
G1 X146.708 Y130.107 E3.378
G1 F1800 E-0.5
;rapid-dry
G0 X112.451 Y119.675 F9000
G1 F1800 E0.5
;bead-solid_infill
G1 X102.02 Y130.105 F1200 E0.735
G1 X102.586 E0.029
G1 X113.789 Y118.902 E0.79
G1 X115.128 Y118.129 E0.077
G1 X103.152 Y130.105 E0.845
G1 X103.623 E0.024
G1 Y130.2 E0.004
G1 X116.466 Y117.356 E0.907
G1 X117.805 Y116.583 E0.077
G1 X103.623 Y130.765 E1
G1 Y131.331 E0.028
G1 X119.143 Y115.81 E1.095
G1 X120.482 Y115.038 E0.078
G1 X103.623 Y131.897 E1.189
G1 Y132.462 E0.028
G1 X121.821 Y114.265 E1.284
G1 X123.159 Y113.492 E0.077
G1 X103.623 Y133.028 E1.379
G1 Y133.594 E0.028
G1 X124.498 Y112.719 E1.473
G1 X125.836 Y111.946 E0.077
G1 X103.623 Y134.159 E1.567
G1 Y134.725 E0.028
G1 X127.175 Y111.173 E1.662
G1 X128.513 Y110.4 E0.077
G1 X103.623 Y135.291 E1.756
G1 Y135.856 E0.029
G1 X129.852 Y109.628 E1.85
G1 X131.19 Y108.855 E0.077
G1 X103.623 Y136.422 E1.945
G1 Y136.988 E0.029
G1 X132.529 Y108.082 E2.039
G1 X133.868 Y107.309 E0.077
G1 X100.541 Y140.635 E2.351
G1 X100.183 Y140.428 E0.021
G1 X103.53 Y137.081 E0.236
G1 X102.964 E0.028
G1 X99.824 Y140.221 E0.222
G1 X99.465 Y140.014 E0.021
G1 X102.398 Y137.081 E0.207
G1 X101.833 E0.028
G1 X99.107 Y139.807 E0.192
G1 X98.748 Y139.6 E0.021
G1 X101.613 Y136.735 E0.202
G1 Y136.169 E0.028
G1 X98.39 Y139.393 E0.228
G1 X98.031 Y139.186 E0.02
G1 X101.613 Y135.604 E0.253
G1 Y135.038 E0.028
G1 X97.672 Y138.979 E0.278
G1 X97.314 Y138.772 E0.021
G1 X101.613 Y134.472 E0.303
G1 Y133.907 E0.029
G1 X96.955 Y138.565 E0.328
G1 X96.596 Y138.357 E0.021
G1 X101.613 Y133.341 E0.354
G1 Y132.775 E0.028
G1 X96.238 Y138.15 E0.379
G1 X95.879 Y137.943 E0.021
G1 X101.613 Y132.21 E0.404
G1 Y131.644 E0.029
G1 X95.521 Y137.736 E0.43
G1 X95.501 Y137.725 E0.001
G1 Y137.19 E0.026
G1 X101.613 Y131.078 E0.432
G1 Y130.512 E0.028
G1 X95.501 Y136.625 E0.431
G1 X95.5 Y136.059 E0.028
G1 X111.112 Y120.448 E1.102
G1 X109.774 Y121.221 E0.077
G1 X95.5 Y135.494 E1.007
G1 Y134.928 E0.028
G1 X108.435 Y121.993 E0.913
G1 X107.096 Y122.766 E0.077
G1 X95.456 Y134.407 E0.821
G1 X95.097 Y134.2 E0.021
G1 X105.758 Y123.539 E0.752
G1 X104.419 Y124.312 E0.077
G1 X94.738 Y133.993 E0.683
G1 X94.379 Y133.786 E0.021
G1 X94.727 Y133.439 E0.025
G1 X95.5 Y132.994 E0.044
G1 Y132.666 E0.016
G1 X103.081 Y125.085 E0.535
G1 X101.742 Y125.858 E0.077
G1 X95.5 Y132.1 E0.441
G1 Y131.534 E0.028
G1 X100.404 Y126.631 E0.346
G1 X99.065 Y127.403 E0.077
G1 X95.5 Y130.969 E0.252
G1 Y130.403 E0.028
G1 X97.727 Y128.176 E0.157
G1 X96.388 Y128.949 E0.077
G1 X95.5 Y129.837 E0.063
G1 F1800 E-0.5
;rapid-dry
G0 X93.286 Y128.511 F9000
G1 F1800 E0.5
;bead-support-structure
G1 Y132.502 F2100 E0.199
G1 F1800 E-0.5
G0 Y131.702 F2400
G0 Y132.502 F2400
;rapid-dry
G0 X92.802 Y132.781 F9000
G1 F1800 E0.5
;bead-support-structure
G1 Y128.79 F2100 E0.199
G1 X92.319 Y129.07 E0.028
G1 X92.318 Y133.059 E0.199
G1 F1800 E-0.5
G0 Y132.259 F2400
G0 Y133.059 F2400
;rapid-dry
G0 Y134.365 F9000
G1 F1800 E0.5
