;4-top-single
;Printer name: Anet (Custom) A8
;Print time: 24m:6s
;Extruder 1 material used: 1237mm
;Extruder 1 material name: ABS 1.75mm
;Extruder 1 filament diameter: 1.75mm
;Extruder 1 nozzle diameter: 0.4mm
;Extruder 1 offset x: 0mm
;Extruder 1 offset y: 0mm
;Extruder 1 offset z: 0mm
;Extruder 1 max temp: 250
;Bed temp: 85
;Layer count: 25
;Width: 220mm
;Depth: 220mm
;Height: 240mm
;Center x: 110mm
;Center y: 110mm
;Center z: 0mm
;Count of bodies: 1
;Fusion version: 2.0.12160
G21
;--------------------------------
;Selected Profile: PET-G Custom 1.75mm, 0.4mm Nozzle
;Selected Printer: Anet (Custom), A8
;--------------------------------
T0
M140 S75
M104 S250 T0
M105
M190 S75
M105
M109 S250 T0
G1 F9000
G90
M83
M155 S5
G28 X0 Y0
G28 Z0
M420 S1
M420 Z10
M900 K0
G1 F9000
G92 E0
G0 X0 Y0 Z10
G92 E0
;--------------------------------
;Layer : 1 of 25
M107
;rapid-leaky
G0 X20 Y20.8 Z0.3 F9000
G1 F1800 E0.5
;bead-prime
G1 X200 F270 E35.921
G1 F1800 E-0.5
;rapid-dry
G0 X153.491 Y82.929 F9000
G1 F1800 E0.5
;bead-skirt/brim
G1 X159.791 Y93.841 F780 E0.629
G1 X123.805 Y114.618 E2.073
G1 X159.791 Y135.394 E2.073
G1 X153.491 Y146.306 E0.628
G1 X64.6 Y94.985 E5.121
G1 X61.6 E0.15
G1 Y87.473 E0.375
G1 X60.31 E0.064
G1 Y75.859 E0.579
G1 X75.49 E0.758
G1 Y86.723 E0.542
G1 X111.205 Y107.343 E2.057
G1 X153.491 Y82.929 E2.436
;rapid-leaky
G0 X153.344 Y83.476 F9000
;bead-skirt/brim
G1 X159.244 Y93.694 F780 E0.589
G1 X123.005 Y114.618 E2.088
G1 X159.244 Y135.54 E2.087
G1 X153.345 Y145.76 E0.589
G1 X64.707 Y94.585 E5.106
G1 X62 E0.135
G1 Y87.073 E0.375
G1 X60.71 E0.064
G1 Y76.259 E0.54
G1 X75.09 E0.717
G1 Y86.954 E0.534
G1 X111.205 Y107.805 E2.081
G1 X153.344 Y83.476 E2.427
;rapid-leaky
G0 X153.198 Y84.022 F9000
;bead-skirt/brim
G1 X158.698 Y93.548 F780 E0.549
G1 X122.205 Y114.618 E2.102
G1 X158.698 Y135.687 E2.102
G1 X153.198 Y145.213 E0.549
G1 X64.814 Y94.185 E5.092
G1 X62.4 E0.12
G1 Y86.673 E0.375
G1 X61.11 E0.064
G1 Y76.659 E0.5
G1 X67.755 E0.332
G1 Y77.407 E0.037
G1 X68.045 E0.014
G1 Y76.659 E0.038
G1 X74.69 E0.331
G1 Y86.673 E0.5
G1 X73.804 E0.044
G1 X111.205 Y108.267 E2.155
G1 X153.198 Y84.022 E2.419
;rapid-leaky
G0 X153.052 Y84.568 F9000
;bead-skirt/brim
G1 X158.152 Y93.402 F780 E0.509
G1 X121.405 Y114.618 E2.117
G1 X158.152 Y135.833 E2.117
G1 X153.052 Y144.667 E0.508
G1 X64.921 Y93.785 E5.077
G1 X62.8 E0.106
G1 Y86.273 E0.375
G1 X61.51 E0.064
G1 Y77.059 E0.46
G1 X67.355 E0.292
G1 Y77.807 E0.037
G1 X68.445 E0.054
G1 Y77.059 E0.038
G1 X74.29 E0.291
G1 Y86.273 E0.46
G1 X73 E0.064
G1 Y86.671 E0.02
G1 X111.205 Y108.729 E2.201
G1 X153.052 Y84.568 E2.411
;rapid-leaky
G0 X152.905 Y85.115 F9000
;bead-skirt/brim
G1 X157.605 Y93.255 F780 E0.469
G1 X120.605 Y114.618 E2.131
G1 X157.605 Y135.98 E2.132
G1 X152.905 Y144.12 E0.469
G1 X65.029 Y93.385 E5.062
G1 X63.2 E0.091
G1 Y85.873 E0.375
G1 X61.91 E0.065
G1 Y77.459 E0.419
G1 X66.955 E0.252
G1 Y78.207 E0.037
G1 X68.845 E0.095
G1 Y77.459 E0.037
G1 X73.89 E0.252
G1 Y85.873 E0.419
G1 X72.6 E0.065
G1 Y86.902 E0.051
G1 X111.205 Y109.191 E2.224
G1 X152.905 Y85.115 E2.402
;rapid-leaky
G0 X152.759 Y85.661 F9000
;bead-skirt/brim
G1 X157.059 Y93.109 F780 E0.429
G1 X119.805 Y114.618 E2.147
G1 X157.059 Y136.126 E2.146
G1 X152.759 Y143.574 E0.429
G1 X65.136 Y92.985 E5.048
G1 X63.6 E0.076
G1 Y85.473 E0.375
G1 X62.31 E0.064
G1 Y77.859 E0.38
G1 X66.555 E0.212
G1 Y78.607 E0.037
G1 X69.245 E0.135
G1 Y77.859 E0.037
G1 X73.49 E0.212
G1 Y85.473 E0.379
G1 X72.2 E0.065
G1 Y87.133 E0.083
G1 X111.205 Y109.653 E2.247
G1 X152.759 Y85.661 E2.394
;rapid-leaky
G0 X152.612 Y86.208 F9000
;bead-skirt/brim
G1 X156.512 Y92.962 F780 E0.389
G1 X119.005 Y114.618 E2.16
G1 X156.512 Y136.273 E2.161
G1 X152.612 Y143.027 E0.389
G1 X65.243 Y92.585 E5.033
G1 X64 E0.062
G1 Y85.073 E0.375
G1 X62.71 E0.065
G1 Y78.259 E0.34
G1 X66.155 E0.171
G1 Y79.007 E0.038
G1 X69.645 E0.174
G1 Y78.259 E0.037
G1 X73.09 E0.172
G1 Y85.073 E0.34
G1 X71.8 E0.064
G1 Y87.364 E0.115
G1 X111.205 Y110.114 E2.27
G1 X152.612 Y86.208 E2.385
;rapid-leaky
G0 X152.466 Y86.754 F9000
;bead-skirt/brim
G1 X155.966 Y92.816 F780 E0.349
G1 X118.205 Y114.618 E2.176
G1 X155.966 Y136.419 E2.175
G1 X152.466 Y142.481 E0.349
G1 X65.35 Y92.185 E5.019
G1 X64.4 E0.047
G1 Y84.673 E0.375
G1 X63.11 E0.064
G1 Y78.659 E0.3
G1 X65.755 E0.132
G1 Y79.407 E0.038
G1 X70.045 E0.214
G1 Y78.659 E0.037
G1 X72.69 E0.132
G1 Y84.673 E0.3
G1 X71.4 E0.064
G1 Y87.595 E0.146
G1 X111.205 Y110.576 E2.293
G1 X152.466 Y86.754 E2.377
;rapid-leaky
G0 X152.32 Y87.3 F9000
;bead-skirt/brim
G1 X155.42 Y92.67 F780 E0.31
G1 X117.405 Y114.618 E2.19
G1 X155.42 Y136.565 E2.19
G1 X152.32 Y141.935 E0.309
G1 X65.457 Y91.785 E5.004
G1 X64.8 E0.033
G1 Y84.273 E0.374
G1 X63.51 E0.065
G1 Y79.059 E0.26
G1 X65.355 E0.092
G1 Y79.807 E0.037
G1 X70.445 E0.254
G1 Y79.059 E0.037
G1 X72.29 E0.093
G1 Y84.273 E0.26
G1 X71 E0.064
G1 Y87.826 E0.177
G1 X111.205 Y111.038 E2.316
G1 X152.32 Y87.3 E2.369
;rapid-leaky
G0 X152.173 Y87.847 F9000
;bead-skirt/brim
G1 X154.873 Y92.523 F780 E0.269
G1 X116.605 Y114.618 E2.205
G1 X154.873 Y136.712 E2.204
G1 X152.173 Y141.388 E0.27
G1 X65.564 Y91.385 E4.989
G1 X65.2 E0.018
G1 Y80.207 E0.558
G1 X70.6 E0.27
G1 Y88.057 E0.391
G1 X111.205 Y111.5 E2.339
G1 X152.173 Y87.847 E2.36
;rapid-leaky
G0 X71.89 Y83.873 F9000
;bead-skirt/brim
G1 X70.845 F780 E0.053
G1 Y79.459 E0.22
G1 X71.89 E0.052
G1 Y83.873 E0.22
;rapid-leaky
G0 X64.955 F9000
;bead-skirt/brim
G1 X63.91 F780 E0.052
G1 Y79.459 E0.22
G1 X64.955 E0.053
G1 Y83.873 E0.22
G1 F1800 E-0.5
;rapid-dry
G0 X65.965 Y80.972 F9000
G1 F1800 E0.5
;bead-perimeter_inner
G1 X69.835 F780 E0.193
G1 Y88.498 E0.375
G1 X111.205 Y112.383 E2.384
G1 X151.893 Y88.892 E2.344
G1 X153.828 Y92.243 E0.193
G1 X115.075 Y114.618 E2.232
G1 X153.828 Y136.992 E2.233
G1 X151.893 Y140.343 E0.193
G1 X65.965 Y90.733 E4.95
G1 Y80.972 E0.487
;rapid-leaky
G0 X65.6 Y80.607 F9000
;bead-perimeter_outer
G1 X70.2 F540 E0.229
G1 Y88.287 E0.384
G1 X111.205 Y111.962 E2.362
G1 X152.027 Y88.393 E2.352
G1 X154.327 Y92.377 E0.229
G1 X115.805 Y114.618 E2.219
G1 X154.327 Y136.858 E2.219
G1 X152.027 Y140.842 E0.23
G1 X65.672 Y90.985 E4.975
G1 X65.6 E0.003
G1 Y80.607 E0.518
;rapid-leaky
G0 X66.74 Y81.292 F9000
;bead-solid_infill
G1 X66.285 Y81.747 F1200 E0.032
G1 Y82.313 E0.028
G1 X67.306 Y81.292 E0.072
G1 X67.872 E0.029
G1 X66.285 Y82.879 E0.112
G1 Y83.445 E0.028
G1 X68.438 Y81.292 E0.152
G1 X69.003 E0.028
G1 X66.285 Y84.01 E0.192
G1 Y84.576 E0.028
G1 X69.515 Y81.346 E0.228
G1 Y81.912 E0.028
G1 X66.285 Y85.142 E0.228
G1 Y85.707 E0.028
G1 X69.515 Y82.477 E0.228
G1 Y83.043 E0.028
G1 X66.285 Y86.273 E0.228
G1 Y86.839 E0.028
G1 X69.515 Y83.609 E0.228
G1 Y84.174 E0.028
G1 X66.285 Y87.404 E0.228
G1 Y87.97 E0.029
G1 X69.515 Y84.74 E0.227
G1 Y85.306 E0.029
G1 X66.285 Y88.536 E0.228
G1 Y89.101 E0.028
G1 X69.515 Y85.871 E0.228
G1 Y86.437 E0.028
G1 X66.285 Y89.667 E0.228
G1 Y90.233 E0.028
G1 X69.515 Y87.003 E0.228
G1 Y87.568 E0.028
G1 X66.444 Y90.64 E0.217
G1 X66.802 Y90.847 E0.02
G1 X69.515 Y88.134 E0.192
G1 Y88.683 E0.027
G1 X69.526 Y88.689 E0.001
G1 X67.161 Y91.054 E0.167
G1 X67.52 Y91.261 E0.02
G1 X69.884 Y88.896 E0.167
G1 X70.243 Y89.103 E0.021
G1 X67.878 Y91.468 E0.167
G1 X68.237 Y91.675 E0.02
G1 X70.602 Y89.31 E0.167
G1 X70.96 Y89.517 E0.021
G1 X68.595 Y91.882 E0.167
G1 X68.954 Y92.089 E0.02
G1 X71.319 Y89.724 E0.167
G1 X71.677 Y89.931 E0.021
G1 X69.313 Y92.296 E0.167
G1 X69.671 Y92.503 E0.02
G1 X72.036 Y90.139 E0.167
G1 X72.395 Y90.346 E0.021
G1 X70.03 Y92.71 E0.167
G1 X70.389 Y92.917 E0.02
G1 X72.753 Y90.553 E0.167
G1 X73.112 Y90.76 E0.021
G1 X70.747 Y93.124 E0.167
G1 X71.106 Y93.331 E0.02
G1 X73.471 Y90.967 E0.167
G1 X73.829 Y91.174 E0.021
G1 X71.464 Y93.539 E0.167
G1 X71.823 Y93.746 E0.02
G1 X74.188 Y91.381 E0.167
G1 X74.546 Y91.588 E0.021
G1 X72.182 Y93.953 E0.167
G1 X72.54 Y94.16 E0.02
G1 X74.905 Y91.795 E0.167
G1 X75.264 Y92.002 E0.021
G1 X72.899 Y94.367 E0.167
G1 X73.258 Y94.574 E0.02
G1 X75.622 Y92.209 E0.167
G1 X75.981 Y92.416 E0.021
G1 X73.616 Y94.781 E0.167
G1 X73.975 Y94.988 E0.021
G1 X76.34 Y92.623 E0.166
G1 X76.698 Y92.83 E0.021
G1 X74.334 Y95.195 E0.167
G1 X74.692 Y95.402 E0.021
G1 X77.057 Y93.037 E0.166
G1 X77.416 Y93.244 E0.021
G1 X75.051 Y95.609 E0.167
G1 X75.409 Y95.816 E0.021
G1 X77.774 Y93.451 E0.166
G1 X78.133 Y93.658 E0.021
G1 X75.768 Y96.023 E0.167
G1 X76.127 Y96.23 E0.021
G1 X78.491 Y93.866 E0.166
G1 X78.85 Y94.073 E0.021
G1 X76.485 Y96.437 E0.167
G1 X76.844 Y96.644 E0.021
G1 X79.209 Y94.28 E0.166
G1 X79.567 Y94.487 E0.021
G1 X77.203 Y96.851 E0.167
G1 X77.561 Y97.058 E0.021
G1 X79.926 Y94.694 E0.166
G1 X80.285 Y94.901 E0.021
G1 X77.92 Y97.266 E0.167
G1 X78.278 Y97.473 E0.021
G1 X80.643 Y95.108 E0.166
G1 X81.002 Y95.315 E0.021
G1 X78.637 Y97.68 E0.167
G1 X78.996 Y97.887 E0.021
G1 X81.36 Y95.522 E0.166
G1 X81.719 Y95.729 E0.021
G1 X79.354 Y98.094 E0.167
G1 X79.713 Y98.301 E0.021
G1 X82.078 Y95.936 E0.166
G1 X82.436 Y96.143 E0.021
G1 X80.072 Y98.508 E0.167
G1 X80.43 Y98.715 E0.021
G1 X82.795 Y96.35 E0.166
G1 X83.154 Y96.557 E0.021
G1 X80.789 Y98.922 E0.167
G1 X81.148 Y99.129 E0.021
G1 X83.512 Y96.764 E0.166
G1 X83.871 Y96.971 E0.021
G1 X81.506 Y99.336 E0.167
G1 X81.865 Y99.543 E0.021
G1 X84.229 Y97.178 E0.166
G1 X84.588 Y97.385 E0.021
G1 X82.223 Y99.75 E0.167
G1 X82.582 Y99.957 E0.021
G1 X84.947 Y97.593 E0.166
G1 X85.305 Y97.8 E0.021
G1 X82.941 Y100.164 E0.167
G1 X83.299 Y100.371 E0.021
G1 X85.664 Y98.007 E0.166
G1 X86.023 Y98.214 E0.021
G1 X83.658 Y100.578 E0.167
G1 X84.017 Y100.785 E0.021
G1 X86.381 Y98.421 E0.166
G1 X86.74 Y98.628 E0.021
G1 X84.375 Y100.993 E0.167
G1 X84.734 Y101.2 E0.021
G1 X87.099 Y98.835 E0.166
G1 X87.457 Y99.042 E0.021
G1 X85.092 Y101.407 E0.167
G1 X85.451 Y101.614 E0.021
G1 X87.816 Y99.249 E0.166
G1 X88.174 Y99.456 E0.021
G1 X85.81 Y101.821 E0.167
G1 X86.168 Y102.028 E0.021
G1 X88.533 Y99.663 E0.166
G1 X88.892 Y99.87 E0.021
G1 X86.527 Y102.235 E0.167
G1 X86.886 Y102.442 E0.021
G1 X89.25 Y100.077 E0.166
G1 X89.609 Y100.284 E0.021
G1 X87.244 Y102.649 E0.167
G1 X87.603 Y102.856 E0.021
G1 X89.968 Y100.491 E0.166
G1 X90.326 Y100.698 E0.021
G1 X87.962 Y103.063 E0.167
G1 X88.32 Y103.27 E0.021
G1 X90.685 Y100.905 E0.166
G1 X91.043 Y101.113 E0.021
G1 X88.679 Y103.477 E0.167
G1 X89.037 Y103.684 E0.021
G1 X91.402 Y101.32 E0.166
G1 X91.761 Y101.527 E0.021
G1 X89.396 Y103.891 E0.167
G1 X89.755 Y104.098 E0.021
G1 X92.119 Y101.734 E0.166
G1 X92.478 Y101.941 E0.021
G1 X90.113 Y104.305 E0.167
G1 X90.472 Y104.512 E0.021
G1 X92.837 Y102.148 E0.166
G1 X93.195 Y102.355 E0.021
G1 X90.831 Y104.719 E0.167
G1 X91.189 Y104.927 E0.021
G1 X93.554 Y102.562 E0.166
G1 X93.912 Y102.769 E0.021
G1 X91.548 Y105.134 E0.167
G1 X91.906 Y105.341 E0.021
G1 X94.271 Y102.976 E0.166
G1 X94.63 Y103.183 E0.021
G1 X92.265 Y105.548 E0.167
G1 X92.624 Y105.755 E0.021
G1 X94.988 Y103.39 E0.166
G1 X95.347 Y103.597 E0.021
G1 X92.982 Y105.962 E0.167
G1 X93.341 Y106.169 E0.021
G1 X95.706 Y103.804 E0.166
G1 X96.064 Y104.011 E0.021
G1 X93.7 Y106.376 E0.167
G1 X94.058 Y106.583 E0.021
G1 X96.423 Y104.218 E0.166
G1 X96.781 Y104.425 E0.021
G1 X94.417 Y106.79 E0.167
G1 X94.776 Y106.997 E0.021
G1 X97.14 Y104.632 E0.166
G1 X97.499 Y104.84 E0.021
G1 X95.134 Y107.204 E0.167
G1 X95.493 Y107.411 E0.021
G1 X97.857 Y105.047 E0.166
G1 X98.216 Y105.254 E0.021
G1 X95.851 Y107.618 E0.167
G1 X96.21 Y107.825 E0.021
G1 X98.575 Y105.461 E0.166
G1 X98.933 Y105.668 E0.021
G1 X96.569 Y108.032 E0.167
G1 X96.927 Y108.239 E0.021
G1 X99.292 Y105.875 E0.166
G1 X99.651 Y106.082 E0.021
G1 X97.286 Y108.446 E0.167
G1 X97.645 Y108.654 E0.02
G1 X100.009 Y106.289 E0.167
G1 X100.368 Y106.496 E0.021
G1 X98.003 Y108.861 E0.167
G1 X98.362 Y109.068 E0.02
G1 X100.726 Y106.703 E0.167
G1 X101.085 Y106.91 E0.021
G1 X98.72 Y109.275 E0.167
G1 X99.079 Y109.482 E0.02
G1 X101.444 Y107.117 E0.167
G1 X101.802 Y107.324 E0.021
G1 X99.438 Y109.689 E0.167
G1 X99.796 Y109.896 E0.02
G1 X102.161 Y107.531 E0.167
G1 X102.52 Y107.738 E0.021
G1 X100.155 Y110.103 E0.167
G1 X100.514 Y110.31 E0.02
G1 X102.878 Y107.945 E0.167
G1 X103.237 Y108.152 E0.021
G1 X100.872 Y110.517 E0.167
G1 X101.231 Y110.724 E0.02
G1 X103.595 Y108.359 E0.167
G1 X103.954 Y108.567 E0.021
G1 X101.59 Y110.931 E0.167
G1 X101.948 Y111.138 E0.02
G1 X104.313 Y108.774 E0.167
G1 X104.671 Y108.981 E0.021
G1 X102.307 Y111.345 E0.167
G1 X102.665 Y111.552 E0.02
G1 X105.03 Y109.188 E0.167
G1 X105.389 Y109.395 E0.021
G1 X103.024 Y111.759 E0.167
G1 X103.383 Y111.966 E0.02
G1 X105.747 Y109.602 E0.167
G1 X106.106 Y109.809 E0.021
G1 X103.741 Y112.173 E0.167
G1 X104.1 Y112.38 E0.02
G1 X106.464 Y110.016 E0.167
G1 X106.823 Y110.223 E0.021
G1 X104.459 Y112.588 E0.167
G1 X104.817 Y112.795 E0.02
G1 X107.182 Y110.43 E0.167
G1 X107.54 Y110.637 E0.021
G1 X105.176 Y113.002 E0.167
G1 X105.534 Y113.209 E0.02
G1 X107.899 Y110.844 E0.167
G1 X108.258 Y111.051 E0.021
G1 X105.893 Y113.416 E0.167
G1 X106.252 Y113.623 E0.02
G1 X108.616 Y111.258 E0.167
G1 X108.975 Y111.465 E0.021
G1 X106.61 Y113.83 E0.167
G1 X106.969 Y114.037 E0.02
G1 X109.334 Y111.672 E0.167
G1 X109.692 Y111.879 E0.021
G1 X107.328 Y114.244 E0.167
G1 X107.686 Y114.451 E0.02
G1 X110.051 Y112.087 E0.167
G1 X110.409 Y112.294 E0.021
G1 X108.045 Y114.658 E0.167
G1 X108.404 Y114.865 E0.02
G1 X110.768 Y112.501 E0.167
G1 X111.127 Y112.708 E0.021
G1 X108.762 Y115.072 E0.167
G1 X109.121 Y115.279 E0.02
G1 X112.251 Y112.149 E0.221
G1 X113.589 Y111.376 E0.077
G1 X109.479 Y115.486 E0.29
G1 X109.838 Y115.693 E0.021
G1 X114.928 Y110.603 E0.359
G1 X116.266 Y109.831 E0.077
G1 X110.197 Y115.9 E0.428
G1 X110.555 Y116.107 E0.021
G1 X117.605 Y109.058 E0.497
G1 X118.943 Y108.285 E0.077
G1 X110.914 Y116.315 E0.567
G1 X111.273 Y116.522 E0.021
G1 X120.282 Y107.512 E0.635
G1 X121.62 Y106.74 E0.077
G1 X111.631 Y116.729 E0.705
G1 X111.99 Y116.936 E0.021
G1 X122.959 Y105.967 E0.774
G1 X124.297 Y105.194 E0.077
G1 X115.472 Y114.019 E0.622
G1 X114.435 Y114.618 E0.06
G1 X114.713 Y114.778 E0.016
G1 X112.348 Y117.143 E0.167
G1 X112.707 Y117.35 E0.021
G1 X115.071 Y114.985 E0.167
G1 X115.43 Y115.192 E0.02
G1 X113.066 Y117.557 E0.167
G1 X113.424 Y117.764 E0.021
G1 X115.789 Y115.4 E0.166
G1 X116.147 Y115.607 E0.021
G1 X113.783 Y117.971 E0.167
G1 X114.142 Y118.178 E0.021
G1 X116.506 Y115.814 E0.166
G1 X116.865 Y116.021 E0.021
G1 X114.5 Y118.385 E0.167
G1 X114.859 Y118.592 E0.021
G1 X117.223 Y116.228 E0.166
G1 X117.582 Y116.435 E0.021
G1 X115.217 Y118.799 E0.167
G1 X115.576 Y119.006 E0.021
G1 X117.94 Y116.642 E0.166
G1 X118.299 Y116.849 E0.021
G1 X115.935 Y119.213 E0.167
G1 X116.293 Y119.42 E0.02
G1 X118.658 Y117.056 E0.167
G1 X119.016 Y117.263 E0.021
G1 X116.652 Y119.627 E0.167
G1 X117.011 Y119.834 E0.02
G1 X119.375 Y117.47 E0.167
G1 X119.734 Y117.677 E0.021
G1 X117.369 Y120.041 E0.167
G1 X117.728 Y120.249 E0.02
G1 X120.092 Y117.884 E0.167
G1 X120.451 Y118.091 E0.021
G1 X118.087 Y120.456 E0.167
G1 X118.445 Y120.663 E0.02
G1 X120.81 Y118.298 E0.167
G1 X121.168 Y118.505 E0.021
G1 X118.804 Y120.87 E0.167
G1 X119.162 Y121.077 E0.02
G1 X121.527 Y118.712 E0.167
G1 X121.885 Y118.919 E0.021
G1 X119.521 Y121.284 E0.167
G1 X119.88 Y121.491 E0.02
G1 X122.244 Y119.127 E0.167
G1 X122.603 Y119.334 E0.021
G1 X120.238 Y121.698 E0.167
G1 X120.597 Y121.905 E0.02
G1 X122.961 Y119.541 E0.167
G1 X123.32 Y119.748 E0.021
G1 X120.956 Y122.112 E0.166
G1 X121.314 Y122.319 E0.021
G1 X123.679 Y119.955 E0.167
G1 X124.037 Y120.162 E0.021
G1 X121.673 Y122.526 E0.166
G1 X122.031 Y122.733 E0.021
G1 X124.396 Y120.369 E0.167
G1 X124.754 Y120.576 E0.021
G1 X122.39 Y122.94 E0.166
G1 X122.749 Y123.147 E0.021
G1 X125.113 Y120.783 E0.167
G1 X125.472 Y120.99 E0.021
G1 X123.107 Y123.354 E0.166
G1 X123.466 Y123.561 E0.021
G1 X125.83 Y121.197 E0.167
G1 X126.189 Y121.404 E0.021
G1 X123.825 Y123.768 E0.166
G1 X124.183 Y123.976 E0.021
G1 X126.548 Y121.611 E0.167
G1 X126.906 Y121.818 E0.02
G1 X124.542 Y124.183 E0.167
G1 X124.901 Y124.39 E0.021
G1 X127.265 Y122.025 E0.167
G1 X127.624 Y122.232 E0.02
G1 X125.259 Y124.597 E0.167
G1 X125.618 Y124.804 E0.021
G1 X127.982 Y122.439 E0.167
G1 X128.341 Y122.646 E0.02
G1 X125.976 Y125.011 E0.167
G1 X126.335 Y125.218 E0.021
G1 X128.699 Y122.853 E0.167
G1 X129.058 Y123.061 E0.02
G1 X126.694 Y125.425 E0.167
G1 X127.052 Y125.632 E0.021
G1 X129.417 Y123.268 E0.167
G1 X129.775 Y123.475 E0.02
G1 X127.411 Y125.839 E0.167
G1 X127.77 Y126.046 E0.021
G1 X130.134 Y123.682 E0.167
G1 X130.493 Y123.889 E0.02
G1 X128.128 Y126.253 E0.167
G1 X128.487 Y126.46 E0.021
G1 X130.851 Y124.096 E0.167
G1 X131.21 Y124.303 E0.02
G1 X128.845 Y126.667 E0.167
G1 X129.204 Y126.874 E0.021
G1 X131.569 Y124.51 E0.167
G1 X131.927 Y124.717 E0.02
G1 X129.563 Y127.081 E0.167
G1 X129.921 Y127.288 E0.021
G1 X132.286 Y124.924 E0.167
G1 X132.644 Y125.131 E0.02
G1 X130.28 Y127.495 E0.167
G1 X130.639 Y127.702 E0.021
G1 X133.003 Y125.338 E0.166
G1 X133.362 Y125.545 E0.021
G1 X130.997 Y127.91 E0.167
G1 X131.356 Y128.117 E0.021
G1 X133.72 Y125.752 E0.166
G1 X134.079 Y125.959 E0.021
G1 X131.715 Y128.324 E0.167
G1 X132.073 Y128.531 E0.021
G1 X134.438 Y126.166 E0.166
G1 X134.796 Y126.373 E0.021
G1 X132.432 Y128.738 E0.167
G1 X132.79 Y128.945 E0.021
G1 X135.155 Y126.58 E0.166
G1 X135.513 Y126.787 E0.021
G1 X133.149 Y129.152 E0.167
G1 X133.508 Y129.359 E0.02
G1 X135.872 Y126.995 E0.167
G1 X136.231 Y127.202 E0.021
G1 X133.866 Y129.566 E0.167
G1 X134.225 Y129.773 E0.02
G1 X136.589 Y127.409 E0.167
G1 X136.948 Y127.616 E0.021
G1 X134.584 Y129.98 E0.167
G1 X134.942 Y130.187 E0.02
G1 X137.307 Y127.823 E0.167
G1 X137.665 Y128.03 E0.021
G1 X135.301 Y130.394 E0.167
G1 X135.659 Y130.601 E0.02
G1 X138.024 Y128.237 E0.167
G1 X138.383 Y128.444 E0.021
G1 X136.018 Y130.808 E0.167
G1 X136.377 Y131.015 E0.02
G1 X138.741 Y128.651 E0.167
G1 X139.1 Y128.858 E0.021
G1 X136.735 Y131.222 E0.167
G1 X137.094 Y131.429 E0.02
G1 X139.458 Y129.065 E0.167
G1 X139.817 Y129.272 E0.021
G1 X137.453 Y131.637 E0.167
G1 X137.811 Y131.844 E0.02
G1 X140.176 Y129.479 E0.167
G1 X140.534 Y129.686 E0.021
G1 X138.17 Y132.051 E0.167
G1 X138.529 Y132.258 E0.02
G1 X140.893 Y129.893 E0.167
G1 X141.252 Y130.1 E0.021
G1 X138.887 Y132.465 E0.167
G1 X139.246 Y132.672 E0.02
G1 X141.61 Y130.307 E0.167
G1 X141.969 Y130.514 E0.021
G1 X139.604 Y132.879 E0.167
G1 X139.963 Y133.086 E0.02
G1 X142.327 Y130.721 E0.167
G1 X142.686 Y130.929 E0.021
G1 X140.322 Y133.293 E0.166
G1 X140.68 Y133.5 E0.021
G1 X143.045 Y131.136 E0.167
G1 X143.403 Y131.343 E0.021
G1 X141.039 Y133.707 E0.166
G1 X141.398 Y133.914 E0.021
G1 X143.762 Y131.55 E0.167
G1 X144.121 Y131.757 E0.021
G1 X141.756 Y134.121 E0.166
G1 X142.115 Y134.328 E0.021
G1 X144.479 Y131.964 E0.167
G1 X144.838 Y132.171 E0.021
G1 X142.473 Y134.535 E0.166
G1 X142.832 Y134.742 E0.021
G1 X145.197 Y132.378 E0.167
G1 X145.555 Y132.585 E0.021
G1 X143.191 Y134.949 E0.166
G1 X143.549 Y135.156 E0.021
G1 X145.914 Y132.792 E0.167
G1 X146.272 Y132.999 E0.02
G1 X143.908 Y135.363 E0.167
G1 X144.267 Y135.571 E0.021
G1 X146.631 Y133.206 E0.167
G1 X146.99 Y133.413 E0.02
G1 X144.625 Y135.778 E0.167
G1 X144.984 Y135.985 E0.021
G1 X147.348 Y133.62 E0.167
G1 X147.707 Y133.827 E0.02
G1 X145.343 Y136.192 E0.167
G1 X145.701 Y136.399 E0.021
G1 X148.066 Y134.034 E0.167
G1 X148.424 Y134.241 E0.02
G1 X146.06 Y136.606 E0.167
G1 X146.418 Y136.813 E0.021
G1 X148.783 Y134.448 E0.167
G1 X149.142 Y134.655 E0.02
G1 X146.777 Y137.02 E0.167
G1 X147.136 Y137.227 E0.021
G1 X149.5 Y134.863 E0.167
G1 X149.859 Y135.07 E0.02
G1 X147.494 Y137.434 E0.167
G1 X147.853 Y137.641 E0.021
G1 X150.217 Y135.277 E0.167
G1 X150.576 Y135.484 E0.02
G1 X148.212 Y137.848 E0.167
G1 X148.57 Y138.055 E0.021
G1 X150.935 Y135.691 E0.167
G1 X151.293 Y135.898 E0.02
G1 X148.929 Y138.262 E0.167
G1 X149.287 Y138.469 E0.021
G1 X151.652 Y136.105 E0.167
G1 X152.011 Y136.312 E0.02
G1 X149.646 Y138.676 E0.167
G1 X150.005 Y138.883 E0.021
G1 X152.369 Y136.519 E0.167
G1 X152.728 Y136.726 E0.02
G1 X150.363 Y139.09 E0.167
G1 X150.722 Y139.298 E0.021
G1 X153.086 Y136.933 E0.167
G1 X153.391 Y137.109 E0.017
G1 X153.275 Y137.311 E0.012
G1 X151.081 Y139.505 E0.154
G1 X151.439 Y139.712 E0.021
G1 X152.502 Y138.649 E0.075
G1 F1800 E-0.5
;rapid-dry
G0 X125.636 Y104.421 F9000
G1 F1800 E0.5
;bead-solid_infill
G1 X116.81 Y113.247 F1200 E0.623
G1 X118.149 Y112.474 E0.077
G1 X126.974 Y103.649 E0.623
G1 X128.312 Y102.876 E0.077
G1 X119.487 Y111.701 E0.622
G1 X120.826 Y110.928 E0.077
G1 X129.651 Y102.103 E0.623
G1 X130.989 Y101.33 E0.077
G1 X122.164 Y110.155 E0.623
G1 X123.503 Y109.383 E0.077
G1 X132.328 Y100.558 E0.623
G1 X133.666 Y99.785 E0.077
G1 X124.841 Y108.61 E0.622
G1 X126.18 Y107.837 E0.078
G1 X135.005 Y99.012 E0.622
G1 X136.343 Y98.239 E0.077
G1 X127.518 Y107.064 E0.623
G1 X128.857 Y106.291 E0.077
G1 X137.682 Y97.466 E0.623
G1 X139.02 Y96.694 E0.077
G1 X130.195 Y105.519 E0.622
G1 X131.534 Y104.746 E0.078
G1 X140.358 Y95.921 E0.622
G1 X141.697 Y95.148 E0.077
G1 X132.872 Y103.973 E0.623
G1 X134.21 Y103.2 E0.077
G1 X143.035 Y94.375 E0.623
G1 X144.374 Y93.603 E0.077
G1 X135.549 Y102.428 E0.622
G1 X136.887 Y101.655 E0.078
G1 X145.712 Y92.83 E0.622
G1 X147.051 Y92.057 E0.077
G1 X138.226 Y100.882 E0.623
G1 X139.564 Y100.109 E0.077
G1 X148.389 Y91.284 E0.623
G1 X149.728 Y90.512 E0.077
G1 X140.903 Y99.336 E0.622
G1 X142.029 Y98.686 E0.065
G1 X142.241 Y98.564 E0.013
G1 X151.066 Y89.739 E0.622
G1 X151.776 Y89.329 E0.041
G1 X151.873 Y89.497 E0.01
G1 X143.58 Y97.791 E0.585
G1 X144.918 Y97.018 E0.077
G1 X152.08 Y89.856 E0.505
G1 X152.287 Y90.215 E0.021
G1 X146.257 Y96.245 E0.425
G1 X147.595 Y95.472 E0.078
G1 X152.494 Y90.573 E0.345
G1 X152.702 Y90.932 E0.021
G1 X148.934 Y94.7 E0.266
G1 X150.272 Y93.927 E0.077
G1 X152.909 Y91.29 E0.186
G1 X153.116 Y91.649 E0.021
G1 X151.611 Y93.154 E0.106
G1 X152.949 Y92.381 E0.077
G1 X153.323 Y92.008 E0.026
G1 F1800 E-0.5
;Layer : 2 of 25
M106 S255
;rapid-dry
G0 X153.828 Y92.243 Z0.5 F9000
G1 F1800 E0.5
;bead-perimeter_inner
G1 X115.075 Y114.618 F1560 E1.489
G1 X153.828 Y136.992 E1.488
G1 X151.893 Y140.343 E0.129
G1 X65.965 Y90.733 E3.3
G1 Y80.595 E0.337
G1 X69.835 E0.129
G1 Y88.498 E0.262
G1 X111.205 Y112.383 E1.589
G1 X151.893 Y88.892 E1.563
G1 X153.828 Y92.243 E0.129
;rapid-leaky
G0 X154.327 Y92.377 F9000
;bead-perimeter_outer
G1 X115.805 Y114.618 F1080 E1.479
G1 X154.327 Y136.858 E1.48
G1 X152.027 Y140.842 E0.153
G1 X65.672 Y90.985 E3.316
G1 X65.6 E0.002
G1 Y80.23 E0.358
G1 X70.2 E0.153
G1 Y88.287 E0.268
G1 X111.205 Y111.962 E1.575
G1 X152.027 Y88.393 E1.568
G1 X154.327 Y92.377 E0.153
;rapid-leaky
G0 X152.257 Y90.162 F9000
;bead-solid_infill
G1 X151.553 Y89.458 F2400 E0.033
G1 X151.194 Y89.665 E0.014
G1 X153.03 Y91.501 E0.086
G1 X153.391 Y92.126 E0.024
G1 X153.2 Y92.236 E0.007
G1 X150.835 Y89.872 E0.112
G1 X150.477 Y90.079 E0.013
G1 X152.841 Y92.444 E0.112
G1 X152.483 Y92.651 E0.013
G1 X150.118 Y90.286 E0.112
G1 X149.76 Y90.493 E0.013
G1 X152.124 Y92.858 E0.112
G1 X151.765 Y93.065 E0.013
G1 X149.401 Y90.7 E0.112
G1 X149.042 Y90.907 E0.013
G1 X151.407 Y93.272 E0.112
G1 X151.048 Y93.479 E0.013
G1 X148.684 Y91.114 E0.112
G1 X148.325 Y91.321 E0.013
G1 X150.69 Y93.686 E0.112
G1 X150.331 Y93.893 E0.013
G1 X147.966 Y91.528 E0.112
G1 X147.608 Y91.735 E0.013
G1 X149.972 Y94.1 E0.112
G1 X149.614 Y94.307 E0.013
G1 X147.249 Y91.943 E0.111
G1 X146.891 Y92.15 E0.014
G1 X149.255 Y94.514 E0.111
G1 X148.896 Y94.721 E0.014
G1 X146.532 Y92.357 E0.111
G1 X146.173 Y92.564 E0.014
G1 X148.538 Y94.928 E0.111
G1 X148.179 Y95.135 E0.014
G1 X145.815 Y92.771 E0.111
G1 X145.456 Y92.978 E0.014
G1 X147.821 Y95.342 E0.111
G1 X147.462 Y95.549 E0.014
G1 X145.097 Y93.185 E0.111
G1 X144.739 Y93.392 E0.014
G1 X147.103 Y95.756 E0.111
G1 X146.745 Y95.964 E0.014
G1 X144.38 Y93.599 E0.111
G1 X144.022 Y93.806 E0.014
G1 X146.386 Y96.171 E0.111
G1 X146.027 Y96.378 E0.014
G1 X143.663 Y94.013 E0.111
G1 X143.304 Y94.22 E0.014
G1 X145.669 Y96.585 E0.111
G1 X145.31 Y96.792 E0.014
G1 X142.946 Y94.427 E0.111
G1 X142.587 Y94.634 E0.014
G1 X144.952 Y96.999 E0.111
G1 X144.593 Y97.206 E0.014
G1 X142.228 Y94.841 E0.111
G1 X141.87 Y95.048 E0.014
G1 X144.234 Y97.413 E0.111
G1 X143.876 Y97.62 E0.014
G1 X141.511 Y95.255 E0.111
G1 X141.153 Y95.463 E0.014
G1 X143.517 Y97.827 E0.111
G1 X143.158 Y98.034 E0.014
G1 X140.794 Y95.67 E0.111
G1 X140.435 Y95.877 E0.014
G1 X142.8 Y98.241 E0.111
G1 X142.441 Y98.448 E0.014
G1 X140.077 Y96.084 E0.111
G1 X139.718 Y96.291 E0.014
G1 X142.083 Y98.655 E0.111
G1 X142.029 Y98.686 E0.002
G1 X141.724 Y98.862 E0.012
G1 X139.359 Y96.498 E0.111
G1 X139.001 Y96.705 E0.014
G1 X141.365 Y99.069 E0.111
G1 X141.007 Y99.276 E0.014
G1 X138.642 Y96.912 E0.111
G1 X138.283 Y97.119 E0.014
G1 X140.648 Y99.484 E0.111
G1 X140.289 Y99.691 E0.014
G1 X137.925 Y97.326 E0.111
G1 X137.566 Y97.533 E0.014
G1 X139.931 Y99.898 E0.111
G1 X139.572 Y100.105 E0.014
G1 X137.208 Y97.74 E0.111
G1 X136.849 Y97.947 E0.014
G1 X139.214 Y100.312 E0.111
G1 X138.855 Y100.519 E0.014
G1 X136.49 Y98.154 E0.111
G1 X136.132 Y98.361 E0.014
G1 X138.496 Y100.726 E0.111
G1 X138.138 Y100.933 E0.014
G1 X135.773 Y98.568 E0.111
G1 X135.414 Y98.775 E0.014
G1 X137.779 Y101.14 E0.111
G1 X137.42 Y101.347 E0.014
G1 X135.056 Y98.982 E0.111
G1 X134.697 Y99.19 E0.014
G1 X137.062 Y101.554 E0.111
G1 X136.703 Y101.761 E0.014
G1 X134.339 Y99.397 E0.111
G1 X133.98 Y99.604 E0.014
G1 X136.344 Y101.968 E0.111
G1 X135.986 Y102.175 E0.014
G1 X133.621 Y99.811 E0.111
G1 X133.263 Y100.018 E0.014
G1 X135.627 Y102.382 E0.111
G1 X135.269 Y102.589 E0.014
G1 X132.904 Y100.225 E0.111
G1 X132.545 Y100.432 E0.014
G1 X134.91 Y102.796 E0.111
G1 X134.551 Y103.004 E0.014
G1 X132.187 Y100.639 E0.111
G1 X131.828 Y100.846 E0.014
G1 X134.193 Y103.211 E0.111
G1 X133.834 Y103.418 E0.014
G1 X131.47 Y101.053 E0.111
G1 X131.111 Y101.26 E0.014
G1 X133.475 Y103.625 E0.111
G1 X133.117 Y103.832 E0.014
G1 X130.752 Y101.467 E0.111
G1 X130.394 Y101.674 E0.014
G1 X132.758 Y104.039 E0.111
G1 X132.4 Y104.246 E0.014
G1 X130.035 Y101.881 E0.111
G1 X129.676 Y102.088 E0.014
G1 X132.041 Y104.453 E0.111
G1 X131.682 Y104.66 E0.014
G1 X129.318 Y102.295 E0.111
G1 X128.959 Y102.502 E0.014
G1 X131.324 Y104.867 E0.111
G1 X130.965 Y105.074 E0.014
G1 X128.601 Y102.709 E0.111
G1 X128.242 Y102.917 E0.014
G1 X130.606 Y105.281 E0.111
G1 X130.248 Y105.488 E0.014
G1 X127.883 Y103.124 E0.111
G1 X127.525 Y103.331 E0.014
G1 X129.889 Y105.695 E0.111
G1 X129.531 Y105.902 E0.014
G1 X127.166 Y103.538 E0.111
G1 X126.807 Y103.745 E0.014
G1 X129.172 Y106.109 E0.111
G1 X128.813 Y106.316 E0.014
G1 X126.449 Y103.952 E0.111
G1 X126.09 Y104.159 E0.014
G1 X128.455 Y106.523 E0.111
G1 X128.096 Y106.731 E0.014
G1 X125.731 Y104.366 E0.111
G1 X125.373 Y104.573 E0.014
G1 X127.737 Y106.938 E0.111
G1 X127.379 Y107.145 E0.014
G1 X125.014 Y104.78 E0.111
G1 X124.656 Y104.987 E0.014
G1 X127.02 Y107.352 E0.111
G1 X126.662 Y107.559 E0.014
G1 X124.297 Y105.194 E0.111
G1 X123.938 Y105.401 E0.014
G1 X126.303 Y107.766 E0.111
G1 X125.944 Y107.973 E0.014
G1 X123.58 Y105.608 E0.111
;rapid-leaky
G0 X125.586 Y108.18 F9000
;bead-solid_infill
G1 X123.221 Y105.815 F2400 E0.111
G1 X122.862 Y106.022 E0.014
G1 X125.227 Y108.387 E0.111
G1 X124.868 Y108.594 E0.014
G1 X122.504 Y106.229 E0.111
G1 X122.145 Y106.437 E0.014
G1 X124.51 Y108.801 E0.111
G1 X124.151 Y109.008 E0.014
G1 X121.787 Y106.644 E0.111
G1 X121.428 Y106.851 E0.014
G1 X123.793 Y109.215 E0.111
G1 X123.434 Y109.422 E0.014
G1 X121.069 Y107.058 E0.111
G1 X120.711 Y107.265 E0.014
G1 X123.075 Y109.629 E0.111
G1 X122.717 Y109.836 E0.014
G1 X120.352 Y107.472 E0.111
G1 X119.993 Y107.679 E0.014
G1 X122.358 Y110.043 E0.111
G1 X121.999 Y110.251 E0.014
G1 X119.635 Y107.886 E0.111
G1 X119.276 Y108.093 E0.014
G1 X121.641 Y110.458 E0.111
G1 X121.282 Y110.665 E0.014
G1 X118.918 Y108.3 E0.111
G1 X118.559 Y108.507 E0.014
G1 X120.924 Y110.872 E0.111
G1 X120.565 Y111.079 E0.014
G1 X118.2 Y108.714 E0.111
G1 X117.842 Y108.921 E0.014
G1 X120.206 Y111.286 E0.111
G1 X119.848 Y111.493 E0.014
G1 X117.483 Y109.128 E0.111
G1 X117.124 Y109.335 E0.014
G1 X119.489 Y111.7 E0.111
G1 X119.13 Y111.907 E0.014
G1 X116.766 Y109.542 E0.111
G1 X116.407 Y109.749 E0.014
G1 X118.772 Y112.114 E0.111
G1 X118.413 Y112.321 E0.014
G1 X116.049 Y109.956 E0.111
G1 X115.69 Y110.164 E0.014
G1 X118.055 Y112.528 E0.111
G1 X117.696 Y112.735 E0.014
G1 X115.331 Y110.371 E0.111
G1 X114.973 Y110.578 E0.014
G1 X117.337 Y112.942 E0.111
G1 X116.979 Y113.149 E0.014
G1 X114.614 Y110.785 E0.111
G1 X114.255 Y110.992 E0.014
G1 X116.62 Y113.356 E0.111
G1 X116.261 Y113.563 E0.014
G1 X113.897 Y111.199 E0.111
G1 X113.538 Y111.406 E0.014
G1 X115.903 Y113.771 E0.111
G1 X115.544 Y113.978 E0.014
G1 X113.179 Y111.613 E0.111
G1 X112.821 Y111.82 E0.014
G1 X115.186 Y114.185 E0.111
G1 X114.827 Y114.392 E0.014
G1 X112.462 Y112.027 E0.111
G1 F1800 E-0.5
;rapid-dry
G0 X153.373 Y137.098 F9000
G1 F1800 E0.5
;bead-solid_infill
G1 X153.388 Y137.114 F2400 E0.001
G1 X153.181 Y137.472 E0.014
G1 X152.034 Y136.326 E0.054
G1 X150.696 Y135.553 E0.051
G1 X152.974 Y137.831 E0.107
G1 X152.767 Y138.19 E0.014
G1 X149.357 Y134.78 E0.16
G1 X148.019 Y134.007 E0.052
G1 X152.56 Y138.548 E0.213
G1 X152.353 Y138.907 E0.014
G1 X146.681 Y133.235 E0.267
G1 X145.342 Y132.462 E0.051
G1 X152.146 Y139.266 E0.32
G1 X151.939 Y139.624 E0.014
G1 X144.004 Y131.689 E0.374
G1 X142.665 Y130.917 E0.051
G1 X151.489 Y139.741 E0.415
G1 X150.151 Y138.968 E0.051
G1 X141.327 Y130.144 E0.415
G1 X139.989 Y129.371 E0.052
G1 X148.813 Y138.195 E0.415
G1 X147.474 Y137.422 E0.051
G1 X138.65 Y128.598 E0.415
G1 X137.312 Y127.826 E0.052
G1 X146.136 Y136.65 E0.415
G1 X144.797 Y135.877 E0.051
G1 X135.973 Y127.053 E0.415
G1 X134.635 Y126.28 E0.052
G1 X143.459 Y135.104 E0.415
G1 X142.121 Y134.332 E0.051
G1 X133.297 Y125.508 E0.415
G1 X131.958 Y124.735 E0.052
G1 X140.782 Y133.559 E0.415
G1 X139.444 Y132.786 E0.051
G1 X130.62 Y123.962 E0.415
G1 X129.282 Y123.19 E0.051
G1 X138.105 Y132.013 E0.415
G1 X136.767 Y131.241 E0.052
G1 X127.943 Y122.417 E0.415
G1 X126.605 Y121.644 E0.051
G1 X135.429 Y130.468 E0.415
G1 X134.09 Y129.695 E0.052
G1 X125.266 Y120.871 E0.415
G1 X123.928 Y120.099 E0.051
G1 X132.752 Y128.922 E0.415
G1 X131.413 Y128.15 E0.052
G1 X122.59 Y119.326 E0.415
G1 X121.251 Y118.553 E0.051
G1 X130.075 Y127.377 E0.415
G1 X128.737 Y126.604 E0.052
G1 X119.913 Y117.781 E0.415
G1 X118.574 Y117.008 E0.051
G1 X127.398 Y125.832 E0.415
G1 X126.06 Y125.059 E0.051
G1 X117.236 Y116.235 E0.415
G1 X115.898 Y115.462 E0.052
G1 X124.721 Y124.286 E0.415
G1 X123.383 Y123.513 E0.051
G1 X114.559 Y114.69 E0.415
G1 X114.435 Y114.618 E0.005
G1 X114.468 Y114.599 E0.001
G1 X112.104 Y112.234 E0.112
G1 X111.745 Y112.441 E0.013
G1 X122.044 Y122.741 E0.485
G1 X120.706 Y121.968 E0.051
G1 X111.386 Y112.648 E0.439
G1 X111.205 Y112.753 E0.007
G1 X110.543 Y112.371 E0.025
G1 X119.368 Y121.195 E0.415
G1 X118.029 Y120.423 E0.051
G1 X109.205 Y111.598 E0.416
G1 X107.866 Y110.825 E0.051
G1 X116.691 Y119.65 E0.415
G1 X115.352 Y118.877 E0.051
G1 X106.528 Y110.053 E0.416
G1 X105.19 Y109.28 E0.051
G1 X114.014 Y118.104 E0.415
G1 X112.676 Y117.332 E0.051
G1 X103.851 Y108.507 E0.415
G1 X102.513 Y107.734 E0.052
G1 X111.337 Y116.559 E0.415
G1 X109.999 Y115.786 E0.051
G1 X101.174 Y106.962 E0.415
G1 X99.836 Y106.189 E0.052
G1 X108.66 Y115.013 E0.415
G1 X107.322 Y114.241 E0.051
G1 X98.497 Y105.416 E0.415
G1 X97.159 Y104.643 E0.052
G1 X105.984 Y113.468 E0.415
G1 X104.645 Y112.695 E0.051
G1 X95.82 Y103.871 E0.415
G1 X94.482 Y103.098 E0.052
G1 X103.307 Y111.923 E0.415
G1 X101.968 Y111.15 E0.051
G1 X93.144 Y102.325 E0.415
G1 X91.805 Y101.552 E0.052
G1 X100.63 Y110.377 E0.415
G1 X99.292 Y109.604 E0.051
G1 X90.467 Y100.78 E0.415
G1 X89.128 Y100.007 E0.052
G1 X97.953 Y108.832 E0.415
G1 X96.615 Y108.059 E0.051
G1 X87.79 Y99.234 E0.415
G1 X86.451 Y98.461 E0.052
G1 X95.276 Y107.286 E0.415
G1 X93.938 Y106.513 E0.051
G1 X85.113 Y97.689 E0.415
G1 X83.775 Y96.916 E0.052
G1 X92.6 Y105.741 E0.415
G1 X91.261 Y104.968 E0.051
G1 X82.436 Y96.143 E0.415
G1 X81.098 Y95.37 E0.052
G1 X89.923 Y104.195 E0.415
G1 X88.584 Y103.423 E0.051
G1 X79.759 Y94.597 E0.415
G1 X78.421 Y93.825 E0.052
G1 X87.246 Y102.65 E0.415
G1 X85.907 Y101.877 E0.051
G1 X77.082 Y93.052 E0.415
G1 X75.744 Y92.279 E0.052
G1 X84.569 Y101.104 E0.415
G1 X83.231 Y100.332 E0.051
G1 X74.405 Y91.506 E0.415
G1 X73.067 Y90.734 E0.052
G1 X81.892 Y99.559 E0.415
G1 X80.554 Y98.786 E0.051
G1 X71.729 Y89.961 E0.415
G1 X70.39 Y89.188 E0.052
G1 X79.215 Y98.014 E0.415
G1 F1800 E-0.5
;rapid-dry
G0 X67.17 Y91.059 F9000
G1 F1800 E0.5
;bead-solid_infill
G1 X66.285 Y90.174 F2400 E0.042
G1 Y89.609 E0.018
G1 X68.508 Y91.832 E0.105
G1 X69.847 Y92.604 E0.051
G1 X66.285 Y89.043 E0.168
G1 Y88.477 E0.019
G1 X71.185 Y93.377 E0.23
G1 X72.523 Y94.15 E0.052
G1 X66.285 Y87.912 E0.293
G1 Y87.346 E0.019
G1 X73.862 Y94.923 E0.356
G1 X75.2 Y95.695 E0.052
G1 X66.285 Y86.78 E0.419
G1 Y86.214 E0.019
G1 X76.539 Y96.468 E0.482
G1 X77.877 Y97.241 E0.052
G1 X66.285 Y85.649 E0.545
G1 Y85.083 E0.019
G1 X69.515 Y88.313 E0.151
G1 Y87.747 E0.019
G1 X66.285 Y84.517 E0.152
G1 Y83.952 E0.019
G1 X69.515 Y87.182 E0.152
G1 Y86.616 E0.019
G1 X66.285 Y83.386 E0.152
G1 Y82.82 E0.019
G1 X69.515 Y86.05 E0.151
G1 Y85.485 E0.019
G1 X66.285 Y82.255 E0.152
G1 Y81.689 E0.019
G1 X69.515 Y84.919 E0.152
G1 Y84.353 E0.019
G1 X66.285 Y81.123 E0.152
G1 Y80.915 E0.007
G1 X66.642 E0.012
G1 X69.515 Y83.788 E0.135
G1 Y83.222 E0.018
G1 X67.208 Y80.915 E0.109
G1 X67.774 E0.019
G1 X69.515 Y82.656 E0.082
G1 Y82.091 E0.019
G1 X68.339 Y80.915 E0.055
G1 X68.905 E0.019
G1 X69.515 Y81.525 E0.028
G1 Y80.959 E0.019
G1 X69.471 Y80.915 E0.002
G1 F1800 E-0.5
;Layer : 3 of 25
;rapid-leaky
G0 X69.835 Y80.327 Z0.7 F9000
G1 F1800 E0.5
;bead-perimeter_inner
G1 Y88.498 F1560 E0.272
G1 X111.205 Y112.383 E1.589
G1 X151.893 Y88.892 E1.562
G1 X153.828 Y92.243 E0.129
G1 X115.075 Y114.618 E1.489
G1 X153.828 Y136.992 E1.488
G1 X151.893 Y140.343 E0.129
G1 X65.965 Y90.733 E3.3
G1 Y80.327 E0.346
G1 X69.835 E0.129
;rapid-leaky
G0 X70.2 Y79.962 F9000
;bead-perimeter_outer
G1 Y88.287 F1080 E0.276
G1 X111.205 Y111.962 E1.575
G1 X152.027 Y88.393 E1.568
G1 X154.327 Y92.377 E0.153
G1 X115.805 Y114.618 E1.479
G1 X154.327 Y136.858 E1.48
G1 X152.027 Y140.842 E0.153
G1 X65.672 Y90.985 E3.316
G1 X65.6 E0.003
G1 Y79.962 E0.366
G1 X70.2 E0.153
G1 F1800 E-0.5
;rapid-dry
G0 X66.285 Y81.182 F9000
G1 F1800 E0.5
;bead-solid_infill
G1 X66.82 Y80.647 F2400 E0.026
G1 X67.385 E0.018
G1 X66.285 Y81.747 E0.052
G1 Y82.313 E0.019
G1 X67.951 Y80.647 E0.078
G1 X68.517 E0.019
G1 X66.285 Y82.879 E0.105
G1 Y83.445 E0.019
G1 X69.083 Y80.647 E0.132
G1 X69.515 E0.014
G1 Y80.78 E0.004
G1 X66.285 Y84.01 E0.152
G1 Y84.576 E0.019
G1 X69.515 Y81.346 E0.152
G1 Y81.912 E0.019
G1 X66.285 Y85.142 E0.152
G1 Y85.707 E0.019
G1 X69.515 Y82.477 E0.152
G1 Y83.043 E0.018
G1 X66.285 Y86.273 E0.152
G1 Y86.839 E0.019
G1 X69.515 Y83.609 E0.152
G1 Y84.174 E0.019
G1 X66.285 Y87.404 E0.152
G1 Y87.97 E0.019
G1 X69.515 Y84.74 E0.151
G1 Y85.306 E0.019
G1 X66.285 Y88.536 E0.152
G1 Y89.101 E0.019
G1 X69.515 Y85.871 E0.152
G1 Y86.437 E0.019
G1 X66.285 Y89.667 E0.152
G1 Y90.233 E0.019
G1 X69.515 Y87.003 E0.151
G1 Y87.568 E0.019
G1 X66.444 Y90.64 E0.145
G1 X66.802 Y90.847 E0.014
G1 X69.515 Y88.134 E0.127
G1 Y88.683 E0.018
G1 X69.526 Y88.689 E0.001
G1 X67.161 Y91.054 E0.111
G1 X67.52 Y91.261 E0.014
G1 X69.884 Y88.896 E0.111
G1 X70.243 Y89.103 E0.014
G1 X67.878 Y91.468 E0.111
G1 X68.237 Y91.675 E0.014
G1 X70.602 Y89.31 E0.111
G1 X70.96 Y89.517 E0.014
G1 X68.595 Y91.882 E0.111
G1 X68.954 Y92.089 E0.014
G1 X71.319 Y89.724 E0.111
G1 X71.677 Y89.931 E0.014
G1 X69.313 Y92.296 E0.111
G1 X69.671 Y92.503 E0.014
G1 X72.036 Y90.139 E0.111
G1 X72.395 Y90.346 E0.014
G1 X70.03 Y92.71 E0.111
G1 X70.389 Y92.917 E0.014
G1 X72.753 Y90.553 E0.111
G1 X73.112 Y90.76 E0.014
G1 X70.747 Y93.124 E0.111
G1 X71.106 Y93.331 E0.014
G1 X73.471 Y90.967 E0.111
G1 X73.829 Y91.174 E0.014
G1 X71.464 Y93.539 E0.111
G1 X71.823 Y93.746 E0.014
G1 X74.188 Y91.381 E0.111
G1 X74.546 Y91.588 E0.014
G1 X72.182 Y93.953 E0.111
G1 X72.54 Y94.16 E0.014
G1 X74.905 Y91.795 E0.111
G1 X75.264 Y92.002 E0.014
G1 X72.899 Y94.367 E0.111
G1 X73.258 Y94.574 E0.014
G1 X75.622 Y92.209 E0.111
G1 X75.981 Y92.416 E0.014
G1 X73.616 Y94.781 E0.111
G1 X73.975 Y94.988 E0.014
G1 X76.34 Y92.623 E0.111
G1 X76.698 Y92.83 E0.014
G1 X74.334 Y95.195 E0.111
G1 X74.692 Y95.402 E0.014
G1 X77.057 Y93.037 E0.111
G1 X77.416 Y93.244 E0.014
G1 X75.051 Y95.609 E0.111
G1 X75.409 Y95.816 E0.014
G1 X77.774 Y93.451 E0.111
G1 X78.133 Y93.658 E0.014
G1 X75.768 Y96.023 E0.111
G1 X76.127 Y96.23 E0.014
G1 X78.491 Y93.866 E0.111
G1 X78.85 Y94.073 E0.014
G1 X76.485 Y96.437 E0.111
G1 X76.844 Y96.644 E0.014
G1 X79.209 Y94.28 E0.111
G1 X79.567 Y94.487 E0.014
G1 X77.203 Y96.851 E0.111
G1 X77.561 Y97.058 E0.014
G1 X79.926 Y94.694 E0.111
G1 X80.285 Y94.901 E0.014
G1 X77.92 Y97.266 E0.111
G1 X78.278 Y97.473 E0.014
G1 X80.643 Y95.108 E0.111
G1 X81.002 Y95.315 E0.014
G1 X78.637 Y97.68 E0.111
G1 X78.996 Y97.887 E0.014
G1 X81.36 Y95.522 E0.111
G1 X81.719 Y95.729 E0.014
G1 X79.354 Y98.094 E0.111
G1 X79.713 Y98.301 E0.014
G1 X82.078 Y95.936 E0.111
G1 X82.436 Y96.143 E0.014
G1 X80.072 Y98.508 E0.111
G1 X80.43 Y98.715 E0.014
G1 X82.795 Y96.35 E0.111
G1 X83.154 Y96.557 E0.014
G1 X80.789 Y98.922 E0.111
G1 X81.148 Y99.129 E0.014
G1 X83.512 Y96.764 E0.111
G1 X83.871 Y96.971 E0.014
G1 X81.506 Y99.336 E0.111
G1 X81.865 Y99.543 E0.014
G1 X84.229 Y97.178 E0.111
G1 X84.588 Y97.385 E0.014
G1 X82.223 Y99.75 E0.111
G1 X82.582 Y99.957 E0.014
G1 X84.947 Y97.593 E0.111
G1 X85.305 Y97.8 E0.014
G1 X82.941 Y100.164 E0.111
G1 X83.299 Y100.371 E0.014
G1 X85.664 Y98.007 E0.111
G1 X86.023 Y98.214 E0.014
G1 X83.658 Y100.578 E0.111
G1 X84.017 Y100.785 E0.014
G1 X86.381 Y98.421 E0.111
G1 X86.74 Y98.628 E0.014
G1 X84.375 Y100.993 E0.111
G1 X84.734 Y101.2 E0.014
G1 X87.099 Y98.835 E0.111
G1 X87.457 Y99.042 E0.014
G1 X85.092 Y101.407 E0.111
G1 X85.451 Y101.614 E0.014
G1 X87.816 Y99.249 E0.111
G1 X88.174 Y99.456 E0.014
G1 X85.81 Y101.821 E0.111
G1 X86.168 Y102.028 E0.014
G1 X88.533 Y99.663 E0.111
G1 X88.892 Y99.87 E0.014
G1 X86.527 Y102.235 E0.111
G1 X86.886 Y102.442 E0.014
G1 X89.25 Y100.077 E0.111
G1 X89.609 Y100.284 E0.014
G1 X87.244 Y102.649 E0.111
G1 X87.603 Y102.856 E0.014
G1 X89.968 Y100.491 E0.111
G1 X90.326 Y100.698 E0.014
G1 X87.962 Y103.063 E0.111
G1 X88.32 Y103.27 E0.014
G1 X90.685 Y100.905 E0.111
G1 X91.043 Y101.113 E0.014
G1 X88.679 Y103.477 E0.111
G1 X89.037 Y103.684 E0.014
G1 X91.402 Y101.32 E0.111
G1 X91.761 Y101.527 E0.014
G1 X89.396 Y103.891 E0.111
G1 X89.755 Y104.098 E0.014
G1 X92.119 Y101.734 E0.111
G1 X92.478 Y101.941 E0.014
G1 X90.113 Y104.305 E0.111
G1 X90.472 Y104.512 E0.014
G1 X92.837 Y102.148 E0.111
G1 X93.195 Y102.355 E0.014
G1 X90.831 Y104.719 E0.111
G1 X91.189 Y104.927 E0.014
G1 X93.554 Y102.562 E0.111
G1 X93.912 Y102.769 E0.014
G1 X91.548 Y105.134 E0.111
G1 X91.906 Y105.341 E0.014
G1 X94.271 Y102.976 E0.111
G1 X94.63 Y103.183 E0.014
G1 X92.265 Y105.548 E0.111
G1 X92.624 Y105.755 E0.014
G1 X94.988 Y103.39 E0.111
G1 X95.347 Y103.597 E0.014
G1 X92.982 Y105.962 E0.111
G1 X93.341 Y106.169 E0.014
G1 X95.706 Y103.804 E0.111
G1 X96.064 Y104.011 E0.014
G1 X93.7 Y106.376 E0.111
G1 X94.058 Y106.583 E0.014
G1 X96.423 Y104.218 E0.111
G1 X96.781 Y104.425 E0.014
G1 X94.417 Y106.79 E0.111
G1 X94.776 Y106.997 E0.014
G1 X97.14 Y104.632 E0.111
G1 X97.499 Y104.84 E0.014
G1 X95.134 Y107.204 E0.111
G1 X95.493 Y107.411 E0.014
G1 X97.857 Y105.047 E0.111
G1 X98.216 Y105.254 E0.014
G1 X95.851 Y107.618 E0.111
G1 X96.21 Y107.825 E0.014
G1 X98.575 Y105.461 E0.111
G1 X98.933 Y105.668 E0.014
G1 X96.569 Y108.032 E0.111
G1 X96.927 Y108.239 E0.014
G1 X99.292 Y105.875 E0.111
G1 X99.651 Y106.082 E0.014
G1 X97.286 Y108.446 E0.111
G1 X97.645 Y108.654 E0.014
G1 X100.009 Y106.289 E0.111
G1 X100.368 Y106.496 E0.014
G1 X98.003 Y108.861 E0.111
G1 X98.362 Y109.068 E0.014
G1 X100.726 Y106.703 E0.111
G1 X101.085 Y106.91 E0.014
G1 X98.72 Y109.275 E0.111
G1 X99.079 Y109.482 E0.014
G1 X101.444 Y107.117 E0.111
G1 X101.802 Y107.324 E0.014
G1 X99.438 Y109.689 E0.111
G1 X99.796 Y109.896 E0.014
G1 X102.161 Y107.531 E0.111
G1 X102.52 Y107.738 E0.014
G1 X100.155 Y110.103 E0.111
G1 X100.514 Y110.31 E0.014
G1 X102.878 Y107.945 E0.111
G1 X103.237 Y108.152 E0.014
G1 X100.872 Y110.517 E0.111
G1 X101.231 Y110.724 E0.014
G1 X103.595 Y108.359 E0.111
G1 X103.954 Y108.567 E0.014
G1 X101.59 Y110.931 E0.111
G1 X101.948 Y111.138 E0.014
G1 X104.313 Y108.774 E0.111
G1 X104.671 Y108.981 E0.014
G1 X102.307 Y111.345 E0.111
G1 X102.665 Y111.552 E0.014
G1 X105.03 Y109.188 E0.111
G1 X105.389 Y109.395 E0.014
G1 X103.024 Y111.759 E0.111
G1 X103.383 Y111.966 E0.014
G1 X105.747 Y109.602 E0.111
G1 X106.106 Y109.809 E0.014
G1 X103.741 Y112.173 E0.111
G1 X104.1 Y112.38 E0.014
G1 X106.464 Y110.016 E0.111
G1 X106.823 Y110.223 E0.014
G1 X104.459 Y112.588 E0.111
G1 X104.817 Y112.795 E0.014
G1 X107.182 Y110.43 E0.111
G1 X107.54 Y110.637 E0.014
G1 X105.176 Y113.002 E0.111
G1 X105.534 Y113.209 E0.014
G1 X107.899 Y110.844 E0.111
G1 X108.258 Y111.051 E0.014
G1 X105.893 Y113.416 E0.111
G1 X106.252 Y113.623 E0.014
G1 X108.616 Y111.258 E0.111
G1 X108.975 Y111.465 E0.014
G1 X106.61 Y113.83 E0.111
G1 X106.969 Y114.037 E0.014
G1 X109.334 Y111.672 E0.111
G1 X109.692 Y111.879 E0.014
G1 X107.328 Y114.244 E0.111
G1 X107.686 Y114.451 E0.014
G1 X110.051 Y112.087 E0.111
G1 X110.409 Y112.294 E0.014
G1 X108.045 Y114.658 E0.111
G1 X108.404 Y114.865 E0.014
G1 X110.768 Y112.501 E0.111
G1 X111.127 Y112.708 E0.014
G1 X108.762 Y115.072 E0.111
G1 X109.121 Y115.279 E0.014
G1 X112.251 Y112.149 E0.147
G1 X113.589 Y111.376 E0.051
G1 X109.479 Y115.486 E0.194
G1 X109.838 Y115.693 E0.013
G1 X114.928 Y110.603 E0.24
G1 X116.266 Y109.831 E0.051
G1 X110.197 Y115.9 E0.286
G1 X110.555 Y116.107 E0.014
G1 X117.605 Y109.058 E0.331
G1 X118.943 Y108.285 E0.051
G1 X110.914 Y116.315 E0.378
G1 X111.273 Y116.522 E0.014
G1 X120.282 Y107.512 E0.424
G1 X121.62 Y106.74 E0.051
G1 X111.631 Y116.729 E0.47
G1 X111.99 Y116.936 E0.014
G1 X122.959 Y105.967 E0.516
G1 X124.297 Y105.194 E0.051
G1 X115.472 Y114.019 E0.415
G1 X114.435 Y114.618 E0.04
G1 X114.713 Y114.778 E0.011
G1 X112.348 Y117.143 E0.111
G1 X112.707 Y117.35 E0.014
G1 X115.071 Y114.985 E0.111
G1 X115.43 Y115.192 E0.014
G1 X113.066 Y117.557 E0.111
G1 X113.424 Y117.764 E0.014
G1 X115.789 Y115.4 E0.111
G1 X116.147 Y115.607 E0.014
G1 X113.783 Y117.971 E0.111
G1 X114.142 Y118.178 E0.014
G1 X116.506 Y115.814 E0.111
G1 X116.865 Y116.021 E0.014
G1 X114.5 Y118.385 E0.111
G1 X114.859 Y118.592 E0.014
G1 X117.223 Y116.228 E0.111
G1 X117.582 Y116.435 E0.014
G1 X115.217 Y118.799 E0.111
G1 X115.576 Y119.006 E0.014
G1 X117.94 Y116.642 E0.111
G1 X118.299 Y116.849 E0.014
G1 X115.935 Y119.213 E0.111
G1 X116.293 Y119.42 E0.013
G1 X118.658 Y117.056 E0.112
G1 X119.016 Y117.263 E0.013
G1 X116.652 Y119.627 E0.112
G1 X117.011 Y119.834 E0.013
G1 X119.375 Y117.47 E0.112
G1 X119.734 Y117.677 E0.013
G1 X117.369 Y120.041 E0.112
G1 X117.728 Y120.249 E0.013
G1 X120.092 Y117.884 E0.112
G1 X120.451 Y118.091 E0.013
G1 X118.087 Y120.456 E0.112
G1 X118.445 Y120.663 E0.013
G1 X120.81 Y118.298 E0.112
G1 X121.168 Y118.505 E0.013
G1 X118.804 Y120.87 E0.112
G1 X119.162 Y121.077 E0.013
G1 X121.527 Y118.712 E0.112
G1 X121.885 Y118.919 E0.013
G1 X119.521 Y121.284 E0.112
G1 X119.88 Y121.491 E0.013
G1 X122.244 Y119.127 E0.112
G1 X122.603 Y119.334 E0.013
G1 X120.238 Y121.698 E0.112
G1 X120.597 Y121.905 E0.013
G1 X122.961 Y119.541 E0.112
G1 X123.32 Y119.748 E0.013
G1 X120.956 Y122.112 E0.112
G1 X121.314 Y122.319 E0.013
G1 X123.679 Y119.955 E0.112
G1 X124.037 Y120.162 E0.013
G1 X121.673 Y122.526 E0.111
G1 X122.031 Y122.733 E0.014
G1 X124.396 Y120.369 E0.111
G1 X124.754 Y120.576 E0.014
G1 X122.39 Y122.94 E0.111
G1 X122.749 Y123.147 E0.014
G1 X125.113 Y120.783 E0.111
G1 X125.472 Y120.99 E0.014
G1 X123.107 Y123.354 E0.111
G1 X123.466 Y123.561 E0.014
G1 X125.83 Y121.197 E0.111
G1 X126.189 Y121.404 E0.014
G1 X123.825 Y123.768 E0.111
G1 X124.183 Y123.976 E0.014
G1 X126.548 Y121.611 E0.111
G1 X126.906 Y121.818 E0.014
G1 X124.542 Y124.183 E0.111
G1 X124.901 Y124.39 E0.014
G1 X127.265 Y122.025 E0.111
G1 X127.624 Y122.232 E0.014
G1 X125.259 Y124.597 E0.111
G1 X125.618 Y124.804 E0.014
G1 X127.982 Y122.439 E0.111
G1 X128.341 Y122.646 E0.014
G1 X125.976 Y125.011 E0.111
G1 X126.335 Y125.218 E0.014
G1 X128.699 Y122.853 E0.111
G1 X129.058 Y123.061 E0.014
G1 X126.694 Y125.425 E0.111
G1 X127.052 Y125.632 E0.014
G1 X129.417 Y123.268 E0.111
G1 X129.775 Y123.475 E0.014
G1 X127.411 Y125.839 E0.111
G1 X127.77 Y126.046 E0.014
G1 X130.134 Y123.682 E0.111
G1 X130.493 Y123.889 E0.014
G1 X128.128 Y126.253 E0.111
G1 X128.487 Y126.46 E0.014
G1 X130.851 Y124.096 E0.111
G1 X131.21 Y124.303 E0.014
G1 X128.845 Y126.667 E0.111
G1 X129.204 Y126.874 E0.014
G1 X131.569 Y124.51 E0.111
G1 X131.927 Y124.717 E0.014
G1 X129.563 Y127.081 E0.111
G1 X129.921 Y127.288 E0.014
G1 X132.286 Y124.924 E0.111
G1 X132.644 Y125.131 E0.014
G1 X130.28 Y127.495 E0.111
G1 X130.639 Y127.702 E0.014
G1 X133.003 Y125.338 E0.111
G1 X133.362 Y125.545 E0.014
G1 X130.997 Y127.91 E0.111
G1 X131.356 Y128.117 E0.014
G1 X133.72 Y125.752 E0.111
G1 X134.079 Y125.959 E0.014
G1 X131.715 Y128.324 E0.111
G1 X132.073 Y128.531 E0.014
G1 X134.438 Y126.166 E0.111
G1 X134.796 Y126.373 E0.014
G1 X132.432 Y128.738 E0.111
G1 X132.79 Y128.945 E0.014
G1 X135.155 Y126.58 E0.111
G1 X135.513 Y126.787 E0.014
G1 X133.149 Y129.152 E0.111
G1 X133.508 Y129.359 E0.014
G1 X135.872 Y126.995 E0.111
G1 X136.231 Y127.202 E0.014
G1 X133.866 Y129.566 E0.111
G1 X134.225 Y129.773 E0.014
G1 X136.589 Y127.409 E0.111
G1 X136.948 Y127.616 E0.014
G1 X134.584 Y129.98 E0.111
G1 X134.942 Y130.187 E0.014
G1 X137.307 Y127.823 E0.111
G1 X137.665 Y128.03 E0.014
G1 X135.301 Y130.394 E0.111
G1 X135.659 Y130.601 E0.014
G1 X138.024 Y128.237 E0.111
G1 X138.383 Y128.444 E0.014
G1 X136.018 Y130.808 E0.111
G1 X136.377 Y131.015 E0.014
G1 X138.741 Y128.651 E0.111
G1 X139.1 Y128.858 E0.014
G1 X136.735 Y131.222 E0.111
G1 X137.094 Y131.429 E0.014
G1 X139.458 Y129.065 E0.111
G1 X139.817 Y129.272 E0.014
G1 X137.453 Y131.637 E0.111
G1 X137.811 Y131.844 E0.014
G1 X140.176 Y129.479 E0.111
G1 X140.534 Y129.686 E0.014
G1 X138.17 Y132.051 E0.111
G1 X138.529 Y132.258 E0.014
G1 X140.893 Y129.893 E0.111
G1 X141.252 Y130.1 E0.014
G1 X138.887 Y132.465 E0.111
G1 X139.246 Y132.672 E0.014
G1 X141.61 Y130.307 E0.111
G1 X141.969 Y130.514 E0.014
G1 X139.604 Y132.879 E0.111
G1 X139.963 Y133.086 E0.014
G1 X142.327 Y130.721 E0.111
G1 X142.686 Y130.929 E0.014
G1 X140.322 Y133.293 E0.111
G1 X140.68 Y133.5 E0.014
G1 X143.045 Y131.136 E0.111
G1 X143.403 Y131.343 E0.014
G1 X141.039 Y133.707 E0.111
G1 X141.398 Y133.914 E0.014
G1 X143.762 Y131.55 E0.111
G1 X144.121 Y131.757 E0.014
G1 X141.756 Y134.121 E0.111
G1 X142.115 Y134.328 E0.014
G1 X144.479 Y131.964 E0.111
G1 X144.838 Y132.171 E0.014
G1 X142.473 Y134.535 E0.111
G1 X142.832 Y134.742 E0.014
G1 X145.197 Y132.378 E0.111
G1 X145.555 Y132.585 E0.014
G1 X143.191 Y134.949 E0.111
G1 X143.549 Y135.156 E0.014
G1 X145.914 Y132.792 E0.111
G1 X146.272 Y132.999 E0.014
G1 X143.908 Y135.363 E0.111
G1 X144.267 Y135.571 E0.013
G1 X146.631 Y133.206 E0.112
G1 X146.99 Y133.413 E0.013
G1 X144.625 Y135.778 E0.112
G1 X144.984 Y135.985 E0.013
G1 X147.348 Y133.62 E0.112
G1 X147.707 Y133.827 E0.013
G1 X145.343 Y136.192 E0.112
G1 X145.701 Y136.399 E0.013
G1 X148.066 Y134.034 E0.112
G1 X148.424 Y134.241 E0.013
G1 X146.06 Y136.606 E0.112
G1 X146.418 Y136.813 E0.013
G1 X148.783 Y134.448 E0.112
G1 X149.142 Y134.655 E0.013
G1 X146.777 Y137.02 E0.112
G1 X147.136 Y137.227 E0.013
G1 X149.5 Y134.863 E0.112
G1 X149.859 Y135.07 E0.013
G1 X147.494 Y137.434 E0.112
G1 X147.853 Y137.641 E0.013
G1 X150.217 Y135.277 E0.112
G1 X150.576 Y135.484 E0.013
G1 X148.212 Y137.848 E0.112
G1 X148.57 Y138.055 E0.013
G1 X150.935 Y135.691 E0.112
G1 X151.293 Y135.898 E0.013
G1 X148.929 Y138.262 E0.112
G1 X149.287 Y138.469 E0.013
G1 X151.652 Y136.105 E0.112
G1 X152.011 Y136.312 E0.013
G1 X149.646 Y138.676 E0.112
G1 X150.005 Y138.883 E0.013
G1 X152.369 Y136.519 E0.112
G1 X152.728 Y136.726 E0.013
G1 X150.363 Y139.09 E0.112
G1 X150.722 Y139.298 E0.013
G1 X153.086 Y136.933 E0.112
G1 X153.391 Y137.109 E0.011
G1 X153.275 Y137.311 E0.008
G1 X151.081 Y139.505 E0.103
G1 X151.439 Y139.712 E0.014
G1 X152.502 Y138.649 E0.05
G1 F1800 E-0.5
;rapid-dry
G0 X125.636 Y104.421 F9000
G1 F1800 E0.5
;bead-solid_infill
G1 X116.81 Y113.247 F2400 E0.415
G1 X118.149 Y112.474 E0.051
G1 X126.974 Y103.649 E0.416
G1 X128.312 Y102.876 E0.051
G1 X119.487 Y111.701 E0.415
G1 X120.826 Y110.928 E0.051
G1 X129.651 Y102.103 E0.416
G1 X130.989 Y101.33 E0.051
G1 X122.164 Y110.155 E0.415
G1 X123.503 Y109.383 E0.051
G1 X132.328 Y100.558 E0.416
G1 X133.666 Y99.785 E0.051
G1 X124.841 Y108.61 E0.415
G1 X126.18 Y107.837 E0.052
G1 X135.005 Y99.012 E0.415
G1 X136.343 Y98.239 E0.051
G1 X127.518 Y107.064 E0.415
G1 X128.857 Y106.291 E0.052
G1 X137.682 Y97.466 E0.415
G1 X139.02 Y96.694 E0.051
G1 X130.195 Y105.519 E0.415
G1 X131.534 Y104.746 E0.052
G1 X140.358 Y95.921 E0.415
G1 X141.697 Y95.148 E0.051
G1 X132.872 Y103.973 E0.415
G1 X134.21 Y103.2 E0.052
G1 X143.035 Y94.375 E0.415
G1 X144.374 Y93.603 E0.051
G1 X135.549 Y102.428 E0.415
G1 X136.887 Y101.655 E0.052
G1 X145.712 Y92.83 E0.415
G1 X147.051 Y92.057 E0.051
G1 X138.226 Y100.882 E0.415
G1 X139.564 Y100.109 E0.052
G1 X148.389 Y91.284 E0.415
G1 X149.728 Y90.512 E0.051
G1 X140.903 Y99.336 E0.415
G1 X142.029 Y98.686 E0.043
G1 X142.241 Y98.564 E0.009
G1 X151.066 Y89.739 E0.415
G1 X151.776 Y89.329 E0.027
G1 X151.873 Y89.497 E0.006
G1 X143.58 Y97.791 E0.39
G1 X144.918 Y97.018 E0.052
G1 X152.08 Y89.856 E0.337
G1 X152.287 Y90.215 E0.014
G1 X146.257 Y96.245 E0.283
G1 X147.595 Y95.472 E0.052
G1 X152.494 Y90.573 E0.23
G1 X152.702 Y90.932 E0.014
G1 X148.934 Y94.7 E0.177
G1 X150.272 Y93.927 E0.051
G1 X152.909 Y91.29 E0.124
G1 X153.116 Y91.649 E0.014
G1 X151.611 Y93.154 E0.071
G1 X152.949 Y92.381 E0.051
G1 X153.323 Y92.008 E0.018
G1 F1800 E-0.5
;Layer : 4 of 25
;rapid-leaky
G0 X153.828 Y92.243 Z0.9 F9000
G1 F1800 E0.5
;bead-perimeter_inner
G1 X115.075 Y114.618 F1560 E1.488
G1 X153.828 Y136.992 E1.489
G1 X151.893 Y140.343 E0.128
G1 X65.965 Y90.733 E3.3
G1 Y80.12 E0.353
G1 X69.835 E0.129
G1 Y88.498 E0.279
G1 X111.205 Y112.383 E1.589
G1 X151.893 Y88.892 E1.562
G1 X153.828 Y92.243 E0.129
;rapid-leaky
G0 X154.327 Y92.377 F9000
;bead-perimeter_outer
G1 X115.805 Y114.618 F1080 E1.48
G1 X154.327 Y136.858 E1.479
G1 X152.027 Y140.842 E0.153
G1 X65.672 Y90.985 E3.316
G1 X65.6 E0.003
G1 Y79.755 E0.373
G1 X70.2 E0.153
G1 Y88.287 E0.284
G1 X111.205 Y111.962 E1.575
G1 X152.027 Y88.393 E1.568
G1 X154.327 Y92.377 E0.153
;rapid-leaky
G0 X132.218 Y104.351 F9000
;bead-sparse_infill
G1 X131.449 Y104.561 F3600 E0.026
G1 X131.224 Y104.924 E0.014
G1 X127.977 Y106.8 E0.125
G1 X127.879 Y106.773 E0.004
G1 X126.986 Y105.329 E0.056
G1 X126.094 Y104.628 E0.038
G1 X125.585 Y104.451 E0.018
G1 X128.901 Y102.536 E0.127
G1 X129.664 Y103.135 E0.032
G1 X130.557 Y103.446 E0.032
G1 X131.449 Y103.203 E0.031
G1 X132.342 Y101.759 E0.056
G1 X133.234 Y101.058 E0.038
G1 X134.127 Y100.747 E0.031
G1 X135.019 Y100.99 E0.031
G1 X135.814 Y102.275 E0.05
G1 X141.694 Y98.879 E0.226
G1 X141.267 Y98.189 E0.027
G1 X140.375 Y97.487 E0.038
G1 X139.482 Y97.176 E0.031
G1 X138.59 Y97.42 E0.031
G1 X137.697 Y98.864 E0.056
G1 X136.805 Y99.565 E0.038
G1 X135.912 Y99.876 E0.032
G1 X135.019 Y99.632 E0.03
G1 X134.733 Y99.169 E0.019
G1 X142.63 Y94.61 E0.303
G1 X143.052 Y95.294 E0.027
G1 X143.945 Y95.995 E0.037
G1 X144.838 Y96.306 E0.032
G1 X145.73 Y96.062 E0.031
G1 X146.623 Y94.618 E0.056
G1 X147.515 Y93.917 E0.038
G1 X148.408 Y93.606 E0.031
G1 X149.3 Y93.85 E0.031
G1 X149.591 Y94.32 E0.018
G1 X153.391 Y92.126 E0.146
G1 X152.588 Y90.736 E0.054
G1 X151.978 Y91.723 E0.038
G1 X151.085 Y92.425 E0.038
G1 X150.193 Y92.736 E0.031
G1 X149.3 Y92.492 E0.031
G1 X148.51 Y91.214 E0.05
G1 X123.706 Y105.535 E0.953
G1 X123.416 Y106.004 E0.018
G1 X122.524 Y106.706 E0.038
G1 X121.631 Y107.017 E0.031
G1 X121.298 Y106.926 E0.012
;rapid-leaky
G0 X115.453 Y110.3 F9000
;bead-sparse_infill
G1 X116.276 Y110.587 F3600 E0.029
G1 X117.168 Y110.343 E0.031
G1 X118.061 Y108.899 E0.056
G1 X118.563 Y108.505 E0.021
G1 X119.308 Y108.074 E0.029
G1 X119.846 Y107.887 E0.019
G1 X120.739 Y108.131 E0.031
G1 X121.631 Y109.574 E0.056
G1 X122.283 Y110.087 E0.028
G1 X119.13 Y111.907 E0.121
G1 X118.953 Y111.768 E0.007
G1 X118.061 Y111.457 E0.032
G1 X117.168 Y111.701 E0.03
G1 X116.276 Y113.145 E0.057
G1 X115.383 Y113.846 E0.038
G1 X114.491 Y114.157 E0.031
G1 X113.598 Y113.913 E0.031
G1 X112.705 Y112.47 E0.056
G1 X112.278 Y112.134 E0.018
G1 X111.205 Y112.753 E0.042
G1 X109.858 Y111.975 E0.051
G1 X109.135 Y113.145 E0.046
G1 X108.243 Y113.846 E0.038
G1 X107.35 Y114.157 E0.031
G1 X107.022 Y114.067 E0.012
G1 X106.293 Y113.646 E0.028
G1 X105.565 Y112.47 E0.046
G1 X104.672 Y111.768 E0.037
G1 X103.78 Y111.457 E0.032
G1 X102.912 Y111.694 E0.03
;rapid-leaky
G0 X98.468 Y105.399 F9000
;bead-sparse_infill
G1 X99.317 Y106.773 F3600 E0.053
G1 X100.21 Y107.017 E0.031
G1 X100.871 Y106.786 E0.023
G1 X104.098 Y108.65 E0.124
G1 X103.78 Y108.899 E0.014
G1 X102.887 Y110.343 E0.056
G1 X101.995 Y110.587 E0.031
G1 X101.102 Y110.276 E0.032
G1 X100.21 Y109.574 E0.037
G1 X99.317 Y108.131 E0.057
G1 X98.425 Y107.887 E0.03
G1 X97.532 Y108.198 E0.032
G1 X97.246 Y108.423 E0.012
G1 X94.093 Y106.603 E0.121
G1 X94.854 Y106.004 E0.032
G1 X95.747 Y104.561 E0.057
G1 X96.608 Y104.325 E0.03
G1 X95.011 Y103.403 E0.061
G1 X94.854 Y103.446 E0.005
G1 X93.962 Y103.135 E0.032
G1 X93.069 Y102.434 E0.037
G1 X92.923 Y102.198 E0.01
G1 X90.739 Y100.937 E0.084
G1 X90.392 Y101.058 E0.012
G1 X89.499 Y101.759 E0.038
G1 X88.606 Y103.203 E0.056
G1 X88.333 Y103.277 E0.009
G1 X85.405 Y101.587 E0.113
G1 X85.036 Y100.99 E0.023
G1 X84.144 Y100.747 E0.031
G1 X84.023 Y100.789 E0.004
G1 X80.604 Y98.815 E0.132
G1 X81.466 Y97.42 E0.054
G1 X82.359 Y97.176 E0.031
G1 X83.251 Y97.487 E0.031
G1 X84.144 Y98.189 E0.038
G1 X85.036 Y99.632 E0.057
G1 X85.929 Y99.876 E0.03
G1 X86.821 Y99.565 E0.032
G1 X87.474 Y99.052 E0.027
G1 X81.684 Y95.709 E0.223
G1 X81.466 Y96.062 E0.014
G1 X80.573 Y96.306 E0.03
G1 X79.681 Y95.995 E0.032
G1 X78.788 Y95.294 E0.038
G1 X77.896 Y93.85 E0.056
G1 X77.003 Y93.606 E0.031
G1 X76.111 Y93.917 E0.031
G1 X75.218 Y94.618 E0.038
G1 X74.723 Y95.42 E0.031
G1 X66.826 Y90.861 E0.304
G1 X67.185 Y90.28 E0.022
G1 X68.078 Y90.036 E0.031
G1 X68.97 Y90.347 E0.031
G1 X69.863 Y91.048 E0.038
G1 X70.755 Y92.492 E0.057
G1 X71.648 Y92.736 E0.03
G1 X72.54 Y92.425 E0.032
G1 X73.433 Y91.723 E0.038
G1 X73.788 Y91.15 E0.022
G1 X69.515 Y88.683 E0.164
G1 Y86.587 E0.07
G1 X68.97 Y86.777 E0.019
G1 X68.078 Y87.478 E0.038
G1 X67.185 Y88.922 E0.056
G1 X66.293 Y89.165 E0.031
G1 X66.285 Y89.163
G1 Y84.589 E0.152
G1 X66.293 Y84.583 E0.001
G1 X66.86 Y83.665 E0.036
;rapid-leaky
G0 X66.285 Y82.82 F9000
;bead-solid_infill
G1 X66.73 Y83.265 F2400 E0.021
G1 X67.295 E0.018
G1 X66.285 Y82.255 E0.048
G1 Y81.689 E0.019
G1 X67.861 Y83.265 E0.074
G1 X68.427 E0.019
G1 X66.285 Y81.123 E0.1
G1 Y80.558 E0.019
G1 X68.992 Y83.265 E0.128
G1 X69.515 E0.017
G1 Y83.222 E0.001
G1 X66.733 Y80.44 E0.131
G1 X67.299 E0.019
G1 X69.515 Y82.656 E0.104
G1 Y82.091 E0.019
G1 X67.864 Y80.44 E0.078
G1 X68.43 E0.019
G1 X69.515 Y81.525 E0.051
G1 Y80.959 E0.018
G1 X68.996 Y80.44 E0.025
G1 F1800 E-0.5
;rapid-dry
G0 X117.755 Y116.535 F9000
G1 F1800 E0.5
;bead-sparse_infill
G1 X117.168 Y117.484 F3600 E0.037
G1 X116.276 Y117.727 E0.031
G1 X115.383 Y117.416 E0.031
G1 X114.491 Y116.715 E0.038
G1 X113.598 Y115.271 E0.056
G1 X112.705 Y115.028 E0.031
G1 X111.813 Y115.338 E0.032
G1 X110.92 Y116.04 E0.037
G1 X110.794 Y116.245 E0.008
G1 X116.674 Y119.64 E0.226
G1 X117.168 Y118.841 E0.031
G1 X118.061 Y118.598 E0.031
G1 X118.953 Y118.909 E0.032
G1 X119.846 Y119.61 E0.037
G1 X120.739 Y121.054 E0.057
G1 X121.631 Y121.297 E0.031
G1 X122.524 Y120.987 E0.031
G1 X123.416 Y120.285 E0.038
G1 X123.636 Y119.93 E0.014
G1 X131.533 Y124.489 E0.303
G1 X131.449 Y124.624 E0.005
G1 X130.557 Y124.868 E0.031
G1 X129.664 Y124.557 E0.031
G1 X128.772 Y123.855 E0.038
G1 X127.879 Y122.412 E0.057
G1 X126.986 Y122.168 E0.03
G1 X126.094 Y122.479 E0.032
G1 X125.201 Y123.18 E0.038
G1 X124.571 Y124.199 E0.039
G1 X130.388 Y127.558 E0.224
G1 X130.557 Y127.426 E0.007
G1 X131.449 Y125.982 E0.056
G1 X132.342 Y125.738 E0.031
G1 X133.234 Y126.049 E0.032
G1 X134.127 Y126.75 E0.037
G1 X135.019 Y128.194 E0.057
G1 X135.912 Y128.438 E0.031
G1 X136.805 Y128.127 E0.031
G1 X137.24 Y127.784 E0.019
G1 X140.402 Y129.61 E0.121
G1 X140.375 Y129.619 E0.001
G1 X139.482 Y130.321 E0.038
G1 X138.59 Y131.764 E0.056
G1 X137.968 Y131.934 E0.022
G1 X139.79 Y132.986 E0.07
G1 X140.375 Y133.19 E0.02
G1 X141.018 Y133.695 E0.027
G1 X143.818 Y135.312 E0.108
G1 X143.945 Y135.267 E0.004
G1 X144.838 Y134.566 E0.038
G1 X145.73 Y133.122 E0.057
G1 X146.243 Y132.982 E0.017
G1 X144.128 Y131.761 E0.081
G1 X143.945 Y131.697 E0.007
G1 X143.744 Y131.539 E0.008
;rapid-leaky
G0 X148.736 Y134.421 F9000
;bead-sparse_infill
G1 X149.3 Y135.335 F3600 E0.036
G1 X150.193 Y135.578 E0.031
G1 X150.534 Y135.459 E0.012
G1 X153.391 Y137.109 E0.11
G1 X152.258 Y139.072 E0.075
G1 X151.978 Y139.149 E0.01
G1 X151.085 Y138.838 E0.031
G1 X150.193 Y138.136 E0.038
G1 X149.3 Y136.693 E0.056
G1 X148.408 Y136.449 E0.031
G1 X147.515 Y136.76 E0.032
G1 X147.012 Y137.155 E0.021
;rapid-leaky
G0 X135.673 Y130.609 F9000
;bead-sparse_infill
G1 X135.019 Y129.552 F3600 E0.041
G1 X134.127 Y129.308 E0.031
G1 X133.686 Y129.462 E0.015
G1 F1800 E-0.5
;Layer : 5 of 25
;rapid-leaky
G0 X151.893 Y140.343 Z1.1 F9000
G1 F1800 E0.5
;bead-perimeter_inner
G1 X65.965 Y90.733 F1560 E3.301
G1 Y82.244 E0.282
G1 X69.835 E0.129
G1 Y88.498 E0.208
G1 X111.205 Y112.383 E1.589
G1 X151.893 Y88.892 E1.562
G1 X153.828 Y92.243 E0.129
G1 X115.075 Y114.618 E1.488
G1 X153.828 Y136.992 E1.489
G1 X151.893 Y140.343 E0.128
;rapid-leaky
G0 X152.027 Y140.842 F9000
;bead-perimeter_outer
G1 X65.672 Y90.985 F1080 E3.317
G1 X65.6 E0.002
G1 Y81.879 E0.303
G1 X70.2 E0.153
G1 Y88.287 E0.213
G1 X111.205 Y111.962 E1.575
G1 X152.027 Y88.393 E1.568
G1 X154.327 Y92.377 E0.153
G1 X115.805 Y114.618 E1.479
G1 X154.327 Y136.858 E1.48
G1 X152.027 Y140.842 E0.153
;rapid-leaky
G0 X146.999 Y137.148 F9000
;bead-sparse_infill
G1 X147.515 Y136.828 F3600 E0.02
G1 X148.408 Y136.665 E0.03
G1 X149.3 Y137.115 E0.033
G1 X150.193 Y138.215 E0.047
G1 X151.085 Y138.77 E0.035
G1 X151.978 Y138.933 E0.031
G1 X152.486 Y138.676 E0.018
G1 X153.391 Y137.109 E0.061
G1 X150.325 Y135.339 E0.117
G1 X150.193 Y135.363 E0.005
G1 X149.3 Y134.912 E0.033
G1 X149.049 Y134.602 E0.013
G1 X146.524 Y133.144 E0.097
G1 X145.73 Y133.545 E0.03
G1 X144.838 Y134.645 E0.047
G1 X143.945 Y135.2 E0.035
G1 X143.701 Y135.244 E0.008
G1 X141.308 Y133.863 E0.092
G1 X141.267 Y133.812 E0.002
G1 X140.375 Y133.257 E0.035
G1 X140.207 Y133.227 E0.006
;rapid-leaky
G0 X133.874 Y129.57 F9000
;bead-sparse_infill
G1 X134.127 Y129.524 F3600 E0.009
G1 X135.019 Y129.975 E0.033
G1 X135.411 Y130.458 E0.02
G1 X137.711 Y131.786 E0.089
G1 X138.59 Y131.342 E0.033
G1 X139.482 Y130.242 E0.047
G1 X140.375 Y129.687 E0.035
G1 X140.497 Y129.665 E0.004
G1 X137.244 Y127.786 E0.125
G1 X136.805 Y128.059 E0.017
G1 X135.912 Y128.222 E0.03
G1 X135.019 Y127.771 E0.033
G1 X134.127 Y126.671 E0.047
G1 X133.234 Y126.117 E0.035
G1 X132.342 Y125.954 E0.031
G1 X131.449 Y126.405 E0.033
G1 X130.557 Y127.505 E0.047
G1 X130.431 Y127.583 E0.005
G1 X124.393 Y124.097 E0.232
G1 X125.201 Y123.101 E0.042
G1 X126.094 Y122.547 E0.035
G1 X126.986 Y122.384 E0.03
G1 X127.879 Y122.834 E0.034
G1 X128.772 Y123.934 E0.047
G1 X129.664 Y124.489 E0.035
G1 X130.557 Y124.652 E0.03
G1 X131.228 Y124.313 E0.025
G1 X123.726 Y119.982 E0.288
G1 X123.416 Y120.364 E0.016
G1 X122.524 Y120.919 E0.035
G1 X121.631 Y121.082 E0.031
G1 X120.739 Y120.631 E0.033
G1 X119.846 Y119.531 E0.047
G1 X118.953 Y118.976 E0.035
G1 X118.061 Y118.813 E0.03
G1 X117.168 Y119.264 E0.033
G1 X116.803 Y119.714 E0.02
G1 X110.723 Y116.204 E0.233
G1 X110.92 Y115.961 E0.011
G1 X111.813 Y115.406 E0.034
G1 X112.705 Y115.243 E0.031
G1 X113.598 Y115.694 E0.033
G1 X114.491 Y116.794 E0.047
G1 X115.383 Y117.349 E0.035
G1 X116.276 Y117.512 E0.03
G1 X117.168 Y117.061 E0.033
G1 X117.646 Y116.472 E0.026
G1 F1800 E-0.5
;rapid-dry
G0 X115.558 Y110.24 F9000
G1 F1800 E0.5
;bead-sparse_infill
G1 X116.276 Y110.371 F3600 E0.024
G1 X117.168 Y109.92 E0.033
G1 X118.061 Y108.82 E0.047
G1 X118.645 Y108.458 E0.023
G1 X118.988 Y108.259 E0.013
G1 X119.846 Y108.103 E0.029
G1 X120.739 Y108.554 E0.034
G1 X121.631 Y109.654 E0.047
G1 X122.307 Y110.073 E0.026
G1 X119.098 Y111.926 E0.123
G1 X118.953 Y111.836 E0.006
G1 X118.061 Y111.673 E0.03
G1 X117.168 Y112.124 E0.034
G1 X116.276 Y113.224 E0.047
G1 X115.383 Y113.778 E0.035
G1 X114.491 Y113.941 E0.03
G1 X113.598 Y113.491 E0.033
G1 X112.705 Y112.391 E0.047
G1 X112.285 Y112.129 E0.017
G1 X111.205 Y112.753 E0.041
G1 X110.074 Y112.1 E0.044
G1 X110.028 Y112.124 E0.001
G1 X109.135 Y113.224 E0.047
G1 X108.243 Y113.778 E0.035
G1 X107.35 Y113.941 E0.03
G1 X106.458 Y113.491 E0.034
G1 X105.565 Y112.391 E0.047
G1 X104.672 Y111.836 E0.035
G1 X103.78 Y111.673 E0.03
G1 X103.297 Y111.917 E0.018
G1 X97.263 Y108.433 E0.232
G1 X97.532 Y108.266 E0.01
G1 X98.425 Y108.103 E0.03
G1 X99.317 Y108.554 E0.034
G1 X100.21 Y109.654 E0.047
G1 X101.102 Y110.208 E0.035
G1 X101.995 Y110.371 E0.03
G1 X102.887 Y109.92 E0.033
G1 X103.78 Y108.82 E0.047
G1 X104.076 Y108.637 E0.012
G1 X100.731 Y106.706 E0.128
G1 X100.21 Y106.801 E0.018
G1 X99.317 Y106.35 E0.033
G1 X98.614 Y105.483 E0.037
G1 X97.119 Y104.62 E0.058
G1 X96.639 Y104.533 E0.016
G1 X95.747 Y104.983 E0.033
G1 X94.854 Y106.083 E0.047
G1 X94.054 Y106.581 E0.032
G1 X88.001 Y103.086 E0.232
G1 X88.606 Y102.78 E0.023
G1 X89.499 Y101.68 E0.047
G1 X90.392 Y101.125 E0.035
G1 X90.904 Y101.032 E0.017
G1 X87.508 Y99.071 E0.131
G1 X86.821 Y99.497 E0.026
G1 X85.929 Y99.66 E0.031
G1 X85.036 Y99.21 E0.033
G1 X84.144 Y98.11 E0.047
G1 X83.251 Y97.555 E0.035
G1 X82.359 Y97.392 E0.03
G1 X81.466 Y97.843 E0.033
G1 X80.654 Y98.844 E0.043
G1 X74.574 Y95.334 E0.234
G1 X75.218 Y94.539 E0.034
G1 X76.111 Y93.985 E0.035
G1 X77.003 Y93.822 E0.03
G1 X77.896 Y94.273 E0.033
G1 X78.788 Y95.373 E0.047
G1 X79.681 Y95.927 E0.035
G1 X80.573 Y96.09 E0.03
G1 X81.466 Y95.639 E0.034
G1 X81.497 Y95.601 E0.001
G1 X73.907 Y91.219 E0.292
G1 X73.433 Y91.802 E0.025
G1 X72.54 Y92.357 E0.035
G1 X71.648 Y92.52 E0.03
G1 X70.755 Y92.069 E0.033
G1 X69.863 Y90.969 E0.047
G1 X68.97 Y90.415 E0.035
G1 X68.078 Y90.252 E0.03
G1 X67.185 Y90.702 E0.034
G1 X66.983 Y90.951 E0.01
G1 X66.285 Y90.548 E0.027
G1 Y88.948 E0.053
G1 X66.293 Y88.95 E0.001
G1 X67.185 Y88.499 E0.033
G1 X68.078 Y87.399 E0.047
G1 X68.97 Y86.844 E0.035
G1 X69.515 Y86.745 E0.018
G1 Y83.866 E0.096
G1 X66.938 E0.086
G1 X66.293 Y84.662 E0.034
G1 X66.285 Y84.667
;rapid-leaky
G0 X69.092 Y83.466 F9000
;bead-solid_infill
G1 X69.515 Y83.043 F2400 E0.02
G1 Y82.564 E0.016
G1 X69.428 E0.003
G1 X68.526 Y83.466 E0.042
G1 X67.961 E0.019
G1 X68.863 Y82.564 E0.043
G1 X68.297 E0.018
G1 X67.395 Y83.466 E0.043
G1 X66.829 E0.019
G1 X67.731 Y82.564 E0.042
G1 X67.166 E0.019
G1 X66.285 Y83.445 E0.041
G1 Y82.879 E0.019
G1 X66.6 Y82.564 E0.015
G1 F1800 E-0.5
;rapid-dry
G0 X69.835 Y81.088 F9000
G1 F1800 E0.5
;bead-perimeter_inner
G1 X65.965 F1560 E0.129
G1 Y79.954 E0.037
G1 X69.835 E0.129
G1 Y81.088 E0.038
;rapid-leaky
G0 X70.2 Y81.453 F9000
;bead-perimeter_outer
G1 X65.6 F1080 E0.153
G1 Y79.589 E0.062
G1 X70.2 E0.153
G1 Y81.453 E0.062
;rapid-leaky
G0 X69.456 Y80.274 F9000
;bead-solid_infill
G1 X68.962 Y80.768 F2400 E0.023
G1 X68.396 E0.019
G1 X68.89 Y80.274 E0.023
G1 X68.324 E0.019
G1 X67.83 Y80.768 E0.023
G1 X67.264 E0.019
G1 X67.758 Y80.274 E0.023
G1 X67.193 E0.019
G1 X66.699 Y80.768 E0.023
G1 X66.285 E0.014
G1 Y80.616 E0.005
G1 X66.627 Y80.274 E0.016
G1 F1800 E-0.5
;rapid-dry
G0 X92.717 Y102.079 F9000
G1 F1800 E0.5
;bead-sparse_infill
G1 X93.069 Y102.513 F3600 E0.019
G1 X93.962 Y103.068 E0.035
G1 X94.646 Y103.193 E0.023
G1 F1800 E-0.5
;rapid-dry
G0 X121.569 Y106.769 F9000
G1 F1800 E0.5
;bead-sparse_infill
G1 X121.631 Y106.801 F3600 E0.002
G1 X122.524 Y106.638 E0.03
G1 X123.416 Y106.083 E0.035
G1 X123.997 Y105.367 E0.031
G1 X128.346 Y106.586 E0.15
G1 X127.879 Y106.35 E0.018
G1 X126.986 Y105.25 E0.047
G1 X126.094 Y104.696 E0.035
G1 X125.385 Y104.566 E0.024
G1 X128.853 Y102.564 E0.133
G1 X129.664 Y103.068 E0.032
G1 X130.557 Y103.231 E0.03
G1 X131.449 Y102.78 E0.033
G1 X132.342 Y101.68 E0.047
G1 X133.234 Y101.125 E0.035
G1 X134.127 Y100.962 E0.03
G1 X135.019 Y101.413 E0.034
G1 X135.749 Y102.312 E0.038
G1 X141.829 Y98.802 E0.234
G1 X141.267 Y98.11 E0.029
G1 X140.375 Y97.555 E0.035
G1 X139.482 Y97.392 E0.03
G1 X138.59 Y97.843 E0.034
G1 X137.697 Y98.943 E0.047
G1 X136.805 Y99.497 E0.035
G1 X135.912 Y99.66 E0.03
G1 X135.019 Y99.21 E0.033
G1 X134.906 Y99.069 E0.006
G1 X142.496 Y94.687 E0.292
G1 X143.052 Y95.373 E0.029
G1 X143.945 Y95.927 E0.035
G1 X144.838 Y96.09 E0.03
G1 X145.73 Y95.639 E0.033
G1 X146.623 Y94.539 E0.047
G1 X147.515 Y93.985 E0.035
G1 X148.408 Y93.822 E0.031
G1 X149.3 Y94.273 E0.033
G1 X149.419 Y94.419 E0.006
G1 X153.391 Y92.126 E0.153
G1 X152.694 Y90.919 E0.046
G1 X151.978 Y91.802 E0.038
G1 X151.085 Y92.357 E0.035
G1 X150.193 Y92.52 E0.03
G1 X149.3 Y92.069 E0.033
G1 X148.576 Y91.177 E0.038
G1 F1800 E-0.5
;Layer : 6 of 25
;rapid-leaky
G0 X151.893 Y88.892 Z1.3 F9000
G1 F1800 E0.5
;bead-perimeter_inner
G1 X153.828 Y92.243 F1560 E0.129
G1 X115.075 Y114.618 E1.489
G1 X153.828 Y136.992 E1.488
G1 X151.893 Y140.343 E0.129
G1 X65.965 Y90.733 E3.3
G1 Y82.948 E0.259
G1 X69.835 E0.128
G1 Y88.498 E0.185
G1 X111.205 Y112.383 E1.589
G1 X151.893 Y88.892 E1.562
;rapid-leaky
G0 X152.027 Y88.393 F9000
;bead-perimeter_outer
G1 X154.327 Y92.377 F1080 E0.153
G1 X115.805 Y114.618 E1.48
G1 X154.327 Y136.858 E1.479
G1 X152.027 Y140.842 E0.153
G1 X65.672 Y90.985 E3.317
G1 X65.6 E0.002
G1 Y82.583 E0.28
G1 X70.2 E0.153
G1 Y88.287 E0.189
G1 X111.205 Y111.962 E1.575
G1 X152.027 Y88.393 E1.568
;rapid-leaky
G0 X152.78 Y91.069 F9000
;bead-sparse_infill
G1 X151.978 Y91.889 F3600 E0.038
G1 X151.085 Y92.312 E0.033
G1 X150.193 Y92.345 E0.03
G1 X149.3 Y91.795 E0.035
G1 X148.652 Y91.133 E0.03
G1 X142.369 Y94.76 E0.242
G1 X143.052 Y95.459 E0.032
G1 X143.945 Y95.882 E0.033
G1 X144.838 Y95.915 E0.03
G1 X145.73 Y95.365 E0.035
G1 X146.623 Y94.453 E0.042
G1 X147.515 Y94.03 E0.033
G1 X148.408 Y93.997 E0.03
G1 X149.251 Y94.516 E0.033
G1 X141.957 Y98.728 E0.28
G1 X141.267 Y98.023 E0.033
G1 X140.375 Y97.6 E0.032
G1 X139.482 Y97.567 E0.03
G1 X138.59 Y98.117 E0.035
G1 X137.697 Y99.029 E0.042
G1 X136.805 Y99.452 E0.033
G1 X135.912 Y99.486 E0.03
G1 X135.076 Y98.971 E0.033
G1 X128.782 Y102.605 E0.241
G1 X129.664 Y103.022 E0.033
G1 X130.557 Y103.056 E0.03
G1 X131.449 Y102.506 E0.034
G1 X132.342 Y101.594 E0.043
G1 X133.234 Y101.171 E0.033
G1 X134.127 Y101.137 E0.029
G1 X135.019 Y101.687 E0.035
G1 X135.673 Y102.356 E0.031
G1 X128.532 Y106.479 E0.275
G1 X127.879 Y106.076 E0.025
G1 X126.986 Y105.164 E0.043
G1 X126.094 Y104.741 E0.032
G1 X125.201 Y104.707 E0.03
G1 X124.309 Y105.257 E0.035
G1 X123.416 Y106.17 E0.042
G1 X122.524 Y106.593 E0.033
G1 X121.83 Y106.619 E0.023
G1 X115.672 Y110.174 E0.237
G1 X116.276 Y110.196 E0.02
G1 X117.168 Y109.646 E0.035
G1 X117.924 Y108.873 E0.036
G1 X118.646 Y108.457 E0.028
G1 X118.953 Y108.311 E0.011
G1 X119.846 Y108.278 E0.03
G1 X120.739 Y108.828 E0.034
G1 X121.631 Y109.74 E0.043
G1 X122.319 Y110.066 E0.025
G1 X119.075 Y111.939 E0.125
G1 X118.953 Y111.881 E0.004
G1 X118.061 Y111.848 E0.03
G1 X117.168 Y112.398 E0.035
G1 X116.276 Y113.31 E0.042
G1 X115.383 Y113.733 E0.033
G1 X114.491 Y113.766 E0.03
G1 X113.598 Y113.217 E0.035
G1 X112.705 Y112.304 E0.042
G1 X112.308 Y112.116 E0.015
G1 X111.205 Y112.753 E0.042
G1 X110.3 Y112.23 E0.035
G1 X110.028 Y112.398 E0.011
G1 X109.135 Y113.31 E0.042
G1 X108.243 Y113.733 E0.033
G1 X107.35 Y113.766 E0.029
G1 X106.458 Y113.217 E0.035
G1 X105.565 Y112.304 E0.043
G1 X104.672 Y111.881 E0.033
G1 X103.78 Y111.848 E0.029
G1 X103.488 Y112.027 E0.012
;rapid-leaky
G0 X98.897 Y105.647 F9000
;bead-sparse_infill
G1 X99.317 Y106.076 F3600 E0.02
G1 X100.21 Y106.626 E0.035
G1 X100.57 Y106.612 E0.012
G1 X104.035 Y108.613 E0.133
G1 X103.78 Y108.734 E0.009
G1 X102.887 Y109.646 E0.043
G1 X101.995 Y110.196 E0.034
G1 X101.102 Y110.163 E0.03
G1 X100.21 Y109.74 E0.033
G1 X99.317 Y108.828 E0.042
G1 X98.425 Y108.278 E0.035
G1 X97.532 Y108.311 E0.03
G1 X97.268 Y108.436 E0.01
G1 X94.024 Y106.563 E0.124
G1 X94.854 Y106.17 E0.031
G1 X95.747 Y105.257 E0.042
G1 X96.639 Y104.707 E0.035
G1 X97.314 Y104.733 E0.023
G1 X94.378 Y103.038 E0.112
G1 X93.962 Y103.022 E0.014
G1 X93.069 Y102.599 E0.033
G1 X92.356 Y101.87 E0.034
G1 X91.098 Y101.144 E0.048
G1 X90.392 Y101.171 E0.024
G1 X89.499 Y101.594 E0.033
G1 X88.606 Y102.506 E0.042
G1 X87.828 Y102.986 E0.031
G1 X80.718 Y98.881 E0.273
G1 X81.466 Y98.117 E0.035
G1 X82.359 Y97.567 E0.035
G1 X83.251 Y97.6 E0.03
G1 X84.144 Y98.023 E0.033
G1 X85.036 Y98.936 E0.042
G1 X85.929 Y99.486 E0.035
G1 X86.821 Y99.452 E0.03
G1 X87.561 Y99.102 E0.027
G1 X81.284 Y95.478 E0.241
G1 X80.573 Y95.915 E0.028
G1 X79.681 Y95.882 E0.029
G1 X78.788 Y95.459 E0.033
G1 X77.896 Y94.547 E0.043
G1 X77.003 Y93.997 E0.034
G1 X76.111 Y94.03 E0.03
G1 X75.218 Y94.453 E0.033
G1 X74.435 Y95.254 E0.037
G1 X67.128 Y91.035 E0.281
G1 X67.185 Y90.976 E0.003
G1 X68.078 Y90.427 E0.034
G1 X68.97 Y90.46 E0.03
G1 X69.863 Y90.883 E0.033
G1 X70.755 Y91.795 E0.043
G1 X71.648 Y92.345 E0.034
G1 X72.54 Y92.312 E0.03
G1 X73.433 Y91.889 E0.033
G1 X74.023 Y91.286 E0.028
G1 X69.515 Y88.683 E0.173
G1 Y86.869 E0.06
G1 X68.97 Y86.89 E0.019
G1 X68.078 Y87.313 E0.032
G1 X67.185 Y88.225 E0.043
G1 X66.293 Y88.775 E0.035
G1 X66.285
G1 Y84.752 E0.134
G1 X66.293 Y84.748
G1 X67.156 Y83.866 E0.041
G1 F1800 E-0.5
;rapid-dry
G0 X66.285 Y83.386 F9000
G1 F1800 E0.5
;bead-solid_infill
G1 X66.365 Y83.466 F2400 E0.004
G1 X66.931 E0.019
G1 X66.733 Y83.268 E0.009
G1 X67.298 E0.019
G1 X67.496 Y83.466 E0.009
G1 X68.062 E0.019
G1 X67.864 Y83.268 E0.009
G1 X68.43 E0.019
G1 X68.628 Y83.466 E0.009
G1 X69.193 E0.019
G1 X68.995 Y83.268 E0.01
G1 F1800 E-0.5
;rapid-dry
G0 X69.835 Y80.384 F9000
G1 F1800 E0.5
;bead-perimeter_inner
G1 X65.965 F1560 E0.128
G1 Y79.818 E0.019
G1 X69.835 E0.129
G1 Y80.384 E0.019
;rapid-leaky
G0 X70.2 Y80.749 F9000
;bead-perimeter_outer
G1 X65.6 F1080 E0.153
G1 Y79.453 E0.043
G1 X70.2 E0.153
G1 Y80.749 E0.043
G1 F1800 E-0.5
;rapid-dry
G0 X117.538 Y116.409 F9000
G1 F1800 E0.5
;bead-sparse_infill
G1 X117.168 Y116.787 F3600 E0.017
G1 X116.276 Y117.337 E0.035
G1 X115.383 Y117.303 E0.03
G1 X114.491 Y116.88 E0.033
G1 X113.598 Y115.968 E0.042
G1 X112.705 Y115.418 E0.035
G1 X111.813 Y115.452 E0.03
G1 X110.92 Y115.874 E0.033
G1 X110.643 Y116.158 E0.013
G1 X116.926 Y119.786 E0.241
G1 X117.168 Y119.538 E0.012
G1 X118.061 Y118.988 E0.035
G1 X118.953 Y119.022 E0.029
G1 X119.846 Y119.445 E0.033
G1 X120.739 Y120.357 E0.043
G1 X121.631 Y120.907 E0.034
G1 X122.524 Y120.873 E0.03
G1 X123.416 Y120.451 E0.033
G1 X123.821 Y120.037 E0.019
G1 X131.019 Y124.192 E0.277
G1 X130.557 Y124.477 E0.018
G1 X129.664 Y124.444 E0.029
G1 X128.772 Y124.021 E0.033
G1 X127.879 Y123.108 E0.043
G1 X126.986 Y122.559 E0.035
G1 X126.094 Y122.592 E0.029
G1 X125.201 Y123.015 E0.033
G1 X124.309 Y123.927 E0.043
G1 X124.208 Y123.99 E0.004
G1 X130.496 Y127.62 E0.241
G1 X130.557 Y127.591 E0.002
G1 X131.449 Y126.679 E0.043
G1 X132.342 Y126.129 E0.035
G1 X133.234 Y126.162 E0.029
G1 X134.127 Y126.585 E0.033
G1 X135.019 Y127.497 E0.043
G1 X135.912 Y128.047 E0.035
G1 X136.805 Y128.014 E0.029
G1 X137.262 Y127.797 E0.017
G1 X140.6 Y129.724 E0.128
G1 X140.375 Y129.732 E0.008
G1 X139.482 Y130.155 E0.033
G1 X138.59 Y131.068 E0.042
G1 X137.697 Y131.618 E0.035
G1 X137.401 Y131.606 E0.01
G1 X134.575 Y129.975 E0.108
G1 X134.127 Y129.699 E0.018
G1 X134.099 Y129.7 E0.001
G1 X140.336 Y133.301 E0.239
G1 X140.375 Y133.303 E0.002
G1 X141.267 Y133.726 E0.032
G1 X141.522 Y133.986 E0.013
G1 X143.57 Y135.168 E0.078
G1 X143.945 Y135.154 E0.013
G1 X144.838 Y134.731 E0.033
G1 X145.73 Y133.819 E0.042
G1 X146.623 Y133.269 E0.035
G1 X146.749 Y133.274 E0.004
G1 X143.258 Y131.258 E0.134
G1 X143.052 Y131.161 E0.008
G1 X143.005 Y131.112 E0.002
;rapid-leaky
G0 X146.97 Y137.131 F9000
;bead-sparse_infill
G1 X147.515 Y136.873 F3600 E0.02
G1 X148.408 Y136.839 E0.03
G1 X149.3 Y137.389 E0.035
G1 X150.193 Y138.302 E0.042
G1 X151.085 Y138.725 E0.033
G1 X151.978 Y138.758 E0.03
G1 X152.693 Y138.317 E0.028
G1 F1800 E-0.5
;Layer : 7 of 25
;rapid-leaky
G0 X153.828 Y136.992 Z1.5 F9000
G1 F1800 E0.5
;bead-perimeter_inner
G1 X151.893 Y140.343 F1560 E0.128
G1 X65.965 Y90.733 E3.3
G1 Y83.23 E0.25
G1 X69.835 E0.129
G1 Y88.498 E0.175
G1 X111.205 Y112.383 E1.589
G1 X151.893 Y88.892 E1.562
G1 X153.828 Y92.243 E0.129
G1 X115.075 Y114.618 E1.488
G1 X153.828 Y136.992 E1.489
;rapid-leaky
G0 X154.327 Y136.858 F9000
;bead-perimeter_outer
G1 X152.027 Y140.842 F1080 E0.153
G1 X65.672 Y90.985 E3.316
G1 X65.6 E0.003
G1 Y82.865 E0.27
G1 X70.2 E0.153
G1 Y88.287 E0.18
G1 X111.205 Y111.962 E1.575
G1 X152.027 Y88.393 E1.568
G1 X154.327 Y92.377 E0.153
G1 X115.805 Y114.618 E1.479
G1 X154.327 Y136.858 E1.48
;rapid-leaky
G0 X152.899 Y137.961 F9000
;bead-sparse_infill
G1 X152.871 Y137.986 F3600 E0.001
G1 X151.978 Y138.613 E0.036
G1 X151.085 Y138.699 E0.03
G1 X150.193 Y138.398 E0.031
G1 X149.3 Y137.611 E0.04
G1 X148.408 Y136.985 E0.036
G1 X147.515 Y136.899 E0.03
G1 X146.917 Y137.1 E0.021
;rapid-leaky
G0 X142.666 Y130.917 F9000
;bead-sparse_infill
G1 X143.052 Y131.257 F3600 E0.017
G1 X143.541 Y131.422 E0.017
G1 X146.939 Y133.384 E0.131
G1 X146.623 Y133.414 E0.01
G1 X145.73 Y134.041 E0.036
G1 X144.838 Y134.828 E0.04
G1 X143.945 Y135.129 E0.031
G1 X143.412 Y135.077 E0.018
G1 X141.956 Y134.237 E0.056
G1 X141.267 Y133.629 E0.031
G1 X140.395 Y133.335 E0.03
G1 X137.244 Y131.516 E0.121
G1 X137.697 Y131.472 E0.015
G1 X138.59 Y130.846 E0.037
G1 X139.482 Y130.059 E0.039
G1 X140.375 Y129.758 E0.032
G1 X140.716 Y129.791 E0.011
G1 X137.302 Y127.82 E0.131
G1 X136.805 Y127.988 E0.018
G1 X135.912 Y127.902 E0.029
G1 X135.019 Y127.276 E0.037
G1 X134.127 Y126.489 E0.039
G1 X133.234 Y126.188 E0.032
G1 X132.342 Y126.274 E0.029
G1 X131.449 Y126.9 E0.037
G1 X130.579 Y127.668 E0.038
G1 X124.041 Y123.893 E0.251
G1 X124.309 Y123.705 E0.011
G1 X125.201 Y122.919 E0.04
G1 X126.094 Y122.618 E0.031
G1 X126.986 Y122.704 E0.03
G1 X127.879 Y123.33 E0.036
G1 X128.772 Y124.117 E0.04
G1 X129.664 Y124.418 E0.031
G1 X130.557 Y124.332 E0.03
G1 X130.874 Y124.109 E0.013
G1 X123.926 Y120.097 E0.267
G1 X123.416 Y120.547 E0.022
G1 X122.524 Y120.848 E0.032
G1 X121.631 Y120.762 E0.029
G1 X120.739 Y120.135 E0.037
G1 X119.846 Y119.349 E0.039
G1 X118.953 Y119.047 E0.032
G1 X118.061 Y119.133 E0.029
G1 X117.168 Y119.76 E0.037
G1 X117.055 Y119.86 E0.005
G1 X110.55 Y116.105 E0.25
G1 X110.92 Y115.778 E0.016
G1 X111.813 Y115.477 E0.031
G1 X112.705 Y115.563 E0.03
G1 X113.598 Y116.19 E0.036
G1 X114.491 Y116.976 E0.04
G1 X115.383 Y117.278 E0.031
G1 X116.276 Y117.192 E0.03
G1 X117.168 Y116.565 E0.036
G1 X117.421 Y116.342 E0.012
G1 F1800 E-0.5
;rapid-dry
G0 X115.806 Y110.096 F9000
G1 F1800 E0.5
;bead-sparse_infill
G1 X116.276 Y110.051 F3600 E0.015
G1 X117.168 Y109.425 E0.037
G1 X117.545 Y109.092 E0.016
G1 X118.714 Y108.418 E0.045
G1 X118.953 Y108.337 E0.009
G1 X119.846 Y108.423 E0.029
G1 X120.739 Y109.049 E0.037
G1 X121.631 Y109.836 E0.039
G1 X122.317 Y110.067 E0.024
G1 X119.065 Y111.945 E0.125
G1 X118.953 Y111.907 E0.004
G1 X118.061 Y111.993 E0.03
G1 X117.168 Y112.62 E0.036
G1 X116.276 Y113.406 E0.04
G1 X115.383 Y113.707 E0.031
G1 X114.491 Y113.621 E0.03
G1 X113.598 Y112.995 E0.036
G1 X112.705 Y112.208 E0.04
G1 X112.354 Y112.09 E0.012
G1 X111.205 Y112.753 E0.044
G1 X110.455 Y112.32 E0.029
G1 X110.028 Y112.62 E0.017
G1 X109.135 Y113.406 E0.04
G1 X108.243 Y113.707 E0.031
G1 X107.35 Y113.621 E0.03
G1 X106.458 Y112.995 E0.036
G1 X105.565 Y112.208 E0.04
G1 X104.672 Y111.907 E0.031
G1 X103.78 Y111.993 E0.03
G1 X103.621 Y112.104 E0.007
G1 X97.257 Y108.43 E0.244
G1 X97.532 Y108.337 E0.01
G1 X98.425 Y108.423 E0.03
G1 X99.317 Y109.049 E0.036
G1 X100.21 Y109.836 E0.039
G1 X101.102 Y110.137 E0.032
G1 X101.995 Y110.051 E0.029
G1 X102.887 Y109.425 E0.037
G1 X103.78 Y108.638 E0.039
G1 X103.968 Y108.574 E0.007
G1 X100.368 Y106.496 E0.138
G1 X100.21 Y106.481 E0.005
G1 X99.599 Y106.052 E0.025
G1 X97.395 Y104.78 E0.085
G1 X96.639 Y104.853 E0.025
G1 X95.747 Y105.479 E0.036
G1 X94.854 Y106.266 E0.04
G1 X94.005 Y106.552 E0.03
G1 X87.7 Y102.912 E0.242
G1 X87.714 Y102.911
G1 X88.606 Y102.284 E0.037
G1 X89.499 Y101.497 E0.039
G1 X90.392 Y101.196 E0.032
G1 X91.284 Y101.282 E0.029
G1 X92.177 Y101.909 E0.037
G1 X93.069 Y102.696 E0.039
G1 X93.962 Y102.997 E0.032
G1 X94.257 Y102.968 E0.009
G1 X87.643 Y99.149 E0.255
G1 X86.821 Y99.426 E0.028
G1 X85.929 Y99.34 E0.03
G1 X85.036 Y98.714 E0.036
G1 X84.144 Y97.927 E0.04
G1 X83.251 Y97.626 E0.031
G1 X82.359 Y97.712 E0.03
G1 X81.466 Y98.339 E0.036
G1 X80.798 Y98.927 E0.03
G1 X74.289 Y95.169 E0.25
G1 X74.326 Y95.144 E0.002
G1 X75.218 Y94.357 E0.039
G1 X76.111 Y94.056 E0.031
G1 X77.003 Y94.142 E0.03
G1 X77.896 Y94.768 E0.037
G1 X78.788 Y95.555 E0.039
G1 X79.681 Y95.856 E0.031
G1 X80.573 Y95.77 E0.03
G1 X81.123 Y95.385 E0.023
G1 X74.146 Y91.357 E0.268
G1 X73.433 Y91.985 E0.031
G1 X72.54 Y92.286 E0.031
G1 X71.648 Y92.2 E0.03
G1 X70.755 Y91.573 E0.037
G1 X69.863 Y90.787 E0.039
G1 X68.97 Y90.486 E0.031
G1 X68.078 Y90.572 E0.03
G1 X67.287 Y91.127 E0.032
G1 X66.285 Y90.548 E0.039
G1 Y88.63 E0.064
G1 X66.293
G1 X67.185 Y88.003 E0.036
G1 X68.078 Y87.216 E0.04
G1 X68.97 Y86.915 E0.031
G1 X69.515 Y86.968 E0.018
G1 Y83.55 E0.114
G1 X67.908 E0.053
G1 X67.185 Y84.058 E0.03
G1 X66.293 Y84.844 E0.039
G1 X66.285 Y84.847 E0.001
G1 F1800 E-0.5
;rapid-dry
G0 X65.965 Y80.102 F9000
G1 F1800 E0.5
;bead-perimeter_inner
G1 Y79.708 F1560 E0.013
G1 X69.835 E0.128
G1 Y80.102 E0.014
G1 X65.965 E0.128
;rapid-leaky
G0 X65.6 Y80.467 F9000
;bead-perimeter_outer
G1 Y79.343 F1080 E0.038
G1 X70.2 E0.153
G1 Y80.467 E0.037
G1 X65.6 E0.153
G1 F1800 E-0.5
;rapid-dry
G0 X122.006 Y106.517 F9000
G1 F1800 E0.5
;bead-sparse_infill
G1 X122.524 Y106.567 F3600 E0.017
G1 X123.416 Y106.266 E0.032
G1 X124.309 Y105.479 E0.039
G1 X125.201 Y104.853 E0.036
G1 X126.094 Y104.767 E0.03
G1 X126.986 Y105.068 E0.032
G1 X127.879 Y105.854 E0.039
G1 X128.662 Y106.404 E0.032
G1 X135.585 Y102.407 E0.266
G1 X135.019 Y101.909 E0.025
G1 X134.127 Y101.282 E0.036
G1 X133.234 Y101.196 E0.03
G1 X132.342 Y101.497 E0.031
G1 X131.449 Y102.284 E0.04
G1 X130.557 Y102.911 E0.036
G1 X129.664 Y102.997 E0.03
G1 X128.772 Y102.696 E0.031
G1 X128.713 Y102.644 E0.003
G1 X135.246 Y98.873 E0.251
G1 X135.912 Y99.34 E0.027
G1 X136.805 Y99.426 E0.03
G1 X137.697 Y99.125 E0.031
G1 X138.59 Y98.339 E0.04
G1 X139.482 Y97.712 E0.036
G1 X140.375 Y97.626 E0.03
G1 X141.267 Y97.927 E0.031
G1 X142.089 Y98.651 E0.037
G1 X149.081 Y94.615 E0.268
G1 X148.408 Y94.142 E0.027
G1 X147.515 Y94.056 E0.03
G1 X146.623 Y94.357 E0.032
G1 X145.73 Y95.144 E0.039
G1 X144.838 Y95.77 E0.036
G1 X143.945 Y95.856 E0.03
G1 X143.052 Y95.555 E0.032
G1 X142.237 Y94.836 E0.036
G1 X148.742 Y91.081 E0.25
G1 X149.3 Y91.573 E0.024
G1 X150.193 Y92.2 E0.037
G1 X151.085 Y92.286 E0.029
G1 X151.978 Y91.985 E0.032
G1 X152.86 Y91.207 E0.039
G1 F1800 E-0.5
;Layer : 8 of 25
;rapid-leaky
G0 X153.828 Y92.243 Z1.7 F9000
G1 F1800 E0.5
;bead-perimeter_inner
G1 X115.075 Y114.618 F1560 E1.488
G1 X153.828 Y136.992 E1.488
G1 X151.893 Y140.343 E0.129
G1 X65.965 Y90.733 E3.3
G1 Y83.431 E0.243
G1 X69.835 E0.129
G1 Y88.498 E0.168
G1 X111.205 Y112.383 E1.589
G1 X151.893 Y88.892 E1.563
G1 X153.828 Y92.243 E0.129
;rapid-leaky
G0 X154.327 Y92.377 F9000
;bead-perimeter_outer
G1 X115.805 Y114.618 F1080 E1.479
G1 X154.327 Y136.858 E1.48
G1 X152.027 Y140.842 E0.153
G1 X65.672 Y90.985 E3.316
G1 X65.6 E0.002
G1 Y83.066 E0.264
G1 X70.2 E0.153
G1 Y88.287 E0.174
G1 X111.205 Y111.962 E1.574
G1 X152.027 Y88.393 E1.568
G1 X154.327 Y92.377 E0.153
;rapid-leaky
G0 X152.94 Y91.345 F9000
;bead-sparse_infill
G1 X152.871 Y91.401 F3600 E0.003
G1 X151.978 Y92.094 E0.038
G1 X151.085 Y92.278 E0.03
G1 X150.193 Y92.077 E0.03
G1 X149.3 Y91.371 E0.038
G1 X148.848 Y91.02 E0.019
G1 X142.094 Y94.919 E0.26
G1 X142.16 Y94.971 E0.002
G1 X143.052 Y95.664 E0.038
G1 X143.945 Y95.849 E0.03
G1 X144.838 Y95.647 E0.031
G1 X145.73 Y94.941 E0.038
G1 X146.623 Y94.248 E0.037
G1 X147.515 Y94.063 E0.031
G1 X148.408 Y94.265 E0.03
G1 X148.947 Y94.692 E0.023
G1 X142.232 Y98.569 E0.258
G1 X142.16 Y98.511 E0.003
G1 X141.267 Y97.818 E0.037
G1 X140.375 Y97.634 E0.031
G1 X139.482 Y97.835 E0.03
G1 X138.59 Y98.541 E0.038
G1 X137.697 Y99.234 E0.038
G1 X136.805 Y99.419 E0.03
G1 X135.912 Y99.217 E0.03
G1 X135.379 Y98.796 E0.023
G1 X128.628 Y102.693 E0.259
G1 X128.772 Y102.805 E0.006
G1 X129.664 Y102.989 E0.031
G1 X130.557 Y102.787 E0.03
G1 X131.449 Y102.082 E0.038
G1 X132.342 Y101.388 E0.037
G1 X133.234 Y101.204 E0.031
G1 X134.127 Y101.406 E0.03
G1 X135.019 Y102.111 E0.038
G1 X135.479 Y102.468 E0.019
G1 X128.759 Y106.348 E0.258
G1 X127.879 Y105.652 E0.038
G1 X126.986 Y104.959 E0.037
G1 X126.094 Y104.774 E0.031
G1 X125.201 Y104.976 E0.03
G1 X124.309 Y105.682 E0.038
G1 X123.416 Y106.375 E0.038
G1 X122.524 Y106.559 E0.03
G1 X122.099 Y106.463 E0.014
G1 X115.984 Y109.994 E0.235
G1 X116.276 Y109.928 E0.01
G1 X116.756 Y109.548 E0.02
G1 X118.778 Y108.381 E0.078
G1 X118.953 Y108.344 E0.006
G1 X119.846 Y108.546 E0.031
G1 X120.739 Y109.252 E0.037
G1 X121.631 Y109.945 E0.038
G1 X122.292 Y110.082 E0.022
G1 X119.074 Y111.94 E0.124
G1 X118.953 Y111.915 E0.004
G1 X118.061 Y112.116 E0.031
G1 X117.168 Y112.822 E0.037
G1 X116.276 Y113.515 E0.038
G1 X115.383 Y113.7 E0.03
G1 X114.491 Y113.498 E0.031
G1 X113.598 Y112.792 E0.038
G1 X112.705 Y112.099 E0.037
G1 X112.435 Y112.043 E0.009
G1 X111.205 Y112.753 E0.048
G1 X110.575 Y112.389 E0.024
G1 X110.028 Y112.822 E0.023
G1 X109.135 Y113.515 E0.038
G1 X108.243 Y113.7 E0.03
G1 X107.35 Y113.498 E0.03
G1 X106.458 Y112.792 E0.038
G1 X105.565 Y112.099 E0.038
G1 X104.672 Y111.915 E0.03
G1 X103.78 Y112.116 E0.031
G1 X103.722 Y112.162 E0.002
G1 X97.221 Y108.409 E0.25
G1 X97.532 Y108.344 E0.01
G1 X98.425 Y108.546 E0.031
G1 X99.317 Y109.252 E0.038
G1 X100.21 Y109.945 E0.037
G1 X101.102 Y110.13 E0.03
G1 X101.995 Y109.928 E0.031
G1 X102.887 Y109.222 E0.038
G1 X103.78 Y108.529 E0.037
G1 X103.86 Y108.512 E0.003
G1 X97.427 Y104.798 E0.247
G1 X96.639 Y104.976 E0.027
G1 X95.747 Y105.682 E0.038
G1 X94.854 Y106.375 E0.037
G1 X94.003 Y106.551 E0.029
G1 X91.398 Y105.047 E0.1
G1 X91.284 Y104.959 E0.005
G1 X91.223 Y104.946 E0.002
G1 X87.549 Y102.825 E0.141
G1 X87.714 Y102.787 E0.006
G1 X88.606 Y102.082 E0.038
G1 X89.499 Y101.388 E0.037
G1 X90.392 Y101.204 E0.031
G1 X91.284 Y101.406 E0.03
G1 X92.177 Y102.111 E0.038
G1 X93.069 Y102.805 E0.038
G1 X93.962 Y102.989 E0.03
G1 X94.2 Y102.935 E0.008
G1 X87.747 Y99.209 E0.248
G1 X87.714 Y99.234 E0.001
G1 X86.821 Y99.419 E0.031
G1 X85.929 Y99.217 E0.03
G1 X85.036 Y98.511 E0.038
G1 X84.144 Y97.818 E0.037
G1 X83.251 Y97.634 E0.031
G1 X82.359 Y97.835 E0.03
G1 X81.466 Y98.541 E0.038
G1 X80.896 Y98.984 E0.024
G1 X74.143 Y95.085 E0.259
G1 X74.326 Y94.941 E0.008
G1 X75.218 Y94.248 E0.038
G1 X76.111 Y94.063 E0.03
G1 X77.003 Y94.265 E0.03
G1 X77.896 Y94.971 E0.038
G1 X78.788 Y95.664 E0.038
G1 X79.681 Y95.849 E0.03
G1 X80.573 Y95.647 E0.031
G1 X80.997 Y95.312 E0.018
G1 X74.281 Y91.435 E0.257
G1 X73.433 Y92.094 E0.036
G1 X72.54 Y92.278 E0.03
G1 X71.648 Y92.077 E0.031
G1 X70.755 Y91.371 E0.038
G1 X69.863 Y90.678 E0.037
G1 X68.97 Y90.493 E0.031
G1 X68.078 Y90.695 E0.03
G1 X67.428 Y91.208 E0.028
G1 X66.285 Y90.548 E0.044
G1 Y88.508 E0.067
G1 X66.293 Y88.506 E0.001
G1 X67.185 Y87.801 E0.038
G1 X68.078 Y87.107 E0.037
G1 X68.97 Y86.923 E0.03
G1 X69.515 Y87.046 E0.019
G1 Y83.751 E0.11
G1 X67.829 E0.056
G1 X67.185 Y84.26 E0.027
G1 X66.293 Y84.953 E0.038
G1 X66.285 Y84.955
G1 F1800 E-0.5
;rapid-dry
G0 X65.965 Y79.902 F9000
G1 F1800 E0.5
;bead-perimeter_inner
G1 Y79.62 F1560 E0.009
G1 X69.835 E0.129
G1 Y79.902 E0.009
G1 X65.965 E0.129
;rapid-leaky
G0 X65.6 Y80.267 F9000
;bead-perimeter_outer
G1 Y79.255 F1080 E0.034
G1 X70.2 E0.153
G1 Y80.267 E0.033
G1 X65.6 E0.153
G1 F1800 E-0.5
;rapid-dry
G0 X117.291 Y116.267 F9000
G1 F1800 E0.5
;bead-sparse_infill
G1 X117.168 Y116.362 F3600 E0.006
G1 X116.276 Y117.068 E0.037
G1 X115.383 Y117.27 E0.031
G1 X114.491 Y117.085 E0.03
G1 X113.598 Y116.392 E0.038
G1 X112.705 Y115.686 E0.038
G1 X111.813 Y115.485 E0.03
G1 X110.92 Y115.669 E0.03
G1 X110.441 Y116.042 E0.02
G1 X117.195 Y119.941 E0.26
G1 X118.061 Y119.257 E0.037
G1 X118.953 Y119.055 E0.03
G1 X119.846 Y119.24 E0.03
G1 X120.739 Y119.933 E0.038
G1 X121.631 Y120.639 E0.038
G1 X122.524 Y120.84 E0.03
G1 X123.416 Y120.656 E0.031
G1 X124.046 Y120.167 E0.026
G1 X130.764 Y124.045 E0.258
G1 X130.557 Y124.209 E0.009
G1 X129.664 Y124.41 E0.03
G1 X128.772 Y124.226 E0.031
G1 X127.879 Y123.533 E0.037
G1 X126.986 Y122.827 E0.038
G1 X126.094 Y122.625 E0.03
G1 X125.201 Y122.81 E0.031
G1 X124.309 Y123.503 E0.037
G1 X123.91 Y123.818 E0.017
G1 X130.661 Y127.715 E0.259
G1 X131.449 Y127.103 E0.034
G1 X132.342 Y126.397 E0.038
G1 X133.234 Y126.195 E0.03
G1 X134.127 Y126.38 E0.03
G1 X135.019 Y127.073 E0.038
G1 X135.912 Y127.779 E0.038
G1 X136.805 Y127.981 E0.03
G1 X137.376 Y127.863 E0.02
G1 X140.863 Y129.876 E0.133
G1 X140.375 Y129.766 E0.017
G1 X139.482 Y129.95 E0.03
G1 X138.59 Y130.643 E0.038
G1 X137.697 Y131.349 E0.038
G1 X137.164 Y131.47 E0.018
G1 X140.408 Y133.343 E0.125
G1 X141.267 Y133.52 E0.029
G1 X142.16 Y134.214 E0.037
G1 X142.819 Y134.735 E0.028
G1 X143.194 Y134.952 E0.015
G1 X143.945 Y135.121 E0.025
G1 X144.838 Y134.937 E0.031
G1 X145.73 Y134.243 E0.037
G1 X146.623 Y133.538 E0.038
G1 X147.041 Y133.443 E0.014
G1 X143.663 Y131.493 E0.13
G1 X143.052 Y131.366 E0.021
G1 X142.16 Y130.673 E0.037
G1 X141.933 Y130.494 E0.01
;rapid-leaky
G0 X146.827 Y137.048 F9000
;bead-sparse_infill
G1 X147.515 Y136.906 F3600 E0.023
G1 X148.408 Y137.108 E0.031
G1 X149.3 Y137.814 E0.038
G1 X150.193 Y138.507 E0.037
G1 X151.085 Y138.691 E0.031
G1 X151.978 Y138.49 E0.03
G1 X152.871 Y137.784 E0.038
G1 X153.108 Y137.6 E0.01
G1 F1800 E-0.5
;Layer : 9 of 25
;rapid-leaky
G0 X153.828 Y136.992 Z1.9 F9000
G1 F1800 E0.5
;bead-perimeter_inner
G1 X151.893 Y140.343 F1560 E0.129
G1 X65.965 Y90.733 E3.3
G1 Y83.54 E0.239
G1 X69.835 E0.129
G1 Y88.498 E0.165
G1 X111.205 Y112.383 E1.589
G1 X151.893 Y88.892 E1.562
G1 X153.828 Y92.243 E0.129
G1 X115.075 Y114.618 E1.488
G1 X153.828 Y136.992 E1.489
;rapid-leaky
G0 X154.327 Y136.858 F9000
;bead-perimeter_outer
G1 X152.027 Y140.842 F1080 E0.153
G1 X65.672 Y90.985 E3.316
G1 X65.6 E0.002
G1 Y83.175 E0.26
G1 X70.2 E0.153
G1 Y88.287 E0.17
G1 X111.205 Y111.962 E1.575
G1 X152.027 Y88.393 E1.568
G1 X154.327 Y92.377 E0.153
G1 X115.805 Y114.618 E1.479
G1 X154.327 Y136.858 E1.48
;rapid-leaky
G0 X153.283 Y137.295 F9000
;bead-sparse_infill
G1 X152.871 Y137.58 F3600 E0.016
G1 X151.978 Y138.383 E0.04
G1 X151.085 Y138.702 E0.032
G1 X150.193 Y138.633 E0.03
G1 X149.3 Y138.018 E0.036
G1 X148.408 Y137.215 E0.04
G1 X147.515 Y136.896 E0.031
G1 X146.674 Y136.961 E0.028
;rapid-leaky
G0 X141.376 Y130.172 F9000
;bead-sparse_infill
G1 X142.16 Y130.877 F3600 E0.035
G1 X143.052 Y131.492 E0.036
G1 X143.757 Y131.547 E0.024
G1 X147.097 Y133.475 E0.128
G1 X146.623 Y133.644 E0.017
G1 X145.73 Y134.447 E0.04
G1 X144.838 Y135.063 E0.036
G1 X143.945 Y135.131 E0.03
G1 X143.052 Y134.813 E0.031
G1 X142.16 Y134.01 E0.04
G1 X141.267 Y133.394 E0.036
G1 X140.379 Y133.326 E0.03
G1 X137.124 Y131.447 E0.125
G1 X137.697 Y131.242 E0.02
G1 X138.59 Y130.439 E0.04
G1 X139.482 Y129.824 E0.036
G1 X140.375 Y129.756 E0.03
G1 X141.108 Y130.017 E0.026
G1 X137.505 Y127.937 E0.138
G1 X136.805 Y127.991 E0.023
G1 X135.912 Y127.672 E0.032
G1 X135.019 Y126.869 E0.04
G1 X134.127 Y126.254 E0.036
G1 X133.234 Y126.185 E0.03
G1 X132.342 Y126.504 E0.031
G1 X131.449 Y127.307 E0.04
G1 X130.767 Y127.777 E0.028
G1 X123.802 Y123.755 E0.267
G1 X124.309 Y123.299 E0.023
G1 X125.201 Y122.684 E0.036
G1 X126.094 Y122.615 E0.03
G1 X126.986 Y122.934 E0.031
G1 X127.879 Y123.737 E0.04
G1 X128.772 Y124.352 E0.036
G1 X129.664 Y124.421 E0.03
G1 X130.557 Y124.102 E0.031
G1 X130.676 Y123.995 E0.006
G1 X124.189 Y120.249 E0.249
G1 X123.416 Y120.782 E0.031
G1 X122.524 Y120.85 E0.03
G1 X121.631 Y120.532 E0.031
G1 X120.739 Y119.729 E0.04
G1 X119.846 Y119.113 E0.036
G1 X118.953 Y119.045 E0.03
G1 X118.061 Y119.364 E0.032
G1 X117.331 Y120.02 E0.032
G1 X110.309 Y115.965 E0.27
G1 X110.92 Y115.543 E0.025
G1 X111.813 Y115.475 E0.03
G1 X112.705 Y115.793 E0.031
G1 X113.598 Y116.596 E0.04
G1 X114.491 Y117.212 E0.036
G1 X115.383 Y117.28 E0.03
G1 X116.276 Y116.961 E0.031
G1 X117.143 Y116.181 E0.039
G1 F1800 E-0.5
;rapid-dry
G0 X153.015 Y91.475 F9000
G1 F1800 E0.5
;bead-sparse_infill
G1 X152.871 Y91.605 F3600 E0.007
G1 X151.978 Y92.22 E0.036
G1 X151.085 Y92.289 E0.029
G1 X150.193 Y91.97 E0.032
G1 X149.3 Y91.167 E0.04
G1 X148.978 Y90.945 E0.013
G1 X141.961 Y94.996 E0.269
G1 X142.16 Y95.175 E0.009
G1 X143.052 Y95.79 E0.036
G1 X143.945 Y95.859 E0.03
G1 X144.838 Y95.54 E0.032
G1 X145.73 Y94.737 E0.04
G1 X146.623 Y94.122 E0.036
G1 X147.515 Y94.053 E0.029
G1 X148.408 Y94.372 E0.032
G1 X148.835 Y94.756 E0.019
G1 X142.365 Y98.492 E0.249
G1 X142.16 Y98.307 E0.009
G1 X141.267 Y97.692 E0.036
G1 X140.375 Y97.623 E0.03
G1 X139.482 Y97.942 E0.031
G1 X138.59 Y98.745 E0.04
G1 X137.697 Y99.36 E0.036
G1 X136.805 Y99.429 E0.03
G1 X135.912 Y99.11 E0.031
G1 X135.491 Y98.731 E0.019
G1 X128.519 Y102.757 E0.268
G1 X128.772 Y102.931 E0.01
G1 X129.664 Y102.999 E0.03
G1 X130.557 Y102.681 E0.032
G1 X131.449 Y101.878 E0.039
G1 X132.342 Y101.262 E0.037
G1 X133.234 Y101.194 E0.029
G1 X134.127 Y101.512 E0.032
G1 X135.019 Y102.315 E0.04
G1 X135.349 Y102.543 E0.013
G1 X128.868 Y106.285 E0.249
G1 X128.772 Y106.251 E0.003
G1 X127.879 Y105.448 E0.04
G1 X126.986 Y104.833 E0.036
G1 X126.094 Y104.764 E0.03
G1 X125.201 Y105.083 E0.032
G1 X124.309 Y105.886 E0.04
G1 X123.416 Y106.501 E0.036
G1 X122.524 Y106.569 E0.029
G1 X122.148 Y106.435 E0.014
G1 X118.844 Y108.343 E0.127
G1 X118.953 Y108.334 E0.003
G1 X119.846 Y108.653 E0.032
G1 X120.739 Y109.456 E0.04
G1 X121.631 Y110.071 E0.036
G1 X122.23 Y110.117 E0.02
G1 X119.114 Y111.917 E0.119
G1 X118.953 Y111.904 E0.006
G1 X118.061 Y112.223 E0.031
G1 X117.168 Y113.026 E0.04
G1 X117.044 Y113.112 E0.005
G1 X116.104 Y113.655 E0.036
G1 X115.383 Y113.71 E0.024
G1 X114.491 Y113.391 E0.032
G1 X113.598 Y112.588 E0.04
G1 X112.705 Y111.973 E0.036
G1 X112.573 Y111.963 E0.004
G1 X111.205 Y112.753 E0.053
G1 X110.673 Y112.446 E0.02
G1 X110.028 Y113.026 E0.029
G1 X109.135 Y113.641 E0.036
G1 X108.243 Y113.71 E0.03
G1 X107.35 Y113.391 E0.032
G1 X106.458 Y112.588 E0.039
G1 X105.565 Y111.973 E0.037
G1 X104.672 Y111.904 E0.029
G1 X103.809 Y112.213 E0.031
G1 X97.143 Y108.364 E0.256
G1 X97.532 Y108.334 E0.013
G1 X98.425 Y108.653 E0.031
G1 X99.317 Y109.456 E0.04
G1 X100.21 Y110.071 E0.036
G1 X101.102 Y110.14 E0.03
G1 X101.995 Y109.821 E0.032
G1 X102.887 Y109.018 E0.04
G1 X103.73 Y108.437 E0.034
G1 X97.431 Y104.8 E0.241
G1 X96.639 Y105.083 E0.028
G1 X95.747 Y105.886 E0.04
G1 X94.854 Y106.501 E0.036
G1 X94.026 Y106.565 E0.028
G1 X92.328 Y105.584 E0.065
G1 X92.177 Y105.448 E0.007
G1 X91.284 Y104.833 E0.036
G1 X90.987 Y104.81 E0.01
G1 X87.458 Y102.772 E0.136
G1 X87.714 Y102.681 E0.009
G1 X88.606 Y101.878 E0.04
G1 X89.499 Y101.262 E0.036
G1 X90.392 Y101.194 E0.029
G1 X91.284 Y101.512 E0.032
G1 X92.177 Y102.315 E0.04
G1 X93.069 Y102.931 E0.036
G1 X93.962 Y102.999 E0.03
G1 X94.178 Y102.922 E0.007
G1 X87.848 Y99.268 E0.243
G1 X87.714 Y99.36 E0.006
G1 X86.821 Y99.429 E0.03
G1 X85.929 Y99.11 E0.031
G1 X85.036 Y98.307 E0.04
G1 X84.144 Y97.692 E0.036
G1 X83.251 Y97.623 E0.03
G1 X82.359 Y97.942 E0.031
G1 X81.466 Y98.745 E0.04
G1 X81.018 Y99.054 E0.018
G1 X74.019 Y95.013 E0.269
G1 X74.326 Y94.737 E0.014
G1 X75.218 Y94.122 E0.036
G1 X76.111 Y94.053 E0.03
G1 X77.003 Y94.372 E0.031
G1 X77.896 Y95.175 E0.04
G1 X78.788 Y95.79 E0.036
G1 X79.681 Y95.859 E0.03
G1 X80.573 Y95.54 E0.032
G1 X80.893 Y95.252 E0.014
G1 X74.423 Y91.517 E0.248
G1 X74.326 Y91.605 E0.005
G1 X73.433 Y92.22 E0.036
G1 X72.54 Y92.289 E0.03
G1 X71.648 Y91.97 E0.031
G1 X70.755 Y91.167 E0.04
G1 X69.863 Y90.552 E0.036
G1 X68.97 Y90.483 E0.03
G1 X68.078 Y90.802 E0.031
G1 X67.549 Y91.278 E0.024
G1 X66.285 Y90.548 E0.049
G1 Y88.402 E0.071
G1 X66.293 Y88.4
G1 X67.185 Y87.597 E0.04
G1 X68.078 Y86.981 E0.036
G1 X68.97 Y86.913 E0.03
G1 X69.515 Y87.107 E0.019
G1 Y83.86 E0.108
G1 X67.857 E0.055
G1 X67.185 Y84.464 E0.03
G1 X66.293 Y85.08 E0.037
G1 X66.285
G1 F1800 E-0.5
;rapid-dry
G0 X65.965 Y79.792 F9000
G1 F1800 E0.5
;bead-perimeter_inner
G1 Y79.551 F1560 E0.008
G1 X69.835 E0.128
G1 Y79.792 E0.008
G1 X65.965 E0.129
;rapid-leaky
G0 X65.6 Y80.157 F9000
;bead-perimeter_outer
G1 Y79.186 F1080 E0.032
G1 X70.2 E0.154
G1 Y80.157 E0.032
G1 X65.6 E0.153
G1 F1800 E-0.5
;Layer : 10 of 25
;rapid-dry
G0 X65.965 Y79.69 Z2.1 F9000
G1 F1800 E0.5
;bead-perimeter_inner
G1 Y79.501 F1560 E0.006
G1 X69.835 E0.129
G1 Y79.69 E0.006
G1 X65.965 E0.129
;rapid-leaky
G0 X65.6 Y80.055 F9000
;bead-perimeter_outer
G1 Y79.136 F1080 E0.03
G1 X70.2 E0.153
G1 Y80.055 E0.031
G1 X65.6 E0.153
G1 F1800 E-0.5
;rapid-dry
G0 X65.965 Y83.642 F9000
G1 F1800 E0.5
;bead-perimeter_inner
G1 X69.835 F1560 E0.129
G1 Y88.498 E0.161
G1 X111.205 Y112.383 E1.589
G1 X151.893 Y88.892 E1.563
G1 X153.828 Y92.243 E0.128
G1 X115.075 Y114.618 E1.489
G1 X153.828 Y136.992 E1.488
G1 X151.893 Y140.343 E0.129
G1 X65.965 Y90.733 E3.3
G1 Y83.642 E0.236
;rapid-leaky
G0 X65.6 Y83.277 F9000
;bead-perimeter_outer
G1 X70.2 F1080 E0.153
G1 Y88.287 E0.166
G1 X111.205 Y111.962 E1.575
G1 X152.027 Y88.393 E1.568
G1 X154.327 Y92.377 E0.153
G1 X115.805 Y114.618 E1.479
G1 X154.327 Y136.858 E1.48
G1 X152.027 Y140.842 E0.153
G1 X65.672 Y90.985 E3.316
G1 X65.6 E0.003
G1 Y83.277 E0.256
;rapid-leaky
G0 X66.285 Y85.228 F9000
;bead-sparse_infill
G1 X66.293 Y85.229 F3600
G1 X67.185 Y84.691 E0.035
G1 X67.881 Y83.962 E0.034
G1 X69.515 E0.054
G1 Y87.154 E0.106
G1 X68.97 Y86.884 E0.02
G1 X68.078 Y86.832 E0.03
G1 X67.185 Y87.37 E0.035
G1 X66.293 Y88.305 E0.043
G1 X66.285 Y88.309
G1 Y90.548 E0.074
G1 X67.655 Y91.339 E0.053
G1 X68.078 Y90.896 E0.02
G1 X68.97 Y90.455 E0.034
G1 X69.863 Y90.403 E0.029
G1 X70.755 Y90.94 E0.035
G1 X71.648 Y91.875 E0.043
G1 X72.54 Y92.317 E0.033
G1 X73.433 Y92.369 E0.03
G1 X74.326 Y91.831 E0.034
G1 X74.554 Y91.592 E0.011
G1 X80.806 Y95.202 E0.241
G1 X80.573 Y95.446 E0.011
G1 X79.681 Y95.887 E0.033
G1 X78.788 Y95.939 E0.03
G1 X77.896 Y95.402 E0.034
G1 X77.003 Y94.466 E0.043
G1 X76.111 Y94.025 E0.033
G1 X75.218 Y93.973 E0.03
G1 X74.326 Y94.51 E0.035
G1 X73.907 Y94.949 E0.02
G1 X81.177 Y99.146 E0.279
G1 X81.466 Y98.972 E0.011
G1 X82.359 Y98.037 E0.043
G1 X83.251 Y97.595 E0.033
G1 X84.144 Y97.543 E0.03
G1 X85.036 Y98.081 E0.035
G1 X85.929 Y99.016 E0.043
G1 X86.821 Y99.458 E0.033
G1 X87.714 Y99.509 E0.03
G1 X87.985 Y99.346 E0.01
G1 X94.177 Y102.921 E0.238
G1 X93.962 Y103.028 E0.008
G1 X93.069 Y103.08 E0.03
G1 X92.177 Y102.542 E0.034
G1 X91.284 Y101.607 E0.043
G1 X90.392 Y101.165 E0.034
G1 X89.499 Y101.113 E0.029
G1 X88.606 Y101.651 E0.035
G1 X87.714 Y102.586 E0.043
G1 X87.402 Y102.74 E0.011
G1 X90.816 Y104.711 E0.132
G1 X91.284 Y104.684 E0.015
G1 X92.177 Y105.221 E0.035
G1 X92.763 Y105.835 E0.028
G1 X94.098 Y106.606 E0.051
G1 X94.854 Y106.65 E0.026
G1 X95.747 Y106.112 E0.034
G1 X96.639 Y105.177 E0.043
G1 X97.417 Y104.792 E0.029
G1 X103.6 Y108.362 E0.237
G1 X102.887 Y108.791 E0.028
G1 X101.995 Y109.726 E0.043
G1 X101.102 Y110.168 E0.033
G1 X100.344 Y110.212 E0.026
G1 X99.182 Y109.541 E0.044
G1 X98.425 Y108.747 E0.037
G1 X97.532 Y108.306 E0.033
G1 X96.987 Y108.274 E0.018
;rapid-leaky
G0 X103.894 Y112.261 F9000
;bead-sparse_infill
G1 X104.672 Y111.876 F3600 E0.029
G1 X105.565 Y111.824 E0.03
G1 X106.458 Y112.361 E0.034
G1 X107.35 Y113.297 E0.043
G1 X108.243 Y113.738 E0.033
G1 X109.135 Y113.79 E0.03
G1 X110.028 Y113.253 E0.035
G1 X110.754 Y112.492 E0.035
G1 X111.205 Y112.753 E0.017
G1 X112.759 Y111.856 E0.06
G1 X113.598 Y112.361 E0.032
G1 X114.491 Y113.297 E0.043
G1 X115.383 Y113.738 E0.033
G1 X115.906 Y113.769 E0.018
G1 X117.621 Y112.779 E0.066
G1 X118.061 Y112.318 E0.021
G1 X118.953 Y111.876 E0.033
G1 X119.21 Y111.861 E0.009
G1 X122.099 Y110.193 E0.111
G1 X121.631 Y110.22 E0.015
G1 X120.739 Y109.683 E0.035
G1 X119.846 Y108.747 E0.043
G1 X118.953 Y108.306 E0.033
G1 X118.912 Y108.303 E0.001
G1 X122.169 Y106.423 E0.125
G1 X122.524 Y106.598 E0.014
G1 X123.416 Y106.65 E0.029
G1 X124.309 Y106.112 E0.035
G1 X125.201 Y105.177 E0.043
G1 X126.094 Y104.735 E0.033
G1 X126.986 Y104.684 E0.03
G1 X127.879 Y105.221 E0.034
G1 X128.772 Y106.156 E0.043
G1 X128.943 Y106.241 E0.007
G1 X125.434 Y108.267 E0.135
G1 X125.201 Y108.254 E0.007
G1 X124.309 Y108.791 E0.035
G1 X124.041 Y109.072 E0.013
G1 F1800 E-0.5
;rapid-dry
G0 X117.006 Y116.102 F9000
G1 F1800 E0.5
;bead-sparse_infill
G1 X116.276 Y116.867 F3600 E0.035
G1 X115.383 Y117.309 E0.033
G1 X114.491 Y117.361 E0.03
G1 X113.598 Y116.823 E0.035
G1 X112.705 Y115.888 E0.043
G1 X111.813 Y115.446 E0.033
G1 X110.92 Y115.394 E0.029
G1 X110.137 Y115.866 E0.031
G1 X117.456 Y120.092 E0.281
G1 X118.061 Y119.458 E0.029
G1 X118.953 Y119.016 E0.033
G1 X119.846 Y118.964 E0.03
